; generated by Slic3r 1.33.8-prusa3d-win64 on 2017-05-05 at 11:11:36

; external perimeters extrusion width = 0.45mm
; perimeters extrusion width = 0.45mm
; infill extrusion width = 0.45mm
; solid infill extrusion width = 0.45mm
; top infill extrusion width = 0.45mm

M107
M115 U3.0.10 ; tell printer latest fw version
M83  ; extruder relative mode
M104 S215 ; set extruder temp
M140 S55 ; set bed temp
M190 S55 ; wait for bed temp
M109 S215 ; wait for extruder temp
G28 W ; home all without mesh bed level
G80 ; mesh bed leveling
G1 Y-3.0 F1000.0 ; go outside pritn area
G1 X60.0 E9.0  F1000.0 ; intro line
G1 X100.0 E12.5  F1000.0 ; intro line
G21 ; set units to millimeters
G90 ; use absolute coordinates
M83 ; use relative distances for extrusion
G1 E-0.80000 F2100.00000
G1 Z0.200 F7200.000
G1 X131.432 Y87.929 F7200.000
G1 E0.80000 F2100.00000
M204 S1000
G1 F2100
G1 X131.737 Y87.549 E0.01526
G1 X132.308 Y86.980 E0.02529
G1 X132.591 Y86.754 E0.01133
G1 X132.856 Y86.598 E0.00967
G1 X133.144 Y86.475 E0.00979
G1 X133.444 Y86.392 E0.00979
G1 X133.753 Y86.348 E0.00979
G1 X152.948 Y86.342 E0.60183
G1 X153.297 Y86.370 E0.01098
G1 X153.641 Y86.451 E0.01110
G1 X153.967 Y86.580 E0.01098
G1 X154.270 Y86.756 E0.01098
G1 X154.555 Y86.985 E0.01145
G1 X155.168 Y87.598 E0.02721
G1 X155.368 Y87.843 E0.00991
G1 X155.531 Y88.109 E0.00979
G1 X155.649 Y88.369 E0.00895
G1 X155.734 Y88.638 E0.00883
G1 X155.787 Y88.918 E0.00895
G1 X155.806 Y89.203 E0.00895
G1 X155.804 Y128.303 E1.22594
G1 X155.768 Y128.639 E0.01062
G1 X155.684 Y128.971 E0.01074
G1 X155.552 Y129.288 E0.01074
G1 X155.377 Y129.582 E0.01074
G1 X155.158 Y129.850 E0.01086
G1 X154.544 Y130.463 E0.02720
G1 X154.305 Y130.657 E0.00967
G1 X154.039 Y130.821 E0.00979
G1 X153.782 Y130.938 E0.00883
G1 X153.514 Y131.023 E0.00883
G1 X153.237 Y131.076 E0.00883
G1 X152.952 Y131.096 E0.00895
G1 X133.921 Y131.096 E0.59670
G1 X133.640 Y131.078 E0.00883
G1 X133.363 Y131.028 E0.00883
G1 X132.943 Y130.882 E0.01395
G1 X132.554 Y130.658 E0.01407
G1 X123.953 Y124.344 E0.33454
G1 X123.685 Y124.119 E0.01096
G1 X123.426 Y123.850 E0.01171
G1 X123.157 Y123.494 E0.01400
G1 X122.975 Y123.185 E0.01124
G1 X122.818 Y122.838 E0.01196
G1 X122.699 Y122.464 E0.01230
G1 X122.614 Y122.010 E0.01447
G1 X122.590 Y121.622 E0.01219
G1 X122.766 Y104.964 E0.52234
G1 X122.790 Y104.597 E0.01154
G1 X122.871 Y104.162 E0.01387
G1 X122.991 Y103.780 E0.01255
G1 X123.150 Y103.425 E0.01219
G1 X131.400 Y87.980 E0.54905
G1 F5760
G1 X131.737 Y87.549 E-0.18923
G1 F5760
G1 X132.308 Y86.980 E-0.27936
G1 F5760
G1 X132.591 Y86.754 E-0.12521
G1 F5760
G1 X132.856 Y86.598 E-0.10679
G1 F5760
G1 X133.014 Y86.530 E-0.05941
G1 E-0.04000 F2100.00000
G1 X127.272 Y107.682 F7200.000
G1 E0.80000 F2100.00000
G1 F2100
G1 X127.272 Y108.149 E0.01464
G1 X127.723 Y108.391 E0.01604
G1 X128.065 Y108.649 E0.01344
G1 X128.300 Y108.884 E0.01041
G1 X128.558 Y109.226 E0.01344
G1 X128.720 Y109.516 E0.01041
G1 X128.819 Y109.750 E0.00796
G1 X128.896 Y109.991 E0.00795
G1 X128.975 Y110.413 E0.01344
G1 X128.989 Y110.864 E0.01416
G1 X128.950 Y111.272 E0.01284
G1 X128.874 Y111.595 E0.01041
G1 X128.720 Y111.995 E0.01345
G1 X128.558 Y112.285 E0.01041
G1 X128.247 Y112.685 E0.01589
G1 X127.930 Y112.974 E0.01344
G1 X127.635 Y113.180 E0.01128
G1 X127.635 Y113.577 E0.01246
G1 X128.016 Y113.862 E0.01492
G1 X128.363 Y114.232 E0.01590
G1 X128.636 Y114.659 E0.01589
G1 X128.770 Y114.963 E0.01041
G1 X128.888 Y115.376 E0.01345
G1 X128.934 Y115.705 E0.01041
G1 X128.934 Y116.233 E0.01658
G1 X128.888 Y116.562 E0.01041
G1 X128.785 Y116.931 E0.01201
G1 X128.671 Y117.208 E0.00939
G1 X128.551 Y117.432 E0.00795
G1 X128.363 Y117.706 E0.01041
G1 X128.198 Y117.898 E0.00796
G1 X127.882 Y118.187 E0.01344
G1 X127.608 Y118.375 E0.01041
G1 X127.269 Y118.563 E0.01214
G1 X127.269 Y119.007 E0.01390
G1 X127.596 Y119.193 E0.01180
G1 X127.996 Y119.504 E0.01589
G1 X128.333 Y119.884 E0.01590
G1 X128.593 Y120.318 E0.01589
G1 X128.748 Y120.718 E0.01344
G1 X128.824 Y121.041 E0.01041
G1 X128.863 Y121.449 E0.01283
G1 X128.856 Y121.822 E0.01170
G1 X128.824 Y122.074 E0.00796
G1 X128.748 Y122.397 E0.01041
G1 X128.558 Y122.867 E0.01590
G1 X128.285 Y123.294 E0.01589
G1 X128.121 Y123.487 E0.00796
G1 X127.804 Y123.776 E0.01344
G1 X127.376 Y124.049 E0.01590
G1 X126.906 Y124.239 E0.01589
G1 X126.410 Y124.339 E0.01589
G1 X125.803 Y124.346 E0.01903
G1 X125.303 Y124.260 E0.01589
G1 X124.828 Y124.084 E0.01590
G1 X124.393 Y123.823 E0.01589
G1 X124.013 Y123.487 E0.01589
G1 X123.702 Y123.087 E0.01590
G1 X123.470 Y122.636 E0.01590
G1 X123.324 Y122.151 E0.01589
G1 X123.271 Y121.666 E0.01528
G1 X123.285 Y121.215 E0.01416
G1 X123.364 Y120.794 E0.01344
G1 X123.470 Y120.479 E0.01041
G1 X123.661 Y120.095 E0.01345
G1 X123.961 Y119.686 E0.01589
G1 X124.195 Y119.451 E0.01041
G1 X124.538 Y119.193 E0.01344
G1 X124.943 Y118.963 E0.01460
G1 X124.943 Y118.520 E0.01390
G1 X124.616 Y118.334 E0.01180
G1 X124.408 Y118.187 E0.00796
G1 X124.215 Y118.022 E0.00796
G1 X123.927 Y117.706 E0.01344
G1 X123.780 Y117.498 E0.00796
G1 X123.619 Y117.208 E0.01041
G1 X123.464 Y116.808 E0.01344
G1 X123.388 Y116.485 E0.01041
G1 X123.349 Y116.078 E0.01283
G1 X123.363 Y115.626 E0.01416
G1 X123.464 Y115.129 E0.01589
G1 X123.619 Y114.730 E0.01345
G1 X123.853 Y114.332 E0.01446
G1 X124.091 Y114.039 E0.01184
G1 X124.408 Y113.750 E0.01345
G1 X124.703 Y113.544 E0.01127
G1 X124.703 Y113.147 E0.01246
G1 X124.322 Y112.862 E0.01493
G1 X123.975 Y112.492 E0.01589
G1 X123.787 Y112.218 E0.01041
G1 X123.568 Y111.761 E0.01590
G1 X123.450 Y111.348 E0.01345
G1 X123.404 Y111.020 E0.01041
G1 X123.397 Y110.646 E0.01171
G1 X123.436 Y110.239 E0.01283
G1 X123.512 Y109.916 E0.01041
G1 X123.648 Y109.558 E0.01202
G1 X123.787 Y109.293 E0.00938
G1 X123.975 Y109.019 E0.01041
G1 X124.264 Y108.702 E0.01344
G1 X124.519 Y108.490 E0.01041
G1 X124.730 Y108.349 E0.00795
G1 X125.164 Y108.124 E0.01532
G1 X125.164 Y107.657 E0.01464
G1 X124.713 Y107.416 E0.01604
G1 X124.313 Y107.104 E0.01590
G1 X123.977 Y106.725 E0.01589
G1 X123.751 Y106.360 E0.01345
G1 X123.562 Y105.890 E0.01589
G1 X123.485 Y105.567 E0.01041
G1 X123.447 Y105.160 E0.01283
G1 X123.461 Y104.708 E0.01416
G1 X123.540 Y104.287 E0.01344
G1 X123.617 Y104.045 E0.00796
G1 X123.751 Y103.741 E0.01041
G1 X123.977 Y103.377 E0.01345
G1 X124.189 Y103.121 E0.01041
G1 X124.506 Y102.832 E0.01345
G1 X124.780 Y102.645 E0.01041
G1 X125.164 Y102.454 E0.01345
G1 X125.404 Y102.369 E0.00796
G1 X125.727 Y102.294 E0.01041
G1 X125.978 Y102.262 E0.00795
G1 X126.312 Y102.254 E0.01048
G1 X126.585 Y102.269 E0.00857
G1 X126.836 Y102.308 E0.00796
G1 X127.322 Y102.454 E0.01590
G1 X127.552 Y102.559 E0.00796
G1 X127.917 Y102.785 E0.01344
G1 X128.296 Y103.121 E0.01590
G1 X128.608 Y103.521 E0.01589
G1 X128.840 Y103.972 E0.01590
G1 X128.946 Y104.287 E0.01041
G1 X129.000 Y104.535 E0.00796
G1 X129.032 Y104.786 E0.00796
G1 X129.040 Y105.120 E0.01047
G1 X129.024 Y105.393 E0.00857
G1 X128.986 Y105.644 E0.00796
G1 X128.840 Y106.130 E0.01589
G1 X128.608 Y106.580 E0.01589
G1 X128.296 Y106.980 E0.01589
G1 X127.917 Y107.316 E0.01589
G1 X127.705 Y107.457 E0.00796
G1 X127.325 Y107.655 E0.01344
G1 X127.177 Y107.300 F7200.000
G1 F2100
G1 X126.758 Y107.425 E0.01372
G1 X126.308 Y107.471 E0.01419
G1 X126.005 Y107.463 E0.00952
G1 X125.787 Y107.436 E0.00687
G1 X125.365 Y107.322 E0.01371
G1 X124.971 Y107.132 E0.01372
G1 X124.619 Y106.873 E0.01371
G1 X124.421 Y106.675 E0.00877
G1 X124.283 Y106.505 E0.00686
G1 X124.058 Y106.130 E0.01371
G1 X123.905 Y105.720 E0.01371
G1 X123.858 Y105.506 E0.00686
G1 X123.824 Y105.147 E0.01133
G1 X123.830 Y104.813 E0.01048
G1 X123.858 Y104.595 E0.00687
G1 X123.972 Y104.173 E0.01371
G1 X124.162 Y103.779 E0.01371
G1 X124.283 Y103.597 E0.00686
G1 X124.462 Y103.382 E0.00877
G1 X124.789 Y103.091 E0.01371
G1 X125.164 Y102.866 E0.01371
G1 X125.574 Y102.713 E0.01371
G1 X125.787 Y102.666 E0.00686
G1 X126.147 Y102.632 E0.01133
G1 X126.481 Y102.638 E0.01047
G1 X126.698 Y102.666 E0.00686
G1 X127.120 Y102.780 E0.01371
G1 X127.515 Y102.970 E0.01372
G1 X127.745 Y103.128 E0.00877
G1 X127.912 Y103.270 E0.00686
G1 X128.202 Y103.597 E0.01371
G1 X128.428 Y103.972 E0.01371
G1 X128.580 Y104.382 E0.01371
G1 X128.628 Y104.595 E0.00686
G1 X128.662 Y104.955 E0.01133
G1 X128.655 Y105.289 E0.01047
G1 X128.628 Y105.506 E0.00687
G1 X128.514 Y105.928 E0.01371
G1 X128.324 Y106.322 E0.01371
G1 X128.202 Y106.505 E0.00686
G1 X128.024 Y106.720 E0.00877
G1 X127.697 Y107.010 E0.01371
G1 X127.514 Y107.132 E0.00686
G1 X127.232 Y107.275 E0.00993
G1 X127.162 Y106.894 F7200.000
G1 F2100
G1 X126.817 Y107.023 E0.01153
G1 X126.455 Y107.087 E0.01153
G1 X126.031 Y107.087 E0.01330
G1 X125.627 Y107.011 E0.01289
G1 X125.285 Y106.875 E0.01153
G1 X125.125 Y106.784 E0.00577
G1 X124.888 Y106.606 E0.00929
G1 X124.616 Y106.319 E0.01241
G1 X124.419 Y106.008 E0.01153
G1 X124.270 Y105.625 E0.01289
G1 X124.207 Y105.263 E0.01153
G1 X124.207 Y104.839 E0.01331
G1 X124.282 Y104.435 E0.01289
G1 X124.419 Y104.093 E0.01153
G1 X124.616 Y103.783 E0.01153
G1 X124.735 Y103.642 E0.00577
G1 X124.953 Y103.442 E0.00929
G1 X125.285 Y103.227 E0.01241
G1 X125.627 Y103.090 E0.01153
G1 X126.031 Y103.015 E0.01289
G1 X126.455 Y103.015 E0.01331
G1 X126.859 Y103.090 E0.01289
G1 X127.033 Y103.151 E0.00577
G1 X127.299 Y103.281 E0.00929
G1 X127.619 Y103.513 E0.01241
G1 X127.870 Y103.783 E0.01153
G1 X128.067 Y104.093 E0.01153
G1 X128.215 Y104.476 E0.01289
G1 X128.279 Y104.839 E0.01153
G1 X128.279 Y105.263 E0.01330
G1 X128.203 Y105.667 E0.01289
G1 X128.067 Y106.009 E0.01153
G1 X127.870 Y106.319 E0.01153
G1 X127.619 Y106.588 E0.01153
G1 X127.476 Y106.704 E0.00577
G1 X127.215 Y106.867 E0.00966
G1 X127.025 Y106.541 F7200.000
G1 F2100
G1 X126.748 Y106.651 E0.00935
G1 X126.455 Y106.708 E0.00935
G1 X126.057 Y106.711 E0.01248
G1 X125.763 Y106.658 E0.00935
G1 X125.484 Y106.553 E0.00935
G1 X125.230 Y106.398 E0.00935
G1 X125.008 Y106.199 E0.00935
G1 X124.812 Y105.940 E0.01016
G1 X124.682 Y105.672 E0.00935
G1 X124.602 Y105.385 E0.00935
G1 X124.577 Y104.994 E0.01227
G1 X124.607 Y104.691 E0.00955
G1 X124.733 Y104.310 E0.01258
G1 X124.896 Y104.038 E0.00996
G1 X125.095 Y103.816 E0.00935
G1 X125.353 Y103.620 E0.01016
G1 X125.621 Y103.490 E0.00935
G1 X125.909 Y103.410 E0.00935
G1 X126.299 Y103.385 E0.01227
G1 X126.602 Y103.415 E0.00955
G1 X126.889 Y103.499 E0.00935
G1 X127.025 Y103.560 E0.00468
G1 X127.256 Y103.704 E0.00853
G1 X127.478 Y103.903 E0.00935
G1 X127.673 Y104.161 E0.01016
G1 X127.804 Y104.429 E0.00935
G1 X127.850 Y104.571 E0.00468
G1 X127.900 Y104.839 E0.00853
G1 X127.903 Y105.237 E0.01248
G1 X127.850 Y105.530 E0.00935
G1 X127.745 Y105.809 E0.00935
G1 X127.574 Y106.085 E0.01016
G1 X127.372 Y106.304 E0.00935
G1 X127.077 Y106.512 E0.01131
G1 X126.894 Y106.183 F7200.000
G1 F2100
G1 X126.636 Y106.291 E0.00876
G1 X126.411 Y106.334 E0.00717
G1 X126.083 Y106.334 E0.01030
G1 X125.858 Y106.293 E0.00717
G1 X125.645 Y106.211 E0.00717
G1 X125.450 Y106.092 E0.00717
G1 X125.280 Y105.938 E0.00717
G1 X125.137 Y105.749 E0.00744
G1 X125.036 Y105.544 E0.00717
G1 X124.975 Y105.324 E0.00717
G1 X124.954 Y104.999 E0.01022
G1 X124.976 Y104.769 E0.00723
G1 X125.078 Y104.463 E0.01012
G1 X125.202 Y104.258 E0.00750
G1 X125.355 Y104.088 E0.00717
G1 X125.544 Y103.945 E0.00744
G1 X125.749 Y103.844 E0.00717
G1 X125.969 Y103.783 E0.00717
G1 X126.295 Y103.762 E0.01022
G1 X126.525 Y103.784 E0.00723
G1 X126.831 Y103.886 E0.01012
G1 X127.036 Y104.010 E0.00750
G1 X127.205 Y104.163 E0.00717
G1 X127.344 Y104.345 E0.00717
G1 X127.446 Y104.549 E0.00717
G1 X127.511 Y104.778 E0.00744
G1 X127.531 Y105.103 E0.01022
G1 X127.509 Y105.333 E0.00723
G1 X127.408 Y105.639 E0.01012
G1 X127.284 Y105.844 E0.00750
G1 X127.130 Y106.013 E0.00717
G1 X126.946 Y106.153 E0.00726
G1 F5760
G1 X126.636 Y106.291 E-0.11746
G1 F5760
G1 X126.411 Y106.334 E-0.07916
G1 F5760
G1 X126.083 Y106.334 E-0.11380
G1 F5760
G1 X125.858 Y106.293 E-0.07916
G1 F5760
G1 X125.645 Y106.211 E-0.07916
G1 F5760
G1 X125.450 Y106.092 E-0.07916
G1 F5760
G1 X125.280 Y105.938 E-0.07916
G1 F5760
G1 X125.137 Y105.749 E-0.08217
G1 F5760
G1 X125.073 Y105.618 E-0.05076
G1 E-0.04000 F2100.00000
G1 X126.846 Y113.113 F7200.000
G1 E0.80000 F2100.00000
G1 F2100
G1 X126.846 Y113.630 E0.01620
G1 X127.224 Y113.784 E0.01280
G1 X127.417 Y113.888 E0.00687
G1 X127.769 Y114.147 E0.01371
G1 X128.068 Y114.466 E0.01372
G1 X128.226 Y114.697 E0.00877
G1 X128.330 Y114.890 E0.00686
G1 X128.483 Y115.300 E0.01371
G1 X128.557 Y115.731 E0.01372
G1 X128.557 Y116.207 E0.01494
G1 X128.483 Y116.638 E0.01371
G1 X128.330 Y117.048 E0.01372
G1 X128.226 Y117.240 E0.00686
G1 X128.068 Y117.471 E0.00877
G1 X127.926 Y117.638 E0.00686
G1 X127.647 Y117.892 E0.01181
G1 X127.279 Y118.127 E0.01371
G1 X126.873 Y118.290 E0.01371
G1 X126.444 Y118.376 E0.01371
G1 X125.907 Y118.381 E0.01685
G1 X125.476 Y118.307 E0.01371
G1 X125.210 Y118.218 E0.00877
G1 X124.821 Y118.018 E0.01371
G1 X124.521 Y117.791 E0.01181
G1 X124.222 Y117.471 E0.01371
G1 X124.064 Y117.240 E0.00878
G1 X123.874 Y116.846 E0.01371
G1 X123.760 Y116.424 E0.01371
G1 X123.725 Y116.034 E0.01228
G1 X123.738 Y115.670 E0.01143
G1 X123.824 Y115.241 E0.01371
G1 X123.960 Y114.890 E0.01181
G1 X124.185 Y114.515 E0.01371
G1 X124.476 Y114.188 E0.01371
G1 X124.691 Y114.009 E0.00877
G1 X125.066 Y113.784 E0.01371
G1 X125.492 Y113.611 E0.01442
G1 X125.492 Y113.094 E0.01620
G1 X125.114 Y112.940 E0.01280
G1 X124.922 Y112.836 E0.00686
G1 X124.569 Y112.577 E0.01371
G1 X124.371 Y112.379 E0.00877
G1 X124.234 Y112.209 E0.00686
G1 X124.008 Y111.834 E0.01371
G1 X123.856 Y111.424 E0.01371
G1 X123.786 Y111.054 E0.01181
G1 X123.774 Y110.659 E0.01238
G1 X123.819 Y110.240 E0.01323
G1 X123.922 Y109.878 E0.01181
G1 X124.035 Y109.622 E0.00877
G1 X124.234 Y109.301 E0.01181
G1 X124.412 Y109.086 E0.00877
G1 X124.691 Y108.832 E0.01181
G1 X124.922 Y108.674 E0.00877
G1 X125.225 Y108.521 E0.01065
G1 X125.465 Y108.434 E0.00802
G1 X125.894 Y108.348 E0.01371
G1 X126.432 Y108.343 E0.01685
G1 X126.863 Y108.418 E0.01372
G1 X127.128 Y108.507 E0.00877
G1 X127.327 Y108.598 E0.00686
G1 X127.696 Y108.832 E0.01371
G1 X128.015 Y109.131 E0.01371
G1 X128.274 Y109.484 E0.01371
G1 X128.378 Y109.676 E0.00686
G1 X128.514 Y110.027 E0.01181
G1 X128.600 Y110.456 E0.01371
G1 X128.606 Y110.994 E0.01685
G1 X128.578 Y111.211 E0.00687
G1 X128.514 Y111.483 E0.00877
G1 X128.351 Y111.889 E0.01371
G1 X128.116 Y112.258 E0.01371
G1 X127.974 Y112.424 E0.00686
G1 X127.696 Y112.678 E0.01181
G1 X127.327 Y112.913 E0.01371
G1 X126.902 Y113.091 E0.01445
G1 X126.768 Y112.728 F7200.000
G1 F2100
G1 X126.405 Y112.791 E0.01153
G1 X125.938 Y112.787 E0.01466
G1 X125.577 Y112.716 E0.01153
G1 X125.235 Y112.579 E0.01153
G1 X124.925 Y112.382 E0.01153
G1 X124.785 Y112.263 E0.00577
G1 X124.566 Y112.024 E0.01017
G1 X124.369 Y111.713 E0.01153
G1 X124.233 Y111.372 E0.01153
G1 X124.157 Y110.967 E0.01289
G1 X124.157 Y110.543 E0.01331
G1 X124.233 Y110.139 E0.01289
G1 X124.369 Y109.798 E0.01153
G1 X124.566 Y109.487 E0.01153
G1 X124.685 Y109.347 E0.00577
G1 X124.903 Y109.146 E0.00929
G1 X125.235 Y108.931 E0.01241
G1 X125.577 Y108.795 E0.01153
G1 X125.981 Y108.719 E0.01289
G1 X126.405 Y108.719 E0.01331
G1 X126.768 Y108.783 E0.01153
G1 X127.151 Y108.931 E0.01289
G1 X127.461 Y109.128 E0.01153
G1 X127.731 Y109.379 E0.01153
G1 X127.949 Y109.675 E0.01153
G1 X128.037 Y109.837 E0.00577
G1 X128.154 Y110.139 E0.01017
G1 X128.229 Y110.543 E0.01289
G1 X128.229 Y110.967 E0.01330
G1 X128.154 Y111.372 E0.01289
G1 X128.017 Y111.713 E0.01153
G1 X127.820 Y112.024 E0.01153
G1 X127.570 Y112.293 E0.01153
G1 X127.274 Y112.511 E0.01153
G1 X127.112 Y112.599 E0.00577
G1 X126.825 Y112.711 E0.00965
G1 X126.698 Y112.356 F7200.000
G1 F2100
G1 X126.379 Y112.415 E0.01017
G1 X126.007 Y112.415 E0.01167
G1 X125.714 Y112.363 E0.00935
G1 X125.435 Y112.257 E0.00935
G1 X125.180 Y112.102 E0.00935
G1 X124.958 Y111.903 E0.00935
G1 X124.776 Y111.667 E0.00935
G1 X124.632 Y111.377 E0.01016
G1 X124.553 Y111.089 E0.00935
G1 X124.528 Y110.699 E0.01227
G1 X124.558 Y110.396 E0.00955
G1 X124.641 Y110.109 E0.00935
G1 X124.776 Y109.844 E0.00935
G1 X124.862 Y109.721 E0.00468
G1 X125.045 Y109.520 E0.00853
G1 X125.282 Y109.339 E0.00935
G1 X125.572 Y109.194 E0.01016
