; generated by Slic3r 1.33.8-prusa3d-win64 on 2017-05-06 at 10:48:00

; external perimeters extrusion width = 0.45mm
; perimeters extrusion width = 0.45mm
; infill extrusion width = 0.45mm
; solid infill extrusion width = 0.45mm
; top infill extrusion width = 0.45mm

M107
M115 U3.0.10 ; tell printer latest fw version
M83  ; extruder relative mode
M104 S215 ; set extruder temp
M140 S55 ; set bed temp
M190 S55 ; wait for bed temp
M109 S215 ; wait for extruder temp
G28 W ; home all without mesh bed level
G80 ; mesh bed leveling
G1 Y-3.0 F1000.0 ; go outside pritn area
G1 X60.0 E9.0  F1000.0 ; intro line
G1 X100.0 E12.5  F1000.0 ; intro line
G21 ; set units to millimeters
G90 ; use absolute coordinates
M83 ; use relative distances for extrusion
G1 E-0.80000 F2100.00000
G1 Z0.200 F7200.000
G1 X102.346 Y96.291 F7200.000
G1 E0.80000 F2100.00000
M204 S1000
G1 F2100
G1 X102.948 Y95.729 E0.02584
G1 X103.462 Y95.303 E0.02093
G1 X104.048 Y94.872 E0.02281
G1 X104.743 Y94.426 E0.02589
G1 X105.327 Y94.098 E0.02101
G1 X105.925 Y93.805 E0.02088
G1 X106.683 Y93.488 E0.02576
G1 X107.464 Y93.222 E0.02589
G1 X108.102 Y93.045 E0.02075
G1 X108.761 Y92.902 E0.02114
G1 X109.618 Y92.771 E0.02717
G1 X110.305 Y92.710 E0.02165
G1 X110.991 Y92.688 E0.02152
G1 X135.395 Y92.225 E0.76531
G1 X136.157 Y92.247 E0.02389
G1 X136.898 Y92.314 E0.02332
G1 X137.633 Y92.426 E0.02332
G1 X138.368 Y92.584 E0.02358
G1 X139.073 Y92.780 E0.02294
G1 X139.715 Y93.000 E0.02126
G1 X140.538 Y93.342 E0.02794
G1 X141.143 Y93.638 E0.02114
G1 X141.784 Y94.000 E0.02306
G1 X142.402 Y94.399 E0.02306
G1 X142.942 Y94.795 E0.02101
G1 X143.634 Y95.370 E0.02820
G1 X144.126 Y95.836 E0.02126
G1 X144.625 Y96.365 E0.02281
G1 X145.158 Y97.010 E0.02622
G1 X145.552 Y97.549 E0.02093
G1 X145.954 Y98.170 E0.02319
G1 X146.315 Y98.811 E0.02306
G1 X146.611 Y99.416 E0.02114
G1 X146.953 Y100.239 E0.02794
G1 X147.172 Y100.881 E0.02126
G1 X147.370 Y101.590 E0.02306
G1 X147.524 Y102.309 E0.02306
G1 X147.627 Y102.971 E0.02101
G1 X147.709 Y103.867 E0.02820
G1 X147.728 Y104.544 E0.02126
G1 X147.706 Y105.272 E0.02281
G1 X147.627 Y106.102 E0.02615
G1 X147.525 Y106.764 E0.02101
G1 X147.368 Y107.491 E0.02332
G1 X147.167 Y108.211 E0.02345
G1 X146.900 Y108.975 E0.02538
G1 X146.609 Y109.664 E0.02345
G1 X146.318 Y110.259 E0.02075
G1 X145.994 Y110.836 E0.02075
G1 X145.556 Y111.521 E0.02550
G1 X145.113 Y112.124 E0.02345
G1 X144.632 Y112.702 E0.02358
G1 X144.119 Y113.246 E0.02345
G1 X143.572 Y113.761 E0.02358
G1 X142.951 Y114.274 E0.02525
G1 X142.340 Y114.717 E0.02365
G1 X141.786 Y115.074 E0.02067
G1 X141.210 Y115.400 E0.02075
G1 X140.481 Y115.760 E0.02550
G1 X139.790 Y116.047 E0.02345
G1 X139.079 Y116.293 E0.02358
G1 X138.347 Y116.496 E0.02383
G1 X137.632 Y116.649 E0.02294
G1 X136.904 Y116.760 E0.02306
G1 X136.168 Y116.827 E0.02319
G1 X135.498 Y116.849 E0.02101
G1 X111.090 Y117.313 E0.76544
G1 X110.312 Y117.291 E0.02441
G1 X109.571 Y117.224 E0.02332
G1 X108.832 Y117.111 E0.02345
G1 X108.101 Y116.954 E0.02345
G1 X107.384 Y116.755 E0.02332
G1 X106.673 Y116.509 E0.02358
G1 X105.986 Y116.224 E0.02332
G1 X105.260 Y115.866 E0.02538
G1 X104.610 Y115.493 E0.02352
G1 X104.056 Y115.134 E0.02068
G1 X103.523 Y114.743 E0.02075
G1 X102.898 Y114.228 E0.02538
G1 X102.397 Y113.759 E0.02152
G1 X101.840 Y113.172 E0.02538
G1 X101.363 Y112.601 E0.02332
G1 X100.917 Y111.996 E0.02358
G1 X100.513 Y111.371 E0.02332
G1 X100.148 Y110.723 E0.02332
G1 X99.819 Y110.047 E0.02358
G1 X99.533 Y109.356 E0.02345
G1 X99.273 Y108.590 E0.02538
G1 X99.076 Y107.866 E0.02352
G1 X98.939 Y107.221 E0.02067
G1 X98.838 Y106.567 E0.02075
G1 X98.761 Y105.761 E0.02538
G1 X98.738 Y105.075 E0.02152
G1 X98.759 Y104.266 E0.02538
G1 X98.826 Y103.525 E0.02332
G1 X98.939 Y102.782 E0.02358
G1 X99.096 Y102.051 E0.02345
G1 X99.295 Y101.334 E0.02332
G1 X99.541 Y100.623 E0.02358
G1 X99.826 Y99.936 E0.02332
G1 X100.184 Y99.210 E0.02538
G1 X100.557 Y98.560 E0.02352
G1 X100.916 Y98.006 E0.02068
G1 X101.310 Y97.469 E0.02088
G1 X101.822 Y96.848 E0.02525
G1 X102.303 Y96.334 E0.02208
G1 X102.613 Y96.557 F7200.000
G1 F2100
G1 X103.190 Y96.019 E0.02472
G1 X103.692 Y95.602 E0.02049
G1 X104.264 Y95.181 E0.02225
G1 X104.931 Y94.753 E0.02487
G1 X105.504 Y94.431 E0.02058
G1 X106.090 Y94.144 E0.02046
G1 X106.818 Y93.840 E0.02475
G1 X107.565 Y93.585 E0.02475
G1 X108.194 Y93.411 E0.02046
G1 X108.839 Y93.271 E0.02070
G1 X109.657 Y93.146 E0.02595
G1 X110.330 Y93.086 E0.02117
G1 X111.001 Y93.065 E0.02105
G1 X135.396 Y92.602 E0.76504
G1 X136.132 Y92.623 E0.02308
G1 X136.850 Y92.688 E0.02261
G1 X137.567 Y92.797 E0.02273
G1 X138.265 Y92.947 E0.02237
G1 X139.034 Y93.164 E0.02508
G1 X139.652 Y93.379 E0.02049
G1 X140.318 Y93.655 E0.02261
G1 X140.959 Y93.967 E0.02237
G1 X141.534 Y94.291 E0.02070
G1 X142.254 Y94.756 E0.02687
G1 X142.779 Y95.144 E0.02049
G1 X143.330 Y95.604 E0.02249
G1 X143.850 Y96.093 E0.02237
G1 X144.306 Y96.575 E0.02082
G1 X144.850 Y97.228 E0.02666
G1 X145.240 Y97.761 E0.02070
G1 X145.628 Y98.360 E0.02237
G1 X145.980 Y98.984 E0.02249
G1 X146.269 Y99.574 E0.02058
G1 X146.578 Y100.313 E0.02511
G1 X146.809 Y100.983 E0.02225
G1 X146.988 Y101.619 E0.02070
G1 X147.167 Y102.457 E0.02687
G1 X147.264 Y103.103 E0.02049
G1 X147.329 Y103.817 E0.02249
G1 X147.351 Y104.530 E0.02237
G1 X147.332 Y105.190 E0.02070
G1 X147.256 Y106.037 E0.02666
G1 X147.154 Y106.693 E0.02082
G1 X147.006 Y107.387 E0.02225
G1 X146.810 Y108.089 E0.02284
G1 X146.572 Y108.778 E0.02285
G1 X146.296 Y109.444 E0.02261
G1 X145.949 Y110.147 E0.02460
G1 X145.629 Y110.713 E0.02037
G1 X145.278 Y111.258 E0.02034
G1 X144.850 Y111.847 E0.02284
G1 X144.354 Y112.447 E0.02440
G1 X143.854 Y112.978 E0.02284
G1 X143.324 Y113.477 E0.02285
G1 X142.724 Y113.973 E0.02440
G1 X142.138 Y114.399 E0.02272
G1 X141.589 Y114.752 E0.02046
G1 X141.025 Y115.072 E0.02034
G1 X140.323 Y115.417 E0.02451
G1 X139.654 Y115.695 E0.02273
G1 X138.965 Y115.933 E0.02284
G1 X138.252 Y116.131 E0.02320
G1 X137.566 Y116.278 E0.02201
G1 X136.857 Y116.386 E0.02249
G1 X136.143 Y116.451 E0.02249
G1 X135.487 Y116.472 E0.02058
G1 X111.088 Y116.936 E0.76516
G1 X110.333 Y116.914 E0.02368
G1 X109.615 Y116.849 E0.02261
G1 X108.902 Y116.741 E0.02261
G1 X108.200 Y116.591 E0.02249
G1 X107.499 Y116.395 E0.02284
G1 X106.813 Y116.159 E0.02273
G1 X106.144 Y115.881 E0.02273
G1 X105.446 Y115.538 E0.02440
G1 X104.814 Y115.176 E0.02281
G1 X104.269 Y114.823 E0.02037
G1 X103.746 Y114.439 E0.02034
G1 X103.146 Y113.944 E0.02440
G1 X102.656 Y113.485 E0.02105
G1 X102.121 Y112.920 E0.02440
G1 X101.659 Y112.367 E0.02261
G1 X101.227 Y111.780 E0.02285
G1 X100.835 Y111.174 E0.02261
G1 X100.481 Y110.546 E0.02261
G1 X100.162 Y109.891 E0.02284
G1 X99.887 Y109.225 E0.02261
G1 X99.636 Y108.488 E0.02440
G1 X99.458 Y107.845 E0.02093
G1 X99.298 Y107.081 E0.02448
G1 X99.201 Y106.438 E0.02037
G1 X99.141 Y105.792 E0.02034
G1 X99.115 Y105.068 E0.02272
G1 X99.136 Y104.286 E0.02452
G1 X99.200 Y103.568 E0.02261
G1 X99.310 Y102.848 E0.02285
G1 X99.461 Y102.143 E0.02261
G1 X99.655 Y101.449 E0.02261
G1 X99.893 Y100.760 E0.02285
G1 X100.169 Y100.094 E0.02261
G1 X100.512 Y99.396 E0.02440
G1 X100.874 Y98.764 E0.02281
G1 X101.227 Y98.219 E0.02037
G1 X101.611 Y97.696 E0.02034
G1 X102.106 Y97.096 E0.02440
G1 X102.571 Y96.600 E0.02132
G1 F5760
G1 X103.190 Y96.019 E-0.29381
G1 F5760
G1 X103.692 Y95.602 E-0.22637
G1 F5760
G1 X104.250 Y95.191 E-0.23982
G1 E-0.04000 F2100.00000
G1 X127.207 Y101.990 F7200.000
G1 E0.80000 F2100.00000
G1 F1680
G1 X127.475 Y101.262 E0.02431
G1 X127.810 Y100.535 E0.02510
G1 X128.060 Y100.091 E0.01596
G1 X128.342 Y99.655 E0.01628
G1 X128.650 Y99.237 E0.01628
G1 X128.982 Y98.838 E0.01628
G1 X129.338 Y98.460 E0.01628
G1 X129.716 Y98.105 E0.01628
G1 X130.115 Y97.772 E0.01628
G1 X130.533 Y97.465 E0.01628
G1 X130.969 Y97.183 E0.01628
G1 X131.421 Y96.928 E0.01628
G1 X131.888 Y96.700 E0.01628
G1 X132.367 Y96.502 E0.01628
G1 X132.858 Y96.332 E0.01628
G1 X133.358 Y96.193 E0.01628
G1 X133.866 Y96.084 E0.01628
G1 X134.379 Y96.006 E0.01628
G1 X134.887 Y95.960 E0.01598
G1 X135.662 Y95.952 E0.02431
G1 X136.461 Y96.007 E0.02510
G1 X136.964 Y96.084 E0.01596
G1 X137.472 Y96.193 E0.01628
G1 X137.972 Y96.332 E0.01628
G1 X138.462 Y96.502 E0.01628
G1 X138.942 Y96.700 E0.01628
G1 X139.409 Y96.928 E0.01628
G1 X139.861 Y97.183 E0.01628
G1 X140.297 Y97.465 E0.01628
G1 X140.715 Y97.772 E0.01628
G1 X141.114 Y98.105 E0.01628
G1 X141.492 Y98.460 E0.01628
G1 X141.848 Y98.838 E0.01628
G1 X142.180 Y99.237 E0.01628
G1 X142.482 Y99.648 E0.01598
G1 X142.890 Y100.307 E0.02431
G1 X143.256 Y101.020 E0.02510
G1 X143.451 Y101.490 E0.01596
G1 X143.620 Y101.981 E0.01628
G1 X143.759 Y102.481 E0.01628
G1 X143.868 Y102.988 E0.01628
G1 X143.946 Y103.502 E0.01628
G1 X143.993 Y104.019 E0.01628
G1 X144.009 Y104.537 E0.01628
G1 X143.993 Y105.056 E0.01628
G1 X143.946 Y105.573 E0.01628
G1 X143.868 Y106.087 E0.01628
G1 X143.759 Y106.594 E0.01628
G1 X143.622 Y107.085 E0.01598
G1 X143.355 Y107.813 E0.02431
G1 X143.020 Y108.540 E0.02510
G1 X142.770 Y108.984 E0.01596
G1 X142.493 Y109.412 E0.01598
G1 X142.021 Y110.027 E0.02431
G1 X141.491 Y110.614 E0.02479
G1 X140.906 Y111.142 E0.02472
G1 X140.289 Y111.615 E0.02439
G1 X139.861 Y111.892 E0.01598
G1 X139.409 Y112.147 E0.01628
G1 X138.942 Y112.374 E0.01628
G1 X138.462 Y112.573 E0.01628
G1 X137.981 Y112.739 E0.01598
G1 X137.230 Y112.933 E0.02431
G1 X136.441 Y113.070 E0.02510
G1 X135.934 Y113.116 E0.01596
G1 X135.415 Y113.132 E0.01628
G1 X134.896 Y113.116 E0.01628
G1 X134.379 Y113.069 E0.01628
G1 X133.866 Y112.991 E0.01628
G1 X133.358 Y112.882 E0.01628
G1 X132.858 Y112.743 E0.01628
G1 X132.367 Y112.573 E0.01628
G1 X131.888 Y112.374 E0.01628
G1 X131.421 Y112.147 E0.01628
G1 X130.969 Y111.892 E0.01628
G1 X130.533 Y111.610 E0.01628
G1 X130.115 Y111.303 E0.01628
G1 X129.716 Y110.970 E0.01628
G1 X129.338 Y110.614 E0.01628
G1 X128.982 Y110.236 E0.01628
G1 X128.650 Y109.838 E0.01628
G1 X128.342 Y109.420 E0.01628
G1 X128.060 Y108.984 E0.01628
G1 X127.805 Y108.531 E0.01628
G1 X127.578 Y108.065 E0.01628
G1 X127.379 Y107.585 E0.01628
G1 X127.210 Y107.094 E0.01628
G1 X127.070 Y106.594 E0.01628
G1 X126.962 Y106.087 E0.01628
G1 X126.883 Y105.573 E0.01628
G1 X126.836 Y105.056 E0.01628
G1 X126.821 Y104.537 E0.01628
G1 X126.836 Y104.019 E0.01628
G1 X126.883 Y103.502 E0.01628
G1 X126.962 Y102.988 E0.01628
G1 X127.070 Y102.481 E0.01628
G1 X127.191 Y102.048 E0.01410
G1 X126.848 Y101.874 F7200.000
G1 F1680
G1 X127.126 Y101.118 E0.02526
G1 X127.474 Y100.363 E0.02606
G1 X127.737 Y99.896 E0.01680
G1 X128.032 Y99.441 E0.01699
G1 X128.353 Y99.005 E0.01699
G1 X128.700 Y98.588 E0.01699
G1 X129.071 Y98.194 E0.01699
G1 X129.466 Y97.822 E0.01699
G1 X129.882 Y97.475 E0.01699
G1 X130.319 Y97.154 E0.01699
G1 X130.774 Y96.860 E0.01699
G1 X131.246 Y96.594 E0.01699
G1 X131.733 Y96.356 E0.01699
G1 X132.234 Y96.149 E0.01699
G1 X132.746 Y95.972 E0.01699
G1 X133.268 Y95.827 E0.01699
G1 X133.798 Y95.713 E0.01699
G1 X134.334 Y95.631 E0.01699
G1 X134.868 Y95.583 E0.01681
G1 X135.673 Y95.574 E0.02526
G1 X136.502 Y95.632 E0.02606
G1 X137.032 Y95.713 E0.01680
G1 X137.562 Y95.827 E0.01699
G1 X138.084 Y95.972 E0.01699
G1 X138.596 Y96.149 E0.01699
G1 X139.097 Y96.356 E0.01699
G1 X139.584 Y96.594 E0.01699
G1 X140.056 Y96.860 E0.01699
G1 X140.511 Y97.154 E0.01699
G1 X140.948 Y97.475 E0.01699
G1 X141.364 Y97.822 E0.01699
G1 X141.759 Y98.194 E0.01699
G1 X142.130 Y98.588 E0.01699
G1 X142.477 Y99.005 E0.01699
G1 X142.795 Y99.436 E0.01681
G1 X143.219 Y100.122 E0.02526
G1 X143.598 Y100.861 E0.02606
G1 X143.803 Y101.356 E0.01680
G1 X143.980 Y101.868 E0.01699
G1 X144.126 Y102.390 E0.01699
G1 X144.239 Y102.920 E0.01699
G1 X144.321 Y103.456 E0.01699
G1 X144.370 Y103.996 E0.01699
G1 X144.386 Y104.537 E0.01699
G1 X144.370 Y105.079 E0.01699
G1 X144.321 Y105.619 E0.01699
G1 X144.239 Y106.155 E0.01699
G1 X144.126 Y106.684 E0.01699
G1 X143.982 Y107.201 E0.01681
G1 X143.704 Y107.957 E0.02526
G1 X143.356 Y108.712 E0.02606
G1 X143.092 Y109.179 E0.01680
G1 X142.801 Y109.629 E0.01681
G1 X142.311 Y110.269 E0.02526
G1 X141.758 Y110.881 E0.02587
G1 X141.148 Y111.432 E0.02579
G1 X140.506 Y111.924 E0.02534
G1 X140.056 Y112.215 E0.01681
G1 X139.584 Y112.481 E0.01699
G1 X139.097 Y112.719 E0.01699
G1 X138.596 Y112.926 E0.01699
G1 X138.089 Y113.101 E0.01681
G1 X137.309 Y113.302 E0.02526
G1 X136.490 Y113.444 E0.02606
G1 X135.957 Y113.493 E0.01680
G1 X135.415 Y113.509 E0.01699
G1 X134.873 Y113.493 E0.01699
G1 X134.334 Y113.443 E0.01699
G1 X133.798 Y113.362 E0.01699
G1 X133.268 Y113.248 E0.01699
G1 X132.746 Y113.103 E0.01699
G1 X132.234 Y112.926 E0.01699
G1 X131.733 Y112.719 E0.01699
G1 X131.246 Y112.481 E0.01699
G1 X130.774 Y112.215 E0.01699
G1 X130.319 Y111.921 E0.01699
G1 X129.882 Y111.600 E0.01699
G1 X129.466 Y111.253 E0.01699
G1 X129.071 Y110.881 E0.01699
G1 X128.700 Y110.487 E0.01699
G1 X128.353 Y110.070 E0.01699
G1 X128.032 Y109.634 E0.01699
G1 X127.737 Y109.179 E0.01699
G1 X127.471 Y108.707 E0.01699
G1 X127.234 Y108.219 E0.01699
G1 X127.026 Y107.719 E0.01699
G1 X126.850 Y107.206 E0.01699
G1 X126.704 Y106.684 E0.01699
G1 X126.590 Y106.155 E0.01699
G1 X126.509 Y105.619 E0.01699
G1 X126.460 Y105.079 E0.01699
G1 X126.443 Y104.537 E0.01699
G1 X126.460 Y103.996 E0.01699
G1 X126.509 Y103.456 E0.01699
G1 X126.590 Y102.920 E0.01699
G1 X126.704 Y102.390 E0.01699
G1 X126.832 Y101.932 E0.01493
G1 X126.489 Y101.758 F7200.000
G1 F1050
G1 X126.777 Y100.973 E0.02621
G1 X127.138 Y100.191 E0.02702
G1 X127.414 Y99.701 E0.01764
G1 X127.721 Y99.227 E0.01771
G1 X128.056 Y98.772 E0.01771
G1 X128.417 Y98.338 E0.01771
G1 X128.804 Y97.927 E0.01771
G1 X129.216 Y97.540 E0.01771
G1 X129.649 Y97.178 E0.01771
G1 X130.104 Y96.844 E0.01771
G1 X130.578 Y96.537 E0.01771
G1 X131.070 Y96.260 E0.01771
G1 X131.578 Y96.012 E0.01771
G1 X132.100 Y95.796 E0.01771
G1 X132.634 Y95.612 E0.01771
G1 X133.178 Y95.460 E0.01771
G1 X133.730 Y95.342 E0.01771
G1 X134.288 Y95.257 E0.01771
G1 X134.848 Y95.206 E0.01764
G1 X135.684 Y95.197 E0.02621
G1 X136.544 Y95.257 E0.02702
G1 X137.100 Y95.342 E0.01764
G1 X137.652 Y95.460 E0.01771
G1 X138.196 Y95.612 E0.01771
G1 X138.730 Y95.796 E0.01771
G1 X139.252 Y96.012 E0.01771
G1 X139.759 Y96.260 E0.01771
G1 X140.251 Y96.537 E0.01771
G1 X140.726 Y96.844 E0.01771
G1 X141.180 Y97.178 E0.01771
G1 X141.614 Y97.540 E0.01771
G1 X142.025 Y97.927 E0.01771
G1 X142.412 Y98.338 E0.01771
G1 X142.774 Y98.772 E0.01771
G1 X143.108 Y99.225 E0.01764
G1 X143.548 Y99.936 E0.02621
G1 X143.941 Y100.703 E0.02702
G1 X144.156 Y101.222 E0.01764
G1 X144.340 Y101.756 E0.01771
G1 X144.492 Y102.300 E0.01771
G1 X144.610 Y102.852 E0.01771
G1 X144.695 Y103.411 E0.01771
G1 X144.747 Y103.973 E0.01771
G1 X144.764 Y104.537 E0.01771
G1 X144.747 Y105.102 E0.01771
G1 X144.695 Y105.664 E0.01771
G1 X144.610 Y106.223 E0.01771
G1 X144.492 Y106.775 E0.01771
G1 X144.341 Y107.317 E0.01764
G1 X144.053 Y108.102 E0.02621
G1 X143.692 Y108.884 E0.02702
G1 X143.415 Y109.374 E0.01764
G1 X143.110 Y109.846 E0.01764
G1 X142.601 Y110.510 E0.02621
G1 X142.025 Y111.148 E0.02695
G1 X141.389 Y111.722 E0.02687
G1 X140.724 Y112.232 E0.02629
G1 X140.251 Y112.538 E0.01764
G1 X139.759 Y112.815 E0.01771
G1 X139.252 Y113.063 E0.01771
G1 X138.730 Y113.279 E0.01771
G1 X138.198 Y113.462 E0.01764
G1 X137.389 Y113.671 E0.02621
G1 X136.540 Y113.818 E0.02702
G1 X135.979 Y113.869 E0.01764
G1 X135.415 Y113.886 E0.01771
G1 X134.850 Y113.869 E0.01771
G1 X134.288 Y113.818 E0.01771
G1 X133.730 Y113.733 E0.01771
G1 X133.178 Y113.614 E0.01771
G1 X132.634 Y113.463 E0.01771
G1 X132.100 Y113.279 E0.01771
G1 X131.578 Y113.063 E0.01771
G1 X131.070 Y112.815 E0.01771
G1 X130.578 Y112.538 E0.01771
G1 X130.104 Y112.231 E0.01771
G1 X129.649 Y111.897 E0.01771
G1 X129.216 Y111.535 E0.01771
G1 X128.804 Y111.148 E0.01771
G1 X128.417 Y110.737 E0.01771
G1 X128.056 Y110.303 E0.01771
G1 X127.721 Y109.848 E0.01771
G1 X127.414 Y109.374 E0.01771
G1 X127.137 Y108.882 E0.01771
G1 X126.890 Y108.374 E0.01771
G1 X126.674 Y107.853 E0.01771
G1 X126.490 Y107.319 E0.01771
G1 X126.338 Y106.775 E0.01771
G1 X126.219 Y106.223 E0.01771
G1 X126.134 Y105.664 E0.01771
G1 X126.083 Y105.102 E0.01771
G1 X126.066 Y104.537 E0.01771
G1 X126.083 Y103.973 E0.01771
G1 X126.134 Y103.411 E0.01771
