; generated by Slic3r 1.33.8-prusa3d-win64 on 2017-05-04 at 12:06:34

; external perimeters extrusion width = 0.45mm
; perimeters extrusion width = 0.45mm
; infill extrusion width = 0.45mm
; solid infill extrusion width = 0.45mm
; top infill extrusion width = 0.40mm

M107
M115 U3.0.10 ; tell printer latest fw version
M83  ; extruder relative mode
M104 S215 ; set extruder temp
M140 S55 ; set bed temp
M190 S55 ; wait for bed temp
M109 S215 ; wait for extruder temp
G28 W ; home all without mesh bed level
G80 ; mesh bed leveling
G1 Y-3.0 F1000.0 ; go outside pritn area
G1 X60.0 E9.0  F1000.0 ; intro line
G1 X100.0 E12.5  F1000.0 ; intro line
G21 ; set units to millimeters
G90 ; use absolute coordinates
M83 ; use relative distances for extrusion
G1 E-0.80000 F2100.00000
G1 Z0.200 F7200.000
G1 X110.337 Y84.544 F7200.000
G1 E0.80000 F2100.00000
M204 S1000
G1 F1952.531
G1 X110.844 Y83.928 E0.02502
G1 X111.287 Y83.495 E0.01941
G1 X111.911 Y83.001 E0.02497
G1 X112.261 Y82.774 E0.01306
G1 X112.635 Y82.563 E0.01348
G1 X113.368 Y82.236 E0.02516
G1 X113.951 Y82.047 E0.01922
G1 X114.732 Y81.883 E0.02502
G1 X115.150 Y81.834 E0.01320
G1 X115.558 Y81.813 E0.01279
G1 X122.701 Y81.873 E0.22399
G1 X123.212 Y81.911 E0.01608
G1 X123.689 Y81.983 E0.01512
G1 X124.176 Y82.094 E0.01567
G1 X124.836 Y82.308 E0.02173
G1 X125.303 Y82.508 E0.01594
G1 X125.720 Y82.724 E0.01471
G1 X126.160 Y82.995 E0.01621
G1 X126.714 Y83.412 E0.02173
G1 X127.095 Y83.755 E0.01608
G1 X127.419 Y84.094 E0.01471
G1 X127.694 Y84.424 E0.01347
G1 X127.944 Y84.768 E0.01334
G1 X128.177 Y85.135 E0.01361
G1 X128.360 Y85.469 E0.01197
G1 X128.564 Y85.902 E0.01498
G1 X128.702 Y86.257 E0.01197
G1 X128.889 Y86.866 E0.01996
G1 X129.040 Y87.653 E0.02510
G1 X129.080 Y88.072 E0.01320
G1 X129.094 Y88.519 E0.01402
G1 X129.079 Y88.944 E0.01334
G1 X129.036 Y89.376 E0.01361
G1 X128.964 Y89.804 E0.01361
G1 X128.867 Y90.218 E0.01334
G1 X128.737 Y90.646 E0.01402
G1 X128.586 Y91.044 E0.01334
G1 X128.405 Y91.443 E0.01375
G1 X128.221 Y91.787 E0.01224
G1 X124.729 Y97.664 E0.21433
G1 X124.497 Y98.027 E0.01349
G1 X124.195 Y98.432 E0.01585
G1 X123.744 Y98.938 E0.02127
G1 X123.396 Y99.266 E0.01498
G1 X122.945 Y99.628 E0.01813
G1 X122.297 Y100.047 E0.02420
G1 X121.810 Y100.297 E0.01717
G1 X121.108 Y100.574 E0.02365
G1 X120.569 Y100.727 E0.01758
G1 X119.822 Y100.862 E0.02379
G1 X119.280 Y100.904 E0.01704
G1 X118.574 Y100.893 E0.02214
G1 X117.978 Y100.826 E0.01882
G1 X117.233 Y100.662 E0.02392
G1 X116.704 Y100.489 E0.01745
G1 X116.061 Y100.208 E0.02201
G1 X115.585 Y99.946 E0.01704
G1 X115.135 Y99.646 E0.01695
G1 X114.577 Y99.194 E0.02250
G1 X114.157 Y98.778 E0.01854
G1 X113.701 Y98.228 E0.02242
G1 X113.379 Y97.752 E0.01799
G1 X109.900 Y91.655 E0.22010
G1 X109.689 Y91.241 E0.01458
G1 X109.539 Y90.890 E0.01197
G1 X109.332 Y90.288 E0.01996
G1 X109.159 Y89.528 E0.02442
G1 X109.077 Y88.739 E0.02488
G1 X109.077 Y88.139 E0.01881
G1 X109.162 Y87.341 E0.02516
G1 X109.339 Y86.572 E0.02475
G1 X109.538 Y85.997 E0.01909
G1 X109.872 Y85.281 E0.02475
G1 X110.084 Y84.918 E0.01320
G1 X110.302 Y84.593 E0.01228
G1 X110.641 Y84.767 F7200.000
G1 F1952.531
G1 X111.122 Y84.183 E0.02374
G1 X111.533 Y83.781 E0.01803
G1 X112.122 Y83.314 E0.02355
G1 X112.458 Y83.095 E0.01258
G1 X112.811 Y82.896 E0.01271
G1 X113.507 Y82.587 E0.02387
G1 X114.048 Y82.412 E0.01785
G1 X114.785 Y82.256 E0.02361
G1 X115.183 Y82.210 E0.01258
G1 X115.572 Y82.190 E0.01220
G1 X122.690 Y82.250 E0.22319
G1 X123.168 Y82.285 E0.01502
G1 X123.601 Y82.350 E0.01374
G1 X124.068 Y82.456 E0.01502
G1 X124.699 Y82.660 E0.02078
G1 X125.144 Y82.849 E0.01515
G1 X125.533 Y83.051 E0.01374
G1 X125.944 Y83.305 E0.01515
G1 X126.477 Y83.705 E0.02091
G1 X126.836 Y84.029 E0.01515
G1 X127.146 Y84.355 E0.01412
G1 X127.400 Y84.661 E0.01245
G1 X127.643 Y84.996 E0.01297
G1 X127.861 Y85.342 E0.01284
G1 X128.053 Y85.695 E0.01258
G1 X128.227 Y86.074 E0.01310
G1 X128.371 Y86.449 E0.01258
G1 X128.576 Y87.182 E0.02387
G1 X128.672 Y87.760 E0.01836
G1 X128.705 Y88.118 E0.01130
G1 X128.716 Y88.573 E0.01425
G1 X128.660 Y89.340 E0.02412
G1 X128.593 Y89.736 E0.01258
G1 X128.497 Y90.142 E0.01310
G1 X128.378 Y90.530 E0.01271
G1 X128.234 Y90.909 E0.01271
G1 X127.888 Y91.610 E0.02451
G1 X124.403 Y97.474 E0.21388
G1 X124.159 Y97.852 E0.01411
G1 X123.755 Y98.372 E0.02066
G1 X123.434 Y98.716 E0.01476
G1 X123.134 Y98.995 E0.01284
G1 X122.721 Y99.324 E0.01656
G1 X122.102 Y99.724 E0.02310
G1 X121.650 Y99.955 E0.01592
G1 X120.972 Y100.222 E0.02284
G1 X120.480 Y100.361 E0.01605
G1 X119.759 Y100.490 E0.02297
G1 X119.256 Y100.528 E0.01579
G1 X118.536 Y100.513 E0.02258
G1 X118.020 Y100.450 E0.01631
G1 X117.301 Y100.290 E0.02310
G1 X116.823 Y100.131 E0.01579
G1 X116.165 Y99.839 E0.02258
G1 X115.713 Y99.581 E0.01631
G1 X115.125 Y99.165 E0.02258
G1 X114.741 Y98.832 E0.01592
G1 X114.276 Y98.344 E0.02117
G1 X113.968 Y97.955 E0.01554
G1 X113.693 Y97.543 E0.01554
G1 X110.222 Y91.458 E0.21965
G1 X110.026 Y91.072 E0.01356
G1 X109.885 Y90.741 E0.01130
G1 X109.696 Y90.189 E0.01829
G1 X109.531 Y89.469 E0.02317
G1 X109.453 Y88.720 E0.02361
G1 X109.454 Y88.159 E0.01759
G1 X109.533 Y87.406 E0.02374
G1 X109.702 Y86.676 E0.02348
G1 X109.884 Y86.146 E0.01759
G1 X110.202 Y85.463 E0.02361
G1 X110.606 Y84.816 E0.02391
G1 X110.945 Y84.990 F7200.000
G1 F1952.531
G1 X111.400 Y84.438 E0.02245
G1 X111.779 Y84.066 E0.01663
G1 X112.336 Y83.624 E0.02230
G1 X112.984 Y83.231 E0.02376
G1 X113.642 Y82.939 E0.02257
G1 X114.142 Y82.777 E0.01648
G1 X114.838 Y82.629 E0.02233
G1 X115.586 Y82.567 E0.02352
G1 X122.683 Y82.627 E0.22253
G1 X123.124 Y82.660 E0.01386
G1 X123.520 Y82.718 E0.01254
G1 X123.922 Y82.807 E0.01290
G1 X124.353 Y82.936 E0.01413
G1 X124.943 Y83.172 E0.01991
G1 X125.349 Y83.381 E0.01433
G1 X125.732 Y83.617 E0.01409
G1 X126.244 Y84.001 E0.02006
G1 X126.577 Y84.303 E0.01409
G1 X126.870 Y84.612 E0.01338
G1 X127.330 Y85.206 E0.02352
G1 X127.717 Y85.866 E0.02400
G1 X127.881 Y86.223 E0.01230
G1 X128.017 Y86.578 E0.01195
G1 X128.210 Y87.276 E0.02269
G1 X128.284 Y87.696 E0.01338
G1 X128.320 Y88.033 E0.01063
G1 X128.339 Y88.570 E0.01684
G1 X128.286 Y89.291 E0.02269
G1 X128.223 Y89.667 E0.01195
G1 X128.128 Y90.064 E0.01278
G1 X127.884 Y90.769 E0.02340
G1 X127.558 Y91.428 E0.02305
G1 X124.080 Y97.279 E0.21343
G1 X123.851 Y97.634 E0.01324
G1 X123.465 Y98.130 E0.01971
G1 X123.164 Y98.453 E0.01386
G1 X122.876 Y98.720 E0.01230
G1 X122.500 Y99.019 E0.01505
G1 X121.915 Y99.397 E0.02185
G1 X121.498 Y99.610 E0.01469
G1 X120.849 Y99.866 E0.02185
G1 X120.394 Y99.994 E0.01484
G1 X119.708 Y100.116 E0.02182
G1 X119.245 Y100.151 E0.01457
G1 X118.556 Y100.136 E0.02161
G1 X118.083 Y100.078 E0.01493
G1 X117.403 Y99.926 E0.02185
G1 X116.958 Y99.778 E0.01469
G1 X116.328 Y99.499 E0.02161
G1 X115.915 Y99.263 E0.01493
G1 X115.352 Y98.864 E0.02162
G1 X114.999 Y98.557 E0.01469
G1 X114.550 Y98.085 E0.02042
G1 X114.272 Y97.732 E0.01409
G1 X114.016 Y97.348 E0.01445
G1 X110.550 Y91.272 E0.21932
G1 X110.236 Y90.603 E0.02318
G1 X110.065 Y90.106 E0.01648
G1 X109.904 Y89.412 E0.02233
G1 X109.830 Y88.704 E0.02233
G1 X109.830 Y88.186 E0.01624
G1 X109.903 Y87.478 E0.02233
G1 X110.063 Y86.784 E0.02233
G1 X110.233 Y86.290 E0.01636
G1 X110.533 Y85.644 E0.02233
G1 X110.910 Y85.039 E0.02236
G1 F5760
G1 X111.400 Y84.438 E-0.26872
G1 F5760
G1 X111.779 Y84.066 E-0.18371
G1 F5760
G1 X112.336 Y83.624 E-0.24630
G1 F5760
G1 X112.487 Y83.532 E-0.06127
G1 E-0.04000 F2100.00000
G1 X117.318 Y92.406 F7200.000
G1 E0.80000 F2100.00000
G1 F900.000
G1 X117.717 Y92.109 E0.01558
G1 X118.175 Y91.891 E0.01591
G1 X118.667 Y91.769 E0.01591
G1 X119.169 Y91.747 E0.01574
G1 X119.665 Y91.825 E0.01574
G1 X120.126 Y91.995 E0.01541
G1 X120.559 Y92.259 E0.01591
G1 X120.931 Y92.605 E0.01591
G1 X121.223 Y93.013 E0.01574
G1 X121.430 Y93.470 E0.01574
G1 X121.542 Y93.960 E0.01574
G1 X121.555 Y94.462 E0.01574
G1 X121.470 Y94.957 E0.01574
G1 X121.288 Y95.425 E0.01574
G1 X121.018 Y95.848 E0.01574
G1 X120.669 Y96.209 E0.01574
G1 X120.265 Y96.489 E0.01541
G1 X119.810 Y96.689 E0.01557
G1 X119.309 Y96.798 E0.01607
G1 X118.818 Y96.803 E0.01541
G1 X118.324 Y96.714 E0.01574
G1 X117.844 Y96.520 E0.01624
G1 X117.425 Y96.243 E0.01574
G1 X117.069 Y95.888 E0.01574
G1 X116.790 Y95.471 E0.01574
G1 X116.599 Y95.006 E0.01574
G1 X116.503 Y94.514 E0.01574
G1 X116.507 Y94.011 E0.01574
G1 X116.603 Y93.545 E0.01494
G1 X116.763 Y93.148 E0.01341
G1 X116.986 Y92.777 E0.01358
G1 X117.276 Y92.449 E0.01373
G1 X117.060 Y92.131 F7200.000
G1 F900.000
G1 X117.519 Y91.788 E0.01799
G1 X117.771 Y91.653 E0.00895
G1 X118.042 Y91.538 E0.00926
G1 X118.605 Y91.397 E0.01819
G1 X119.181 Y91.370 E0.01809
G1 X119.752 Y91.458 E0.01809
G1 X120.287 Y91.653 E0.01788
G1 X120.538 Y91.791 E0.00895
G1 X120.783 Y91.955 E0.00926
G1 X121.209 Y92.349 E0.01819
G1 X121.546 Y92.817 E0.01809
G1 X121.785 Y93.342 E0.01809
G1 X121.915 Y93.904 E0.01809
G1 X121.933 Y94.481 E0.01809
G1 X121.836 Y95.049 E0.01809
G1 X121.629 Y95.588 E0.01809
G1 X121.320 Y96.075 E0.01809
G1 X120.920 Y96.491 E0.01809
G1 X120.452 Y96.818 E0.01788
G1 X120.196 Y96.944 E0.00895
G1 X119.927 Y97.048 E0.00905
G1 X119.648 Y97.122 E0.00905
G1 X119.357 Y97.172 E0.00926
G1 X118.787 Y97.180 E0.01788
G1 X118.219 Y97.077 E0.01809
G1 X117.675 Y96.858 E0.01839
G1 X117.193 Y96.541 E0.01809
G1 X116.783 Y96.135 E0.01809
G1 X116.461 Y95.656 E0.01809
G1 X116.240 Y95.123 E0.01809
G1 X116.128 Y94.557 E0.01809
G1 X116.130 Y93.980 E0.01809
G1 X116.242 Y93.430 E0.01760
G1 X116.424 Y92.979 E0.01525
G1 X116.677 Y92.560 E0.01535
G1 X117.018 Y92.174 E0.01613
G1 X116.368 Y92.342 F7200.000
G1 F900.000
G1 X116.572 Y92.092 E0.01012
G1 X116.801 Y91.856 E0.01030
G1 X116.961 Y91.718 E0.00664
G1 X117.321 Y91.466 E0.01378
G1 X117.608 Y91.313 E0.01019
G1 X117.910 Y91.184 E0.01030
G1 X118.111 Y91.119 E0.00664
G1 X118.543 Y91.024 E0.01385
G1 X118.752 Y91.000 E0.00660
G1 X119.194 Y90.993 E0.01385
G1 X119.404 Y91.010 E0.00660
G1 X119.838 Y91.090 E0.01385
G1 X120.041 Y91.148 E0.00660
G1 X120.449 Y91.312 E0.01378
G1 X120.734 Y91.468 E0.01019
G1 X121.007 Y91.651 E0.01030
G1 X121.171 Y91.783 E0.00664
G1 X121.486 Y92.093 E0.01385
G1 X121.621 Y92.255 E0.00660
G1 X121.869 Y92.621 E0.01385
G1 X121.969 Y92.806 E0.00660
G1 X122.140 Y93.213 E0.01385
G1 X122.202 Y93.415 E0.00660
G1 X122.289 Y93.848 E0.01385
G1 X122.310 Y94.057 E0.00660
G1 X122.310 Y94.499 E0.01385
G1 X122.289 Y94.709 E0.00660
G1 X122.202 Y95.142 E0.01385
G1 X122.140 Y95.343 E0.00660
G1 X121.969 Y95.751 E0.01385
G1 X121.869 Y95.936 E0.00660
G1 X121.621 Y96.302 E0.01385
G1 X121.486 Y96.464 E0.00660
G1 X121.171 Y96.773 E0.01385
G1 X121.007 Y96.905 E0.00660
G1 X120.640 Y97.146 E0.01378
G1 X120.348 Y97.289 E0.01019
G1 X120.044 Y97.407 E0.01023
G1 X119.729 Y97.491 E0.01023
G1 X119.405 Y97.546 E0.01030
G1 X119.194 Y97.564 E0.00664
G1 X118.756 Y97.557 E0.01374
G1 X118.322 Y97.492 E0.01374
G1 X118.115 Y97.439 E0.00671
G1 X117.911 Y97.373 E0.00671
G1 X117.506 Y97.195 E0.01385
G1 X117.323 Y97.092 E0.00660
G1 X116.961 Y96.838 E0.01385
G1 X116.802 Y96.701 E0.00660
G1 X116.497 Y96.381 E0.01385
G1 X116.368 Y96.215 E0.00660
G1 X116.132 Y95.841 E0.01385
G1 X116.038 Y95.653 E0.00660
G1 X115.881 Y95.240 E0.01385
G1 X115.826 Y95.036 E0.00660
G1 X115.753 Y94.601 E0.01385
G1 X115.739 Y94.391 E0.00660
G1 X115.754 Y93.949 E0.01385
G1 X115.782 Y93.740 E0.00660
G1 X115.882 Y93.316 E0.01368
G1 X116.086 Y92.810 E0.01709
G1 X116.337 Y92.394 E0.01525
G1 X116.690 Y92.370 F7200.000
G1 F5760
G1 X116.572 Y92.092 E-0.13244
G1 F5760
G1 X116.801 Y91.856 E-0.11377
G1 F5760
G1 X116.961 Y91.718 E-0.07334
G1 F5760
G1 X117.321 Y91.466 E-0.15221
G1 F5760
G1 X117.608 Y91.313 E-0.11256
G1 F5760
G1 X117.910 Y91.184 E-0.11377
G1 F5760
G1 X118.080 Y91.129 E-0.06192
G1 E-0.04000 F2100.00000
G1 X118.104 Y96.503 F7200.000
G1 E0.80000 F2100.00000
G1 F1562.025
G1 X117.249 Y95.648 E0.04071
G1 X117.041 Y95.337 E0.01261
G1 X116.871 Y94.925 E0.01502
G1 X116.817 Y94.643 E0.00967
G1 X118.661 Y96.488 E0.08787
G1 X118.842 Y96.520 E0.00617
G1 X119.262 Y96.515 E0.01415
G1 X116.789 Y94.043 E0.11778
G1 X116.895 Y93.576 E0.01612
G1 X119.733 Y96.414 E0.13518
G1 X120.131 Y96.239 E0.01464
G1 X117.073 Y93.181 E0.14564
G1 X117.218 Y92.940 E0.00947
G1 X117.302 Y92.837 E0.00447
G1 X120.469 Y96.004 E0.15085
G1 X120.753 Y95.715 E0.01364
G1 X117.588 Y92.550 E0.15076
G1 X117.928 Y92.317 E0.01388
G1 X120.985 Y95.374 E0.14561
G1 X121.035 Y95.296 E0.00312
G1 X121.159 Y94.975 E0.01158
G1 X118.327 Y92.144 E0.13488
G1 X118.798 Y92.042 E0.01624
G1 X121.261 Y94.505 E0.11730
G1 X121.260 Y93.996 E0.01715
G1 X121.241 Y93.912 E0.00290
G1 X119.397 Y92.067 E0.08785
G1 X119.713 Y92.134 E0.01090
G1 X120.005 Y92.251 E0.01060
G1 X120.191 Y92.353 E0.00714
G1 X120.416 Y92.513 E0.00929
G1 X121.251 Y93.349 E0.03980
G1 F5760
G1 X120.416 Y92.513 E-0.40928
G1 F5760
G1 X120.191 Y92.353 E-0.09556
G1 F5760
G1 X120.005 Y92.251 E-0.07340
G1 F5760
G1 X119.713 Y92.134 E-0.10901
G1 F5760
G1 X119.508 Y92.091 E-0.07275
G1 E-0.04000 F2100.00000
G1 X117.604 Y90.116 F7200.000
G1 E0.80000 F2100.00000
G1 F900.000
G1 X117.237 Y90.459 E0.01574
G1 X116.939 Y90.654 E0.01117
G1 X116.718 Y90.762 E0.00771
G1 X116.484 Y90.853 E0.00788
G1 X116.241 Y90.917 E0.00788
G1 X115.842 Y90.973 E0.01262
G1 X115.492 Y90.968 E0.01100
G1 X115.145 Y90.916 E0.01100
G1 X114.853 Y90.832 E0.00951
G1 X114.399 Y90.618 E0.01574
G1 X113.996 Y90.318 E0.01574
G1 X113.659 Y89.945 E0.01574
G1 X113.403 Y89.514 E0.01574
G1 X113.237 Y89.040 E0.01574
G1 X113.168 Y88.542 E0.01574
G1 X113.180 Y88.176 E0.01150
G1 X113.276 Y87.709 E0.01494
G1 X113.436 Y87.312 E0.01341
G1 X113.660 Y86.941 E0.01358
G1 X113.809 Y86.758 E0.00741
G1 X114.099 Y86.478 E0.01262
G1 X114.390 Y86.274 E0.01117
G1 X114.607 Y86.158 E0.00771
G1 X114.982 Y86.012 E0.01262
G1 X115.476 Y85.918 E0.01574
G1 X115.978 Y85.923 E0.01574
G1 X116.469 Y86.027 E0.01574
G1 X116.800 Y86.159 E0.01117
G1 X117.015 Y86.277 E0.00771
G1 X117.343 Y86.512 E0.01262
G1 X117.691 Y86.873 E0.01574
G1 X117.962 Y87.296 E0.01574
G1 X118.143 Y87.764 E0.01574
G1 X118.229 Y88.259 E0.01574
G1 X118.216 Y88.761 E0.01574
G1 X118.103 Y89.251 E0.01574
G1 X117.897 Y89.708 E0.01574
G1 X117.643 Y90.070 E0.01387
G1 X117.882 Y90.372 F7200.000
G1 F900.000
G1 X117.459 Y90.764 E0.01809
G1 X117.126 Y90.982 E0.01247
G1 X116.870 Y91.108 E0.00895
G1 X116.601 Y91.212 E0.00905
G1 X116.322 Y91.286 E0.00905
G1 X115.855 Y91.351 E0.01477
G1 X115.460 Y91.344 E0.01237
G1 X115.070 Y91.286 E0.01237
G1 X114.719 Y91.184 E0.01146
G1 X114.198 Y90.937 E0.01809
G1 X113.736 Y90.592 E0.01809
G1 X113.350 Y90.162 E0.01809
G1 X113.058 Y89.665 E0.01809
G1 X112.868 Y89.120 E0.01809
G1 X112.790 Y88.549 E0.01809
G1 X112.804 Y88.144 E0.01268
G1 X112.916 Y87.594 E0.01760
G1 X113.098 Y87.143 E0.01525
G1 X113.351 Y86.724 E0.01535
G1 X113.527 Y86.507 E0.00877
G1 X113.867 Y86.180 E0.01477
G1 X114.192 Y85.952 E0.01247
G1 X114.444 Y85.817 E0.00895
G1 X114.884 Y85.647 E0.01477
G1 X115.451 Y85.541 E0.01809
G1 X116.027 Y85.549 E0.01809
G1 X116.592 Y85.670 E0.01809
G1 X116.961 Y85.818 E0.01247
G1 X117.211 Y85.955 E0.00895
G1 X117.594 Y86.230 E0.01477
G1 X117.993 Y86.646 E0.01809
G1 X118.302 Y87.133 E0.01809
G1 X118.509 Y87.672 E0.01809
G1 X118.606 Y88.240 E0.01809
G1 X118.589 Y88.817 E0.01809
G1 X118.458 Y89.379 E0.01809
G1 X118.220 Y89.904 E0.01809
G1 X117.921 Y90.326 E0.01621
G1 X118.210 Y90.567 F7200.000
G1 F900.000
G1 X117.845 Y90.938 E0.01631
G1 X117.681 Y91.070 E0.00660
G1 X117.313 Y91.310 E0.01378
G1 X117.022 Y91.454 E0.01019
G1 X116.717 Y91.571 E0.01023
G1 X116.402 Y91.655 E0.01023
G1 X115.867 Y91.728 E0.01692
G1 X115.429 Y91.721 E0.01374
G1 X114.996 Y91.656 E0.01374
G1 X114.585 Y91.537 E0.01342
G1 X114.180 Y91.360 E0.01385
G1 X113.996 Y91.256 E0.00660
G1 X113.635 Y91.003 E0.01385
G1 X113.475 Y90.865 E0.00660
G1 X113.171 Y90.545 E0.01385
G1 X113.041 Y90.379 E0.00660
G1 X112.806 Y90.005 E0.01385
G1 X112.712 Y89.817 E0.00660
G1 X112.555 Y89.404 E0.01385
G1 X112.500 Y89.201 E0.00660
G1 X112.427 Y88.765 E0.01385
G1 X112.413 Y88.555 E0.00660
G1 X112.428 Y88.113 E0.01385
G1 X112.455 Y87.905 E0.00660
G1 X112.555 Y87.480 E0.01368
G1 X112.759 Y86.974 E0.01709
G1 X113.041 Y86.506 E0.01713
G1 X113.245 Y86.256 E0.01012
G1 X113.635 Y85.882 E0.01692
