; generated by Slic3r 1.33.8-prusa3d-win64 on 2017-04-30 at 10:13:13

; external perimeters extrusion width = 0.45mm
; perimeters extrusion width = 0.45mm
; infill extrusion width = 0.45mm
; solid infill extrusion width = 0.45mm
; top infill extrusion width = 0.40mm

M107
M115 U3.0.10 ; tell printer latest fw version
M83  ; extruder relative mode
M104 S215 ; set extruder temp
M140 S55 ; set bed temp
M190 S55 ; wait for bed temp
M109 S215 ; wait for extruder temp
G28 W ; home all without mesh bed level
G80 ; mesh bed leveling
G1 Y-3.0 F1000.0 ; go outside pritn area
G1 X60.0 E9.0  F1000.0 ; intro line
G1 X100.0 E12.5  F1000.0 ; intro line
G21 ; set units to millimeters
G90 ; use absolute coordinates
M83 ; use relative distances for extrusion
G1 E-0.80000 F2100.00000
G1 Z0.200 F7200.000
G1 X85.557 Y104.184 F7200.000
G1 E0.80000 F2100.00000
M204 S1000
G1 F2100
G1 X86.006 Y103.727 E0.02009
G1 X86.413 Y103.385 E0.01667
G1 X86.962 Y103.010 E0.02085
G1 X87.433 Y102.749 E0.01686
G1 X105.431 Y93.985 E0.62768
G1 X105.906 Y93.791 E0.01608
G1 X106.361 Y93.643 E0.01500
G1 X106.829 Y93.527 E0.01513
G1 X107.327 Y93.441 E0.01584
G1 X107.758 Y93.396 E0.01357
G1 X108.167 Y93.380 E0.01286
G1 X157.680 Y92.023 E1.55300
G1 X163.964 Y92.022 E0.19704
G1 X164.388 Y92.065 E0.01336
G1 X164.797 Y92.183 E0.01336
G1 X165.179 Y92.372 E0.01336
G1 X165.521 Y92.627 E0.01336
G1 X165.812 Y92.938 E0.01336
G1 X166.043 Y93.296 E0.01336
G1 X166.206 Y93.689 E0.01336
G1 X166.296 Y94.106 E0.01336
G1 X166.314 Y94.395 E0.00907
G1 X166.311 Y99.825 E0.17028
G1 X165.278 Y113.207 E0.42082
G1 X165.190 Y113.841 E0.02007
G1 X165.075 Y114.289 E0.01452
G1 X164.970 Y114.594 E0.01012
G1 X164.684 Y115.211 E0.02130
G1 X164.505 Y115.509 E0.01090
G1 X164.225 Y115.897 E0.01499
G1 X163.757 Y116.406 E0.02168
G1 X163.497 Y116.633 E0.01082
G1 X163.116 Y116.914 E0.01485
G1 X162.522 Y117.253 E0.02146
G1 X162.197 Y117.394 E0.01110
G1 X161.741 Y117.547 E0.01508
G1 X161.395 Y117.632 E0.01118
G1 X161.054 Y117.690 E0.01085
G1 X160.714 Y117.722 E0.01069
G1 X129.593 Y119.171 E0.97684
G1 X128.738 Y119.185 E0.02683
G1 X120.248 Y119.178 E0.26618
G1 X119.432 Y119.163 E0.02558
G1 X88.406 Y117.830 E0.97372
G1 X87.773 Y117.767 E0.01995
G1 X87.449 Y117.702 E0.01034
G1 X86.978 Y117.566 E0.01539
G1 X86.340 Y117.294 E0.02173
G1 X85.749 Y116.934 E0.02170
G1 X85.366 Y116.632 E0.01529
G1 X85.114 Y116.397 E0.01080
G1 X84.870 Y116.133 E0.01129
G1 X84.646 Y115.851 E0.01128
G1 X84.455 Y115.573 E0.01057
G1 X84.215 Y115.149 E0.01529
G1 X84.061 Y114.815 E0.01153
G1 X83.946 Y114.506 E0.01034
G1 X83.851 Y114.186 E0.01045
G1 X83.772 Y113.827 E0.01153
G1 X83.709 Y113.344 E0.01529
G1 X83.694 Y113.003 E0.01070
G1 X83.690 Y109.642 E0.10538
G1 X83.742 Y108.729 E0.02867
G1 X83.861 Y107.856 E0.02763
G1 X83.965 Y107.360 E0.01589
G1 X84.171 Y106.637 E0.02357
G1 X84.345 Y106.164 E0.01579
G1 X84.512 Y105.783 E0.01303
G1 X84.738 Y105.343 E0.01553
G1 X84.971 Y104.956 E0.01417
G1 X85.243 Y104.567 E0.01488
G1 X85.517 Y104.229 E0.01364
G1 F5760
G1 X86.006 Y103.727 E-0.24271
G1 F5760
G1 X86.413 Y103.385 E-0.18414
G1 F5760
G1 X86.962 Y103.010 E-0.23027
G1 F5760
G1 X87.222 Y102.866 E-0.10287
G1 E-0.04000 F2100.00000
G1 X88.558 Y106.120 F7200.000
G1 E0.80000 F2100.00000
G1 F840
G1 X89.077 Y105.961 E0.01702
G1 X89.568 Y105.966 E0.01539
G1 X89.900 Y106.049 E0.01075
G1 X90.345 Y106.279 E0.01571
G1 X90.725 Y106.667 E0.01702
G1 X90.946 Y107.105 E0.01539
G1 X91.025 Y107.436 E0.01064
G1 X91.043 Y110.198 E0.08662
G1 X91.019 Y110.785 E0.01840
G1 X90.961 Y111.350 E0.01781
G1 X90.869 Y111.866 E0.01646
G1 X90.747 Y112.333 E0.01514
G1 X90.514 Y112.930 E0.02007
G1 X90.186 Y113.470 E0.01983
G1 X89.818 Y113.830 E0.01612
G1 X89.335 Y114.069 E0.01691
G1 X88.804 Y114.147 E0.01683
G1 X88.272 Y114.059 E0.01690
G1 X87.792 Y113.807 E0.01702
G1 X87.447 Y113.457 E0.01539
G1 X87.269 Y113.164 E0.01075
G1 X87.116 Y112.693 E0.01553
G1 X87.097 Y109.892 E0.08782
G1 X87.121 Y109.306 E0.01840
G1 X87.180 Y108.741 E0.01781
G1 X87.271 Y108.224 E0.01646
G1 X87.393 Y107.757 E0.01514
G1 X87.622 Y107.174 E0.01962
G1 X87.834 Y106.800 E0.01349
G1 X88.124 Y106.427 E0.01481
G1 X88.509 Y106.155 E0.01478
G1 X88.726 Y106.463 F7200.000
G1 F840
G1 X89.131 Y106.339 E0.01329
G1 X89.519 Y106.343 E0.01217
G1 X89.766 Y106.404 E0.00798
G1 X90.118 Y106.587 E0.01242
G1 X90.415 Y106.889 E0.01329
G1 X90.589 Y107.236 E0.01217
G1 X90.648 Y107.481 E0.00791
G1 X90.666 Y110.192 E0.08499
G1 X90.643 Y110.757 E0.01775
G1 X90.587 Y111.297 E0.01702
G1 X90.501 Y111.786 E0.01556
G1 X90.388 Y112.217 E0.01396
G1 X90.174 Y112.762 E0.01836
G1 X89.888 Y113.234 E0.01733
G1 X89.597 Y113.519 E0.01275
G1 X89.221 Y113.705 E0.01316
G1 X88.808 Y113.766 E0.01311
G1 X88.394 Y113.697 E0.01315
G1 X88.019 Y113.500 E0.01328
G1 X87.746 Y113.224 E0.01217
G1 X87.614 Y113.006 E0.00798
G1 X87.493 Y112.633 E0.01231
G1 X87.475 Y109.899 E0.08572
G1 X87.498 Y109.333 E0.01775
G1 X87.554 Y108.793 E0.01702
G1 X87.640 Y108.305 E0.01555
G1 X87.753 Y107.874 E0.01396
G1 X87.963 Y107.337 E0.01808
G1 X88.149 Y107.010 E0.01180
G1 X88.387 Y106.702 E0.01220
G1 X88.677 Y106.498 E0.01113
G1 F5760
G1 X89.131 Y106.339 E-0.16666
G1 F5760
G1 X89.519 Y106.343 E-0.13444
G1 F5760
G1 X89.766 Y106.404 E-0.08812
G1 F5760
G1 X90.118 Y106.587 E-0.13724
G1 F5760
G1 X90.415 Y106.889 E-0.14678
G1 F5760
G1 X90.527 Y107.113 E-0.08676
G1 E-0.04000 F2100.00000
G1 X90.233 Y107.366 F7200.000
G1 E0.80000 F2100.00000
G1 F840
G1 X90.271 Y107.527 E0.00518
G1 X90.289 Y110.185 E0.08336
G1 X90.267 Y110.730 E0.01710
G1 X90.214 Y111.245 E0.01622
G1 X90.132 Y111.705 E0.01465
G1 X90.029 Y112.100 E0.01279
G1 X89.835 Y112.594 E0.01664
G1 X89.590 Y112.998 E0.01483
G1 X89.376 Y113.207 E0.00938
G1 X89.107 Y113.340 E0.00941
G1 X88.811 Y113.384 E0.00938
G1 X88.516 Y113.335 E0.00940
G1 X88.246 Y113.193 E0.00955
G1 X88.045 Y112.990 E0.00895
G1 X87.959 Y112.848 E0.00521
G1 X87.870 Y112.572 E0.00910
G1 X87.852 Y109.905 E0.08362
G1 X87.874 Y109.360 E0.01710
G1 X87.927 Y108.846 E0.01623
G1 X88.009 Y108.385 E0.01465
G1 X88.112 Y107.991 E0.01279
G1 X88.304 Y107.500 E0.01654
G1 X88.463 Y107.219 E0.01010
G1 X88.651 Y106.978 E0.00958
G1 X88.894 Y106.806 E0.00936
G1 X89.186 Y106.716 E0.00955
G1 X89.471 Y106.719 E0.00895
G1 X89.632 Y106.760 E0.00521
G1 X89.891 Y106.894 E0.00914
G1 X90.104 Y107.111 E0.00955
G1 X90.206 Y107.312 E0.00707
G1 X90.396 Y107.392 F7200.000
G1 F5760
G1 X90.271 Y107.527 E-0.07764
G1 F5760
G1 X90.285 Y109.497 E-0.68236
G1 E-0.04000 F2100.00000
G1 X158.066 Y107.249 F7200.000
G1 E0.80000 F2100.00000
G1 F840
G1 X158.246 Y106.773 E0.01596
G1 X158.558 Y106.370 E0.01599
G1 X158.977 Y106.074 E0.01607
G1 X159.468 Y105.915 E0.01618
G1 X159.934 Y105.906 E0.01463
G1 X160.253 Y105.971 E0.01022
G1 X160.685 Y106.166 E0.01485
G1 X161.039 Y106.477 E0.01475
G1 X161.316 Y106.855 E0.01471
G1 X161.603 Y107.416 E0.01975
G1 X161.762 Y107.875 E0.01524
G1 X161.882 Y108.367 E0.01587
G1 X161.971 Y108.912 E0.01733
G1 X162.036 Y109.792 E0.02767
G1 X162.037 Y110.445 E0.02047
G1 X161.880 Y112.735 E0.07196
G1 X161.700 Y113.211 E0.01596
G1 X161.387 Y113.614 E0.01599
G1 X160.970 Y113.909 E0.01600
G1 X160.484 Y114.069 E0.01607
G1 X159.968 Y114.077 E0.01617
G1 X159.519 Y113.950 E0.01462
G1 X159.233 Y113.794 E0.01022
G1 X158.907 Y113.507 E0.01361
G1 X158.629 Y113.129 E0.01471
G1 X158.342 Y112.568 E0.01975
G1 X158.183 Y112.109 E0.01524
G1 X158.063 Y111.617 E0.01587
G1 X157.975 Y111.072 E0.01733
G1 X157.909 Y110.192 E0.02767
G1 X157.909 Y109.539 E0.02048
G1 X158.061 Y107.309 E0.07007
G1 X158.438 Y107.330 F7200.000
G1 F840
G1 X158.579 Y106.959 E0.01244
G1 X158.822 Y106.645 E0.01246
G1 X159.148 Y106.415 E0.01251
G1 X159.531 Y106.291 E0.01263
G1 X159.900 Y106.284 E0.01157
G1 X160.137 Y106.332 E0.00758
G1 X160.479 Y106.487 E0.01177
G1 X160.759 Y106.733 E0.01170
G1 X160.995 Y107.054 E0.01247
G1 X161.255 Y107.564 E0.01797
G1 X161.400 Y107.982 E0.01386
G1 X161.513 Y108.442 E0.01484
G1 X161.596 Y108.957 E0.01635
G1 X161.659 Y109.807 E0.02673
G1 X161.660 Y110.433 E0.01962
G1 X161.508 Y112.654 E0.06980
G1 X161.367 Y113.025 E0.01245
G1 X161.124 Y113.339 E0.01246
G1 X160.799 Y113.568 E0.01246
G1 X160.420 Y113.693 E0.01251
G1 X160.017 Y113.699 E0.01263
G1 X159.663 Y113.598 E0.01156
G1 X159.450 Y113.483 E0.00759
G1 X159.186 Y113.251 E0.01101
G1 X158.951 Y112.930 E0.01247
G1 X158.690 Y112.420 E0.01797
G1 X158.545 Y112.002 E0.01387
G1 X158.433 Y111.542 E0.01484
G1 X158.350 Y111.027 E0.01635
G1 X158.286 Y110.177 E0.02673
G1 X158.286 Y109.551 E0.01963
G1 X158.434 Y107.390 E0.06792
G1 F5760
G1 X158.579 Y106.959 E-0.15748
G1 F5760
G1 X158.822 Y106.645 E-0.13761
G1 F5760
G1 X159.148 Y106.415 E-0.13815
G1 F5760
G1 X159.531 Y106.291 E-0.13952
G1 F5760
G1 X159.900 Y106.284 E-0.12777
G1 F5760
G1 X160.068 Y106.318 E-0.05947
G1 E-0.04000 F2100.00000
G1 X159.865 Y106.662 F7200.000
G1 E0.80000 F2100.00000
G1 F840
G1 X160.020 Y106.693 E0.00495
G1 X160.272 Y106.807 E0.00868
G1 X160.479 Y106.989 E0.00865
G1 X160.673 Y107.252 E0.01023
G1 X160.908 Y107.712 E0.01620
G1 X161.038 Y108.089 E0.01249
G1 X161.143 Y108.517 E0.01382
G1 X161.221 Y109.001 E0.01538
G1 X161.282 Y109.821 E0.02578
G1 X161.283 Y110.420 E0.01878
G1 X161.135 Y112.572 E0.06765
G1 X161.034 Y112.838 E0.00893
G1 X160.860 Y113.063 E0.00892
G1 X160.628 Y113.228 E0.00893
G1 X160.357 Y113.317 E0.00894
G1 X160.067 Y113.321 E0.00908
G1 X159.806 Y113.247 E0.00850
G1 X159.667 Y113.172 E0.00496
G1 X159.466 Y112.995 E0.00840
G1 X159.273 Y112.732 E0.01023
G1 X159.038 Y112.272 E0.01620
G1 X158.907 Y111.895 E0.01249
G1 X158.803 Y111.467 E0.01382
G1 X158.724 Y110.983 E0.01538
G1 X158.663 Y110.163 E0.02578
G1 X158.663 Y109.564 E0.01878
G1 X158.810 Y107.412 E0.06764
G1 X158.911 Y107.146 E0.00893
G1 X159.085 Y106.921 E0.00892
G1 X159.318 Y106.756 E0.00894
G1 X159.594 Y106.667 E0.00908
G1 X159.805 Y106.663 E0.00662
G1 X159.954 Y106.531 F7200.000
G1 F5760
G1 X160.020 Y106.693 E-0.07512
G1 F5760
G1 X160.272 Y106.807 E-0.09585
G1 F5760
G1 X160.479 Y106.989 E-0.09557
G1 F5760
G1 X160.673 Y107.252 E-0.11302
G1 F5760
G1 X160.908 Y107.712 E-0.17891
G1 F5760
G1 X161.038 Y108.089 E-0.13795
G1 F5760
G1 X161.082 Y108.267 E-0.06359
G1 E-0.04000 F2100.00000
G1 X157.911 Y106.962 F7200.000
G1 E0.80000 F2100.00000
G1 F1680
G1 X157.636 Y106.417 E0.01912
G1 X157.190 Y106.002 E0.01913
G1 X156.626 Y105.767 E0.01913
G1 X156.035 Y105.744 E0.01855
G1 X154.818 Y106.090 E0.03967
G1 X153.721 Y106.470 E0.03642
G1 X152.584 Y106.912 E0.03822
G1 X150.899 Y107.634 E0.05749
G1 X148.363 Y108.815 E0.08773
G1 X142.004 Y111.899 E0.22159
G1 X140.120 Y112.765 E0.06500
G1 X138.847 Y113.321 E0.04357
G1 X137.110 Y114.025 E0.05875
G1 X135.969 Y114.447 E0.03815
G1 X134.871 Y114.813 E0.03627
G1 X133.824 Y115.122 E0.03423
G1 X132.834 Y115.371 E0.03200
G1 X131.479 Y115.633 E0.04329
G1 X130.601 Y115.749 E0.02777
G1 X129.441 Y115.833 E0.03647
G1 X128.717 Y115.844 E0.02270
G1 X128.042 Y115.827 E0.02116
G1 X125.453 Y115.637 E0.08141
G1 X124.453 Y115.603 E0.03138
G1 X123.460 Y115.635 E0.03113
G1 X121.517 Y115.789 E0.06111
G1 X120.612 Y115.831 E0.02840
G1 X119.550 Y115.824 E0.03331
G1 X118.810 Y115.776 E0.02325
G1 X118.012 Y115.686 E0.02517
G1 X117.167 Y115.549 E0.02686
G1 X115.742 Y115.230 E0.04579
G1 X114.190 Y114.777 E0.05066
G1 X113.173 Y114.432 E0.03368
G1 X112.063 Y114.017 E0.03716
G1 X110.263 Y113.281 E0.06097
G1 X107.860 Y112.204 E0.08256
G1 X105.266 Y110.969 E0.09009
G1 X100.689 Y108.747 E0.15954
G1 X98.893 Y107.909 E0.06214
G1 X97.662 Y107.364 E0.04220
G1 X96.471 Y106.866 E0.04048
G1 X95.074 Y106.338 E0.04682
G1 X93.762 Y105.917 E0.04319
G1 X93.197 Y105.764 E0.01836
G1 X92.830 Y105.714 E0.01162
G1 X92.278 Y105.797 E0.01752
G1 X91.760 Y106.073 E0.01840
G1 X91.364 Y106.506 E0.01840
G1 X91.148 Y107.022 E0.01753
G1 X91.106 Y107.384 E0.01142
G1 X91.112 Y110.334 E0.09250
G1 X91.082 Y110.924 E0.01854
G1 X91.042 Y111.315 E0.01231
G1 X90.948 Y111.853 E0.01711
G1 X90.818 Y112.341 E0.01586
G1 X90.648 Y112.789 E0.01501
G1 X90.455 Y113.170 E0.01340
G1 X90.216 Y113.526 E0.01345
G1 X89.945 Y113.833 E0.01283
G1 X89.637 Y114.094 E0.01265
G1 X89.307 Y114.301 E0.01222
G1 X89.021 Y114.420 E0.00970
G1 X88.732 Y114.479 E0.00927
G1 X88.436 Y114.482 E0.00927
G1 X88.130 Y114.425 E0.00975
G1 X87.783 Y114.273 E0.01187
G1 X87.633 Y114.169 E0.00572
G1 X87.401 Y113.947 E0.01006
G1 X87.288 Y113.797 E0.00590
G1 X87.191 Y113.626 E0.00618
G1 X87.116 Y113.443 E0.00620
G1 X87.069 Y113.267 E0.00572
G1 X87.035 Y112.909 E0.01126
G1 X87.031 Y109.685 E0.10109
G1 X87.104 Y108.744 E0.02960
G1 X87.207 Y108.170 E0.01826
G1 X87.353 Y107.658 E0.01672
G1 X87.543 Y107.192 E0.01576
G1 X87.793 Y106.747 E0.01601
G1 X87.911 Y106.581 E0.00637
G1 X88.193 Y106.261 E0.01338
G1 X88.539 Y105.972 E0.01412
G1 X88.947 Y105.730 E0.01487
G1 X89.114 Y105.654 E0.00577
G1 X89.553 Y105.506 E0.01452
G1 X90.047 Y105.406 E0.01581
G1 X90.554 Y105.360 E0.01597
G1 X91.393 Y105.380 E0.02631
G1 X91.998 Y105.451 E0.01910
G1 X92.659 Y105.571 E0.02106
G1 X93.312 Y105.724 E0.02102
G1 X94.038 Y105.928 E0.02366
G1 X94.743 Y106.153 E0.02321
G1 X96.288 Y106.721 E0.05160
G1 X97.937 Y107.409 E0.05602
G1 X99.618 Y108.168 E0.05783
G1 X101.393 Y109.008 E0.06156
G1 X106.815 Y111.638 E0.18895
G1 X108.545 Y112.445 E0.05984
G1 X109.843 Y113.025 E0.04460
G1 X111.510 Y113.726 E0.05670
G1 X112.715 Y114.192 E0.04051
G1 X114.198 Y114.708 E0.04922
G1 X115.309 Y115.043 E0.03640
G1 X116.329 Y115.304 E0.03299
G1 X117.535 Y115.545 E0.03858
G1 X118.446 Y115.672 E0.02884
G1 X119.482 Y115.753 E0.03258
G1 X120.254 Y115.769 E0.02420
G1 X121.137 Y115.743 E0.02771
G1 X123.459 Y115.567 E0.07302
G1 X124.523 Y115.535 E0.03336
G1 X125.596 Y115.578 E0.03368
G1 X127.580 Y115.734 E0.06241
G1 X128.912 Y115.776 E0.04177
G1 X129.680 Y115.754 E0.02410
G1 X130.530 Y115.689 E0.02671
G1 X131.365 Y115.582 E0.02641
G1 X132.291 Y115.418 E0.02948
G1 X132.979 Y115.267 E0.02210
G1 X134.003 Y115.001 E0.03315
G1 X134.757 Y114.777 E0.02468
G1 X135.832 Y114.422 E0.03551
G1 X137.840 Y113.664 E0.06727
G1 X139.973 Y112.756 E0.07269
G1 X142.538 Y111.570 E0.08862
G1 X147.943 Y108.942 E0.18843
G1 X149.662 Y108.125 E0.05967
G1 X151.768 Y107.180 E0.07239
G1 X153.373 Y106.529 E0.05429
G1 X154.511 Y106.120 E0.03791
G1 X155.237 Y105.890 E0.02389
G1 X155.937 Y105.698 E0.02278
G1 X156.607 Y105.546 E0.02152
G1 X157.251 Y105.435 E0.02048
G1 X157.835 Y105.373 E0.01844
G1 X158.407 Y105.357 E0.01794
G1 X158.921 Y105.389 E0.01614
G1 X159.419 Y105.472 E0.01584
G1 X159.858 Y105.600 E0.01433
G1 X160.273 Y105.787 E0.01426
G1 X160.639 Y106.020 E0.01361
G1 X160.890 Y106.231 E0.01029
G1 X161.115 Y106.472 E0.01034
G1 X161.385 Y106.848 E0.01452
G1 X161.612 Y107.274 E0.01513
G1 X161.792 Y107.736 E0.01555
G1 X161.935 Y108.263 E0.01712
G1 X162.036 Y108.839 E0.01834
G1 X162.093 Y109.462 E0.01962
G1 X162.103 Y110.532 E0.03355
G1 X161.937 Y113.034 E0.07860
G1 X161.869 Y113.336 E0.00972
G1 X161.719 Y113.660 E0.01119
G1 X161.531 Y113.905 E0.00969
G1 X161.399 Y114.031 E0.00572
G1 X161.258 Y114.135 E0.00549
G1 X160.984 Y114.278 E0.00969
G1 X160.639 Y114.371 E0.01118
G1 X160.330 Y114.386 E0.00971
G1 X160.149 Y114.366 E0.00572
G1 X159.796 Y114.258 E0.01157
G1 X159.450 Y114.065 E0.01242
G1 X159.236 Y113.911 E0.00829
G1 X159.031 Y113.730 E0.00856
G1 X158.843 Y113.528 E0.00864
G1 X158.670 Y113.305 E0.00886
G1 X158.370 Y112.791 E0.01866
G1 X158.244 Y112.501 E0.00990
G1 X158.135 Y112.192 E0.01029
G1 X157.969 Y111.521 E0.02165
G1 X157.888 Y110.959 E0.01783
G1 X157.838 Y110.124 E0.02621
G1 X157.842 Y109.459 E0.02088
G1 X157.970 Y107.481 E0.06213
G1 X157.918 Y107.021 E0.01451
G1 X157.544 Y107.071 F7200.000
G1 F1680
G1 X157.330 Y106.647 E0.01489
G1 X156.982 Y106.324 E0.01489
G1 X156.544 Y106.141 E0.01489
G1 X156.080 Y106.123 E0.01454
G1 X154.932 Y106.450 E0.03745
G1 X153.851 Y106.824 E0.03587
G1 X152.727 Y107.261 E0.03780
G1 X151.053 Y107.979 E0.05711
G1 X148.524 Y109.156 E0.08745
G1 X142.165 Y112.240 E0.22162
G1 X140.274 Y113.109 E0.06524
G1 X138.993 Y113.669 E0.04384
G1 X137.246 Y114.377 E0.05910
G1 X136.094 Y114.802 E0.03852
G1 X134.984 Y115.173 E0.03667
G1 X133.923 Y115.485 E0.03468
G1 X132.916 Y115.739 E0.03256
G1 X131.540 Y116.006 E0.04397
G1 X130.639 Y116.125 E0.02847
