; generated by Slic3r 1.33.8-prusa3d-win64 on 2017-05-02 at 01:48:32

; external perimeters extrusion width = 0.45mm
; perimeters extrusion width = 0.45mm
; infill extrusion width = 0.45mm
; solid infill extrusion width = 0.45mm
; top infill extrusion width = 0.45mm

M107
M115 U3.0.10 ; tell printer latest fw version
M83  ; extruder relative mode
M104 S215 ; set extruder temp
M140 S55 ; set bed temp
M190 S55 ; wait for bed temp
M109 S215 ; wait for extruder temp
G28 W ; home all without mesh bed level
G80 ; mesh bed leveling
G1 Y-3.0 F1000.0 ; go outside pritn area
G1 X60.0 E9.0  F1000.0 ; intro line
G1 X100.0 E12.5  F1000.0 ; intro line
G21 ; set units to millimeters
G90 ; use absolute coordinates
M83 ; use relative distances for extrusion
G1 E-0.80000 F2100.00000
G1 Z0.200 F7200.000
G1 X94.199 Y94.249 F7200.000
G1 E0.80000 F2100.00000
M204 S1000
G1 F2100
G1 X95.006 Y93.482 E0.03491
G1 X95.746 Y92.856 E0.03041
G1 X96.572 Y92.237 E0.03236
G1 X97.501 Y91.626 E0.03487
G1 X98.343 Y91.142 E0.03045
G1 X99.211 Y90.706 E0.03045
G1 X100.229 Y90.268 E0.03475
G1 X101.273 Y89.896 E0.03475
G1 X102.209 Y89.624 E0.03057
G1 X103.156 Y89.407 E0.03045
G1 X104.252 Y89.222 E0.03487
G1 X105.332 Y89.111 E0.03403
G1 X138.148 Y87.404 E1.03032
G1 X139.233 Y87.418 E0.03403
G1 X140.274 Y87.496 E0.03272
G1 X141.308 Y87.636 E0.03272
G1 X142.335 Y87.838 E0.03284
G1 X143.331 Y88.097 E0.03224
G1 X144.258 Y88.397 E0.03057
G1 X145.350 Y88.826 E0.03677
G1 X146.237 Y89.238 E0.03069
G1 X147.146 Y89.727 E0.03236
G1 X148.031 Y90.274 E0.03260
G1 X148.826 Y90.832 E0.03045
G1 X149.746 Y91.565 E0.03689
G1 X150.470 Y92.219 E0.03057
G1 X151.194 Y92.954 E0.03236
G1 X151.927 Y93.797 E0.03503
G1 X152.521 Y94.568 E0.03053
G1 X153.107 Y95.427 E0.03260
G1 X153.636 Y96.313 E0.03236
G1 X154.086 Y97.178 E0.03057
G1 X154.563 Y98.249 E0.03677
G1 X154.905 Y99.162 E0.03057
G1 X155.211 Y100.156 E0.03260
G1 X155.457 Y101.162 E0.03248
G1 X155.632 Y102.121 E0.03057
G1 X155.772 Y103.286 E0.03677
G1 X155.829 Y104.259 E0.03057
G1 X155.829 Y105.295 E0.03248
G1 X155.767 Y106.333 E0.03260
G1 X155.652 Y107.301 E0.03057
G1 X155.448 Y108.433 E0.03606
G1 X155.208 Y109.409 E0.03152
G1 X154.880 Y110.461 E0.03455
G1 X154.539 Y111.369 E0.03041
G1 X154.146 Y112.253 E0.03033
G1 X153.669 Y113.181 E0.03272
G1 X153.107 Y114.127 E0.03451
G1 X152.522 Y114.987 E0.03260
G1 X151.884 Y115.812 E0.03272
G1 X151.195 Y116.601 E0.03284
G1 X150.465 Y117.341 E0.03260
G1 X149.645 Y118.075 E0.03451
G1 X148.826 Y118.723 E0.03276
G1 X148.032 Y119.281 E0.03041
G1 X147.206 Y119.792 E0.03045
G1 X146.239 Y120.317 E0.03451
G1 X145.292 Y120.755 E0.03272
G1 X144.321 Y121.137 E0.03272
G1 X143.306 Y121.465 E0.03343
G1 X142.326 Y121.719 E0.03176
G1 X141.309 Y121.920 E0.03248
G1 X140.279 Y122.059 E0.03260
G1 X139.288 Y122.135 E0.03117
G1 X107.358 Y123.802 E1.00252
G1 X106.315 Y123.818 E0.03270
G1 X105.215 Y123.765 E0.03451
G1 X104.177 Y123.652 E0.03276
G1 X103.220 Y123.492 E0.03041
G1 X102.273 Y123.277 E0.03045
G1 X101.216 Y122.971 E0.03451
G1 X100.237 Y122.621 E0.03260
G1 X99.274 Y122.209 E0.03284
G1 X98.344 Y121.744 E0.03260
G1 X97.444 Y121.224 E0.03260
G1 X96.573 Y120.649 E0.03272
G1 X95.741 Y120.025 E0.03260
G1 X94.900 Y119.308 E0.03467
G1 X94.151 Y118.586 E0.03260
G1 X93.495 Y117.877 E0.03029
G1 X92.877 Y117.128 E0.03045
G1 X92.228 Y116.240 E0.03451
G1 X91.696 Y115.409 E0.03093
G1 X91.159 Y114.453 E0.03439
G1 X90.704 Y113.509 E0.03284
G1 X90.309 Y112.544 E0.03272
G1 X89.957 Y111.505 E0.03439
G1 X89.696 Y110.554 E0.03093
G1 X89.470 Y109.475 E0.03455
G1 X89.327 Y108.516 E0.03041
G1 X89.239 Y107.553 E0.03033
G1 X89.203 Y106.510 E0.03272
G1 X89.233 Y105.410 E0.03451
G1 X89.326 Y104.374 E0.03260
G1 X89.481 Y103.342 E0.03272
G1 X89.698 Y102.322 E0.03272
G1 X89.975 Y101.319 E0.03260
G1 X90.312 Y100.332 E0.03272
G1 X90.707 Y99.370 E0.03260
G1 X91.187 Y98.380 E0.03451
G1 X91.700 Y97.469 E0.03276
G1 X92.223 Y96.653 E0.03041
G1 X92.790 Y95.869 E0.03033
G1 X93.487 Y95.017 E0.03451
G1 X94.157 Y94.292 E0.03096
G1 F5760
G1 X95.006 Y93.482 E-0.40636
G1 F5760
G1 X95.746 Y92.856 E-0.33590
G1 F5760
G1 X95.787 Y92.825 E-0.01774
G1 E-0.04000 F2100.00000
G1 X124.825 Y101.450 F7200.000
G1 E0.80000 F2100.00000
G1 F1680
G1 X125.048 Y100.641 E0.02633
G1 X125.320 Y99.846 E0.02633
G1 X125.638 Y99.070 E0.02630
G1 X126.019 Y98.282 E0.02745
G1 X126.411 Y97.579 E0.02524
G1 X126.863 Y96.871 E0.02633
G1 X127.357 Y96.192 E0.02633
G1 X127.890 Y95.543 E0.02633
G1 X128.461 Y94.928 E0.02633
G1 X129.068 Y94.347 E0.02633
G1 X129.709 Y93.804 E0.02633
G1 X130.381 Y93.301 E0.02633
G1 X131.082 Y92.838 E0.02633
G1 X131.809 Y92.418 E0.02633
G1 X132.560 Y92.043 E0.02633
G1 X133.332 Y91.713 E0.02633
G1 X134.123 Y91.429 E0.02633
G1 X134.929 Y91.194 E0.02633
G1 X135.748 Y91.007 E0.02633
G1 X136.576 Y90.869 E0.02633
G1 X137.410 Y90.782 E0.02630
G1 X138.285 Y90.744 E0.02745
G1 X139.090 Y90.756 E0.02524
G1 X139.927 Y90.819 E0.02633
G1 X140.759 Y90.932 E0.02633
G1 X141.582 Y91.094 E0.02630
G1 X142.429 Y91.316 E0.02745
G1 X143.195 Y91.565 E0.02524
G1 X143.976 Y91.872 E0.02633
G1 X144.738 Y92.225 E0.02633
G1 X145.477 Y92.622 E0.02630
G1 X146.220 Y93.084 E0.02745
G1 X146.879 Y93.548 E0.02524
G1 X147.535 Y94.071 E0.02633
G1 X148.159 Y94.633 E0.02633
G1 X148.749 Y95.231 E0.02633
G1 X149.301 Y95.864 E0.02633
G1 X149.815 Y96.528 E0.02633
G1 X150.288 Y97.222 E0.02633
G1 X150.719 Y97.943 E0.02633
G1 X151.105 Y98.687 E0.02630
G1 X151.459 Y99.488 E0.02745
G1 X151.742 Y100.241 E0.02524
G1 X151.990 Y101.044 E0.02633
G1 X152.189 Y101.860 E0.02633
G1 X152.339 Y102.686 E0.02633
G1 X152.439 Y103.520 E0.02633
G1 X152.489 Y104.358 E0.02633
G1 X152.489 Y105.198 E0.02633
G1 X152.439 Y106.036 E0.02633
G1 X152.339 Y106.870 E0.02633
G1 X152.189 Y107.696 E0.02633
G1 X151.990 Y108.512 E0.02633
G1 X151.742 Y109.314 E0.02633
G1 X151.447 Y110.099 E0.02630
G1 X151.089 Y110.898 E0.02745
G1 X150.719 Y111.613 E0.02524
G1 X150.288 Y112.334 E0.02633
G1 X149.815 Y113.028 E0.02633
G1 X149.301 Y113.692 E0.02633
G1 X148.749 Y114.324 E0.02633
G1 X148.159 Y114.922 E0.02633
G1 X147.535 Y115.484 E0.02633
G1 X146.880 Y116.007 E0.02629
G1 X146.162 Y116.510 E0.02745
G1 X145.478 Y116.933 E0.02524
G1 X144.738 Y117.331 E0.02633
G1 X143.976 Y117.684 E0.02633
G1 X143.195 Y117.990 E0.02633
G1 X142.396 Y118.250 E0.02633
G1 X141.583 Y118.461 E0.02633
G1 X140.759 Y118.624 E0.02633
G1 X139.927 Y118.736 E0.02633
G1 X139.090 Y118.799 E0.02633
G1 X138.250 Y118.812 E0.02633
G1 X137.411 Y118.774 E0.02633
G1 X136.576 Y118.686 E0.02633
G1 X135.749 Y118.549 E0.02630
G1 X134.895 Y118.352 E0.02745
G1 X134.123 Y118.126 E0.02524
G1 X133.332 Y117.843 E0.02633
G1 X132.560 Y117.513 E0.02633
G1 X131.810 Y117.138 E0.02629
G1 X131.053 Y116.698 E0.02745
G1 X130.381 Y116.255 E0.02524
G1 X129.709 Y115.751 E0.02633
G1 X129.068 Y115.208 E0.02633
G1 X128.461 Y114.628 E0.02633
G1 X127.890 Y114.012 E0.02633
G1 X127.357 Y113.364 E0.02633
G1 X126.863 Y112.684 E0.02633
G1 X126.411 Y111.976 E0.02633
G1 X126.002 Y111.243 E0.02633
G1 X125.638 Y110.486 E0.02633
G1 X125.320 Y109.709 E0.02633
G1 X125.048 Y108.915 E0.02633
G1 X124.825 Y108.105 E0.02633
G1 X124.650 Y107.284 E0.02633
G1 X124.525 Y106.453 E0.02633
G1 X124.450 Y105.617 E0.02633
G1 X124.425 Y104.778 E0.02633
G1 X124.450 Y103.938 E0.02633
G1 X124.525 Y103.102 E0.02633
G1 X124.650 Y102.272 E0.02633
G1 X124.812 Y101.509 E0.02445
G1 X124.458 Y101.361 F7200.000
G1 F1680
G1 X124.688 Y100.530 E0.02704
G1 X124.966 Y99.713 E0.02704
G1 X125.293 Y98.916 E0.02702
G1 X125.685 Y98.108 E0.02816
G1 X126.087 Y97.385 E0.02593
G1 X126.552 Y96.659 E0.02704
G1 X127.059 Y95.961 E0.02704
G1 X127.606 Y95.295 E0.02704
G1 X128.193 Y94.663 E0.02704
G1 X128.816 Y94.067 E0.02704
G1 X129.474 Y93.509 E0.02704
G1 X130.164 Y92.992 E0.02704
G1 X130.883 Y92.517 E0.02704
G1 X131.630 Y92.086 E0.02704
G1 X132.402 Y91.700 E0.02704
G1 X133.194 Y91.361 E0.02704
G1 X134.006 Y91.070 E0.02704
G1 X134.834 Y90.829 E0.02704
G1 X135.675 Y90.637 E0.02704
G1 X136.525 Y90.495 E0.02704
G1 X137.382 Y90.405 E0.02702
G1 X138.280 Y90.367 E0.02816
G1 X139.107 Y90.380 E0.02593
G1 X139.967 Y90.444 E0.02704
G1 X140.821 Y90.560 E0.02704
G1 X141.666 Y90.726 E0.02702
G1 X142.535 Y90.954 E0.02816
G1 X143.322 Y91.210 E0.02593
G1 X144.125 Y91.525 E0.02704
G1 X144.907 Y91.887 E0.02704
G1 X145.666 Y92.296 E0.02702
G1 X146.429 Y92.770 E0.02816
G1 X147.105 Y93.246 E0.02593
G1 X147.779 Y93.783 E0.02704
G1 X148.420 Y94.360 E0.02704
G1 X149.025 Y94.975 E0.02704
G1 X149.593 Y95.624 E0.02704
G1 X150.120 Y96.306 E0.02704
G1 X150.606 Y97.019 E0.02704
G1 X151.048 Y97.759 E0.02704
G1 X151.445 Y98.524 E0.02702
G1 X151.808 Y99.345 E0.02816
G1 X152.099 Y100.119 E0.02593
G1 X152.353 Y100.943 E0.02704
G1 X152.558 Y101.781 E0.02704
G1 X152.712 Y102.630 E0.02704
G1 X152.815 Y103.486 E0.02704
G1 X152.866 Y104.347 E0.02704
G1 X152.866 Y105.209 E0.02704
G1 X152.815 Y106.070 E0.02704
G1 X152.712 Y106.926 E0.02704
G1 X152.558 Y107.774 E0.02704
G1 X152.353 Y108.612 E0.02704
G1 X152.099 Y109.436 E0.02704
G1 X151.796 Y110.243 E0.02702
G1 X151.429 Y111.062 E0.02816
G1 X151.048 Y111.797 E0.02593
G1 X150.606 Y112.537 E0.02704
G1 X150.120 Y113.249 E0.02704
G1 X149.593 Y113.931 E0.02704
G1 X149.025 Y114.581 E0.02704
G1 X148.420 Y115.195 E0.02704
G1 X147.779 Y115.772 E0.02704
G1 X147.106 Y116.309 E0.02702
G1 X146.370 Y116.825 E0.02816
G1 X145.666 Y117.259 E0.02593
G1 X144.907 Y117.668 E0.02704
G1 X144.125 Y118.031 E0.02704
G1 X143.322 Y118.346 E0.02704
G1 X142.502 Y118.612 E0.02704
G1 X141.667 Y118.829 E0.02704
G1 X140.821 Y118.996 E0.02704
G1 X139.967 Y119.111 E0.02704
G1 X139.107 Y119.176 E0.02704
G1 X138.244 Y119.189 E0.02704
G1 X137.383 Y119.150 E0.02704
G1 X136.525 Y119.060 E0.02704
G1 X135.675 Y118.919 E0.02702
G1 X134.800 Y118.717 E0.02816
G1 X134.006 Y118.485 E0.02593
G1 X133.194 Y118.194 E0.02704
G1 X132.402 Y117.855 E0.02704
G1 X131.631 Y117.470 E0.02702
G1 X130.854 Y117.019 E0.02816
G1 X130.164 Y116.563 E0.02593
G1 X129.474 Y116.046 E0.02704
G1 X128.816 Y115.488 E0.02704
G1 X128.193 Y114.892 E0.02704
G1 X127.606 Y114.260 E0.02704
G1 X127.059 Y113.594 E0.02704
G1 X126.552 Y112.897 E0.02704
G1 X126.087 Y112.170 E0.02704
G1 X125.668 Y111.417 E0.02704
G1 X125.293 Y110.640 E0.02704
G1 X124.966 Y109.842 E0.02704
G1 X124.688 Y109.026 E0.02704
G1 X124.458 Y108.195 E0.02704
G1 X124.279 Y107.351 E0.02704
G1 X124.150 Y106.498 E0.02704
G1 X124.073 Y105.640 E0.02704
G1 X124.047 Y104.778 E0.02704
G1 X124.073 Y103.916 E0.02704
G1 X124.150 Y103.057 E0.02704
G1 X124.279 Y102.204 E0.02704
G1 X124.446 Y101.419 E0.02516
G1 X124.092 Y101.271 F7200.000
G1 F1050
G1 X124.327 Y100.418 E0.02775
G1 X124.613 Y99.581 E0.02775
G1 X124.949 Y98.762 E0.02774
G1 X125.350 Y97.934 E0.02887
G1 X125.764 Y97.192 E0.02663
G1 X126.240 Y96.446 E0.02775
G1 X126.760 Y95.730 E0.02775
G1 X127.322 Y95.047 E0.02775
G1 X127.924 Y94.398 E0.02775
G1 X128.564 Y93.787 E0.02775
G1 X129.239 Y93.214 E0.02775
G1 X129.947 Y92.684 E0.02775
G1 X130.685 Y92.196 E0.02775
G1 X131.451 Y91.754 E0.02775
G1 X132.243 Y91.358 E0.02775
G1 X133.057 Y91.010 E0.02775
G1 X133.890 Y90.712 E0.02775
G1 X134.739 Y90.464 E0.02775
G1 X135.602 Y90.267 E0.02775
G1 X136.475 Y90.122 E0.02775
G1 X137.354 Y90.029 E0.02774
G1 X138.274 Y89.990 E0.02887
G1 X139.124 Y90.003 E0.02663
G1 X140.006 Y90.069 E0.02775
G1 X140.883 Y90.188 E0.02775
G1 X141.751 Y90.359 E0.02774
G1 X142.641 Y90.592 E0.02887
G1 X143.449 Y90.855 E0.02663
G1 X144.273 Y91.178 E0.02775
G1 X145.076 Y91.550 E0.02775
G1 X145.855 Y91.969 E0.02774
G1 X146.637 Y92.455 E0.02887
G1 X147.331 Y92.944 E0.02663
G1 X148.023 Y93.496 E0.02775
G1 X148.681 Y94.088 E0.02775
G1 X149.302 Y94.718 E0.02775
G1 X149.884 Y95.384 E0.02775
G1 X150.425 Y96.084 E0.02775
G1 X150.924 Y96.816 E0.02775
G1 X151.378 Y97.575 E0.02775
G1 X151.785 Y98.360 E0.02774
G1 X152.158 Y99.202 E0.02887
G1 X152.456 Y99.997 E0.02663
G1 X152.717 Y100.843 E0.02775
G1 X152.927 Y101.703 E0.02775
G1 X153.085 Y102.573 E0.02775
G1 X153.190 Y103.452 E0.02775
G1 X153.243 Y104.335 E0.02775
G1 X153.243 Y105.220 E0.02775
G1 X153.190 Y106.103 E0.02775
G1 X153.085 Y106.982 E0.02775
G1 X152.927 Y107.853 E0.02775
G1 X152.717 Y108.712 E0.02775
G1 X152.456 Y109.558 E0.02775
G1 X152.145 Y110.386 E0.02774
G1 X151.769 Y111.226 E0.02887
G1 X151.378 Y111.980 E0.02663
G1 X150.924 Y112.740 E0.02775
G1 X150.425 Y113.471 E0.02775
G1 X149.884 Y114.171 E0.02775
G1 X149.302 Y114.837 E0.02775
G1 X148.681 Y115.468 E0.02775
G1 X148.023 Y116.060 E0.02775
G1 X147.331 Y116.611 E0.02774
G1 X146.577 Y117.140 E0.02887
G1 X145.855 Y117.586 E0.02663
G1 X145.076 Y118.005 E0.02775
G1 X144.273 Y118.377 E0.02775
G1 X143.449 Y118.701 E0.02775
G1 X142.607 Y118.974 E0.02775
G1 X141.751 Y119.197 E0.02775
G1 X140.883 Y119.368 E0.02775
G1 X140.006 Y119.487 E0.02775
G1 X139.124 Y119.553 E0.02775
G1 X138.239 Y119.566 E0.02775
G1 X137.355 Y119.526 E0.02775
G1 X136.475 Y119.434 E0.02775
G1 X135.602 Y119.289 E0.02774
G1 X134.705 Y119.082 E0.02887
G1 X133.890 Y118.844 E0.02663
G1 X133.057 Y118.545 E0.02775
G1 X132.243 Y118.197 E0.02775
G1 X131.452 Y117.802 E0.02774
G1 X130.655 Y117.340 E0.02887
G1 X129.947 Y116.872 E0.02663
G1 X129.239 Y116.341 E0.02775
G1 X128.564 Y115.769 E0.02775
G1 X127.924 Y115.157 E0.02775
G1 X127.322 Y114.509 E0.02775
G1 X126.760 Y113.825 E0.02775
G1 X126.240 Y113.109 E0.02775
G1 X125.764 Y112.363 E0.02775
G1 X125.333 Y111.591 E0.02775
G1 X124.949 Y110.793 E0.02775
G1 X124.613 Y109.975 E0.02775
G1 X124.327 Y109.137 E0.02775
G1 X124.092 Y108.284 E0.02775
G1 X123.908 Y107.419 E0.02775
G1 X123.776 Y106.544 E0.02775
G1 X123.697 Y105.662 E0.02775
G1 X123.670 Y104.778 E0.02775
G1 X123.697 Y103.893 E0.02775
G1 X123.776 Y103.012 E0.02775
G1 X123.908 Y102.137 E0.02775
G1 X124.079 Y101.330 E0.02586
G1 X124.476 Y101.159 F7200.000
G1 F5760
G1 X124.327 Y100.418 E-0.32723
G1 F5760
G1 X124.613 Y99.581 E-0.30649
G1 F5760
G1 X124.751 Y99.244 E-0.12628
G1 E-0.04000 F2100.00000
G1 X125.730 Y110.413 F7200.000
G1 E0.80000 F2100.00000
G1 F1680
G1 X132.468 Y117.150 E0.30257
G1 X133.438 Y117.580 E0.03369
G1 X125.666 Y109.808 E0.34902
G1 X125.365 Y108.968 E0.02836
G1 X134.273 Y117.875 E0.40003
G1 X135.030 Y118.093 E0.02502
G1 X125.147 Y108.209 E0.44385
G1 X124.987 Y107.510 E0.02279
G1 X135.732 Y118.255 E0.48254
G1 X136.385 Y118.368 E0.02105
G1 X124.871 Y106.854 E0.51708
G1 X124.789 Y106.231 E0.01994
G1 X137.005 Y118.447 E0.54858
G1 X137.597 Y118.499 E0.01889
G1 X124.735 Y105.638 E0.57758
G1 X124.716 Y105.079 E0.01776
G1 X138.162 Y118.525 E0.60383
G1 X138.700 Y118.522 E0.01707
G1 X124.715 Y104.537 E0.62805
G1 X124.730 Y104.012 E0.01666
G1 X139.223 Y118.505 E0.65085
G1 X139.726 Y118.468 E0.01600
G1 X124.772 Y103.514 E0.67155
G1 X124.823 Y103.024 E0.01562
G1 X140.211 Y118.412 E0.69104
G1 X140.686 Y118.348 E0.01524
G1 X124.893 Y102.555 E0.70923
G1 X124.976 Y102.098 E0.01476
G1 X141.139 Y118.261 E0.72583
G1 X141.587 Y118.168 E0.01452
G1 X125.071 Y101.652 E0.74169
G1 X125.181 Y101.222 E0.01409
G1 X142.015 Y118.057 E0.75599
G1 X142.438 Y117.939 E0.01392
G1 X125.298 Y100.799 E0.76972
G1 X125.432 Y100.393 E0.01358
G1 X142.845 Y117.807 E0.78201
G1 X143.245 Y117.667 E0.01346
G1 X125.569 Y99.990 E0.79381
G1 X125.724 Y99.605 E0.01318
G1 X143.633 Y117.514 E0.80427
G1 X143.865 Y117.424 E0.00791
G1 X144.014 Y117.355 E0.00520
G1 X125.881 Y99.222 E0.81430
G1 X126.055 Y98.856 E0.01286
G1 X144.383 Y117.184 E0.82305
G1 X144.745 Y117.006 E0.01281
G1 X126.232 Y98.492 E0.83140
G1 X126.421 Y98.142 E0.01265
G1 X145.096 Y116.817 E0.83865
G1 X145.442 Y116.623 E0.01259
G1 X126.614 Y97.795 E0.84549
G1 X126.821 Y97.462 E0.01245
G1 X145.776 Y116.416 E0.85119
G1 X146.104 Y116.205 E0.01241
G1 X127.032 Y97.133 E0.85650
G1 X127.254 Y96.815 E0.01232
G1 X146.422 Y115.982 E0.86079
G1 X146.738 Y115.758 E0.01230
G1 X127.481 Y96.502 E0.86478
G1 X127.718 Y96.198 E0.01222
G1 X147.038 Y115.519 E0.86765
G1 X147.339 Y115.279 E0.01220
G1 X127.962 Y95.902 E0.87020
G1 X128.212 Y95.612 E0.01216
G1 X147.624 Y115.024 E0.87174
G1 X147.908 Y114.768 E0.01214
G1 X128.472 Y95.332 E0.87283
G1 X128.736 Y95.056 E0.01213
G1 X148.179 Y114.499 E0.87315
G1 X148.447 Y114.227 E0.01213
G1 X129.012 Y94.792 E0.87278
G1 X129.290 Y94.530 E0.01213
