; generated by Slic3r 1.33.8-prusa3d-win64 on 2017-05-08 at 07:14:47

; external perimeters extrusion width = 0.45mm
; perimeters extrusion width = 0.45mm
; infill extrusion width = 0.50mm
; solid infill extrusion width = 0.45mm
; top infill extrusion width = 0.45mm

M107
M115 U3.0.10 ; tell printer latest fw version
M83  ; extruder relative mode
M104 S215 ; set extruder temp
M140 S55 ; set bed temp
M190 S55 ; wait for bed temp
M109 S215 ; wait for extruder temp
G28 W ; home all without mesh bed level
G80 ; mesh bed leveling
G1 Y-3.0 F1000.0 ; go outside pritn area
G1 X60.0 E9.0  F1000.0 ; intro line
G1 X100.0 E12.5  F1000.0 ; intro line
G21 ; set units to millimeters
G90 ; use absolute coordinates
M83 ; use relative distances for extrusion
G1 E-0.80000 F2100.00000
G1 Z0.200 F10800.000
G1 X118.482 Y86.683 F10800.000
G1 E0.80000 F2100.00000
M204 S500
G1 F1260
G1 X127.170 Y74.817 E0.46112
G1 X127.461 Y74.527 E0.01288
G1 X131.084 Y71.534 E0.14734
G1 X131.486 Y71.267 E0.01514
G1 X131.746 Y71.149 E0.00895
G1 X132.022 Y71.063 E0.00907
G1 X132.303 Y71.011 E0.00895
G1 X132.588 Y70.993 E0.00895
G1 X134.807 Y71.051 E0.06959
G1 X135.204 Y71.120 E0.01264
G1 X135.584 Y71.255 E0.01264
G1 X135.843 Y71.392 E0.00919
G1 X136.086 Y71.563 E0.00931
G1 X139.691 Y74.542 E0.14664
G1 X140.003 Y74.865 E0.01407
G1 X140.250 Y75.244 E0.01419
G1 X140.364 Y75.493 E0.00859
G1 X140.448 Y75.758 E0.00871
G1 X141.510 Y79.942 E0.13533
G1 X141.575 Y80.401 E0.01455
G1 X141.569 Y105.518 E0.78753
G1 X138.769 Y134.066 E0.89939
G1 X138.641 Y135.012 E0.02992
G1 X138.525 Y135.414 E0.01312
G1 X138.115 Y136.370 E0.03262
G1 X137.932 Y136.655 E0.01062
G1 X137.309 Y137.445 E0.03155
G1 X137.050 Y137.681 E0.01098
G1 X136.227 Y138.293 E0.03215
G1 X135.943 Y138.439 E0.01002
G1 X135.052 Y138.799 E0.03012
G1 X134.716 Y138.880 E0.01086
G1 X133.910 Y138.987 E0.02547
G1 X133.473 Y139.004 E0.01371
G1 X113.306 Y137.688 E0.63368
G1 X112.996 Y137.645 E0.00979
G1 X112.692 Y137.562 E0.00991
G1 X112.284 Y137.375 E0.01407
G1 X111.918 Y137.115 E0.01407
G1 X111.607 Y136.791 E0.01407
G1 X111.364 Y136.414 E0.01407
G1 X108.529 Y129.567 E0.23235
G1 X108.446 Y129.215 E0.01133
G1 X108.417 Y128.851 E0.01145
G1 X108.417 Y104.020 E0.77855
G1 X108.432 Y103.754 E0.00836
G1 X108.478 Y103.488 E0.00847
G1 X109.479 Y99.272 E0.13585
G1 X109.585 Y98.955 E0.01050
G1 X109.736 Y98.656 E0.01050
G1 X118.446 Y86.731 E0.46300
G1 F8640
G1 X120.391 Y84.076 E-0.76000
G1 E-0.04000 F2100.00000
G1 X133.114 Y132.003 F10800.000
G1 E0.80000 F2100.00000
G1 F630
G1 X133.578 Y131.942 E0.01466
G1 X134.092 Y132.002 E0.01624
G1 X134.550 Y132.192 E0.01553
G1 X134.943 Y132.493 E0.01553
G1 X135.252 Y132.909 E0.01624
G1 X135.431 Y133.341 E0.01466
G1 X135.496 Y133.830 E0.01548
G1 X135.431 Y134.320 E0.01548
G1 X135.242 Y134.776 E0.01548
G1 X134.942 Y135.168 E0.01548
G1 X134.550 Y135.469 E0.01548
G1 X134.093 Y135.658 E0.01548
G1 X133.604 Y135.722 E0.01548
G1 X133.114 Y135.658 E0.01548
G1 X132.658 Y135.469 E0.01548
G1 X132.266 Y135.168 E0.01548
G1 X131.965 Y134.776 E0.01548
G1 X131.776 Y134.320 E0.01548
G1 X131.712 Y133.829 E0.01553
G1 X131.787 Y133.316 E0.01624
G1 X131.965 Y132.884 E0.01466
G1 X132.266 Y132.493 E0.01548
G1 X132.658 Y132.192 E0.01548
G1 X133.059 Y132.026 E0.01360
G1 X133.218 Y131.617 F10800.000
G1 X132.933 Y131.331 F10800.000
G1 F630
G1 X133.644 Y131.247 E0.02244
G1 X134.274 Y131.330 E0.01993
G1 X134.898 Y131.589 E0.02118
G1 X135.434 Y132.000 E0.02118
G1 X135.845 Y132.536 E0.02118
G1 X136.088 Y133.123 E0.01993
G1 X136.192 Y133.832 E0.02244
G1 X136.104 Y134.500 E0.02114
G1 X135.845 Y135.124 E0.02118
G1 X135.434 Y135.660 E0.02118
G1 X134.898 Y136.072 E0.02118
G1 X134.274 Y136.330 E0.02118
G1 X133.604 Y136.418 E0.02118
G1 X132.934 Y136.330 E0.02118
G1 X132.310 Y136.072 E0.02118
G1 X131.774 Y135.660 E0.02118
G1 X131.362 Y135.124 E0.02118
G1 X131.119 Y134.537 E0.01993
G1 X131.016 Y133.829 E0.02244
G1 X131.104 Y133.160 E0.02114
G1 X131.362 Y132.536 E0.02118
G1 X131.774 Y132.000 E0.02118
G1 X132.310 Y131.589 E0.02118
G1 X132.877 Y131.354 E0.01926
G1 X133.213 Y131.616 F10800.000
G1 X133.021 Y131.668 F10800.000
G1 F840
G1 X133.594 Y131.598 E0.01302
G1 X134.158 Y131.663 E0.01279
G1 X134.723 Y131.891 E0.01373
G1 X135.204 Y132.266 E0.01373
G1 X135.541 Y132.712 E0.01259
G1 X135.758 Y133.232 E0.01270
G1 X135.841 Y133.851 E0.01406
G1 X135.767 Y134.410 E0.01271
G1 X135.543 Y134.950 E0.01317
G1 X135.171 Y135.427 E0.01362
G1 X134.723 Y135.770 E0.01271
G1 X134.183 Y135.993 E0.01317
G1 X133.583 Y136.068 E0.01362
G1 X133.024 Y135.993 E0.01271
G1 X132.484 Y135.770 E0.01317
G1 X132.007 Y135.398 E0.01362
G1 X131.664 Y134.950 E0.01271
G1 X131.455 Y134.445 E0.01232
G1 X131.367 Y133.805 E0.01455
G1 X131.444 Y133.251 E0.01259
G1 X131.664 Y132.711 E0.01316
G1 X132.036 Y132.234 E0.01362
G1 X132.484 Y131.891 E0.01271
G1 X132.965 Y131.691 E0.01173
G1 F8640
G1 X133.594 Y131.598 E-0.14689
G1 F8640
G1 X134.158 Y131.663 E-0.13107
G1 F8640
G1 X134.723 Y131.891 E-0.14072
G1 F8640
G1 X135.204 Y132.266 E-0.14073
G1 F8640
G1 X135.541 Y132.712 E-0.12902
G1 F8640
G1 X135.660 Y132.998 E-0.07157
G1 E-0.04000 F2100.00000
G1 X133.604 Y123.802 F10800.000
G1 E0.80000 F2100.00000
G1 F630
G1 X133.114 Y123.738 E0.01548
G1 X132.658 Y123.549 E0.01548
G1 X132.266 Y123.248 E0.01548
G1 X131.965 Y122.856 E0.01548
G1 X131.776 Y122.400 E0.01548
G1 X131.712 Y121.910 E0.01548
G1 X131.776 Y121.421 E0.01548
G1 X131.965 Y120.964 E0.01548
G1 X132.266 Y120.573 E0.01548
G1 X132.658 Y120.272 E0.01548
G1 X133.114 Y120.083 E0.01548
G1 X133.578 Y120.022 E0.01466
G1 X134.092 Y120.082 E0.01624
G1 X134.550 Y120.272 E0.01553
G1 X134.943 Y120.573 E0.01553
G1 X135.252 Y120.989 E0.01624
G1 X135.431 Y121.421 E0.01466
G1 X135.496 Y121.910 E0.01548
G1 X135.431 Y122.400 E0.01548
G1 X135.242 Y122.856 E0.01548
G1 X134.942 Y123.248 E0.01548
G1 X134.550 Y123.549 E0.01548
G1 X134.093 Y123.738 E0.01548
G1 X133.663 Y123.794 E0.01360
G1 X133.404 Y124.148 F10800.000
G1 X133.605 Y124.498 F10800.000
G1 F630
G1 X132.897 Y124.395 E0.02244
G1 X132.310 Y124.152 E0.01993
G1 X131.774 Y123.740 E0.02118
G1 X131.362 Y123.204 E0.02118
G1 X131.119 Y122.617 E0.01993
G1 X131.016 Y121.909 E0.02244
G1 X131.104 Y121.240 E0.02114
G1 X131.362 Y120.616 E0.02118
G1 X131.774 Y120.080 E0.02118
G1 X132.310 Y119.669 E0.02118
G1 X132.933 Y119.411 E0.02114
G1 X133.644 Y119.327 E0.02244
G1 X134.274 Y119.410 E0.01993
G1 X134.898 Y119.669 E0.02118
G1 X135.434 Y120.080 E0.02118
G1 X135.845 Y120.616 E0.02118
G1 X136.104 Y121.240 E0.02118
G1 X136.192 Y121.910 E0.02118
G1 X136.104 Y122.580 E0.02118
G1 X135.845 Y123.204 E0.02118
G1 X135.434 Y123.740 E0.02118
G1 X134.898 Y124.152 E0.02118
G1 X134.274 Y124.410 E0.02118
G1 X133.665 Y124.490 E0.01926
G1 X133.408 Y124.150 F10800.000
G1 X133.608 Y124.149 F10800.000
G1 F840
G1 X132.989 Y124.060 E0.01410
G1 X132.484 Y123.850 E0.01234
G1 X132.020 Y123.494 E0.01319
G1 X131.664 Y123.030 E0.01319
G1 X131.455 Y122.525 E0.01234
G1 X131.365 Y121.906 E0.01410
G1 X131.441 Y121.331 E0.01310
G1 X131.656 Y120.809 E0.01272
G1 X132.020 Y120.327 E0.01364
G1 X132.484 Y119.971 E0.01319
G1 X133.005 Y119.754 E0.01272
G1 X133.594 Y119.678 E0.01341
G1 X134.200 Y119.753 E0.01377
G1 X134.723 Y119.971 E0.01279
G1 X135.187 Y120.327 E0.01319
G1 X135.541 Y120.792 E0.01318
G1 X135.760 Y121.311 E0.01272
G1 X135.843 Y121.910 E0.01364
G1 X135.760 Y122.509 E0.01364
G1 X135.543 Y123.030 E0.01272
G1 X135.187 Y123.494 E0.01319
G1 X134.705 Y123.858 E0.01364
G1 X134.183 Y124.073 E0.01272
G1 X133.667 Y124.142 E0.01175
G1 F8640
G1 X132.989 Y124.060 E-0.15769
G1 F8640
G1 X132.484 Y123.850 E-0.12632
G1 F8640
G1 X132.020 Y123.494 E-0.13498
G1 F8640
G1 X131.664 Y123.030 E-0.13498
G1 F8640
G1 X131.455 Y122.525 E-0.12632
G1 F8640
G1 X131.405 Y122.183 E-0.07971
G1 E-0.04000 F2100.00000
G1 Z0.200 F10800.000
G1 X135.932 Y87.689 F10800.000
G1 E0.80000 F2100.00000
G1 F630
G1 X131.267 Y87.689 E0.14629
G1 X131.267 Y87.178 E0.01604
G1 X135.932 Y87.178 E0.14629
G1 X135.932 Y87.629 E0.01416
G1 X136.309 Y88.066 F10800.000
G1 F630
G1 X130.889 Y88.066 E0.16994
G1 X130.889 Y86.801 E0.03969
G1 X136.309 Y86.801 E0.16994
G1 X136.309 Y88.006 E0.03781
G1 X135.911 Y88.036 F10800.000
G1 X135.744 Y87.434 F10800.000
G1 F840
G1 X131.455 Y87.434 E0.03268
G1 F8640
G1 X134.747 Y87.434 E-0.76000
G1 E-0.04000 F2100.00000
G1 X134.964 Y80.851 F10800.000
G1 E0.80000 F2100.00000
G1 F630
G1 X134.964 Y79.958 E0.02799
G1 X135.190 Y77.243 E0.08545
G1 X135.381 Y75.315 E0.06073
G1 X136.818 Y76.503 E0.05845
G1 X136.570 Y76.830 E0.01289
G1 X136.570 Y80.840 E0.12573
G1 X135.024 Y80.851 E0.04847
G1 F8640
G1 X134.964 Y79.958 E-0.20664
G1 F8640
G1 X135.163 Y77.570 E-0.55336
G1 E-0.04000 F2100.00000
G1 X132.236 Y80.847 F10800.000
G1 E0.80000 F2100.00000
G1 F630
G1 X130.566 Y80.844 E0.05235
G1 X130.566 Y76.829 E0.12589
G1 X130.316 Y76.502 E0.01290
G1 X131.817 Y75.262 E0.06104
G1 X131.937 Y76.439 E0.03709
G1 X132.236 Y79.959 E0.11077
G1 X132.236 Y80.787 E0.02595
G1 X132.613 Y81.005 F10800.000
G1 F1260
G1 X134.587 Y81.005 E0.06190
G1 X134.587 Y79.943 E0.03332
G1 X134.814 Y77.208 E0.08603
G1 X135.076 Y74.573 E0.08302
G1 X137.338 Y76.443 E0.09199
G1 X136.947 Y76.957 E0.02026
G1 X136.947 Y81.091 E0.12962
G1 X138.613 Y81.091 E0.05225
G1 X138.613 Y81.217 E0.00395
G1 X128.588 Y81.218 E0.31432
G1 X128.588 Y81.091 E0.00398
G1 X130.189 Y81.091 E0.05019
G1 X130.189 Y76.957 E0.12964
G1 X129.797 Y76.442 E0.02028
G1 X132.121 Y74.522 E0.09453
G1 X132.313 Y76.404 E0.05930
G1 X132.613 Y79.943 E0.11137
G1 X132.613 Y80.945 E0.03143
G1 X132.990 Y80.628 F10800.000
G1 F840
G1 X134.210 Y80.628 E0.03825
G1 X134.210 Y79.927 E0.02199
G1 X134.439 Y77.174 E0.08662
G1 X134.771 Y73.832 E0.10530
G1 X137.857 Y76.383 E0.12553
G1 X137.324 Y77.084 E0.02762
G1 X137.324 Y80.714 E0.11382
G1 X138.990 Y80.714 E0.05225
G1 X138.990 Y81.594 E0.02759
G1 X136.309 Y81.594 E0.08406
G1 X136.309 Y81.607 E0.00042
G1 X128.211 Y81.595 E0.25391
G1 X128.211 Y80.714 E0.02760
G1 X129.812 Y80.714 E0.05019
G1 X129.812 Y77.084 E0.11382
G1 X129.277 Y76.383 E0.02766
G1 X132.425 Y73.782 E0.12801
G1 X132.688 Y76.369 E0.08151
G1 X132.990 Y79.927 E0.11197
G1 X132.990 Y80.568 E0.02010
G1 X132.999 Y81.028 F10800.000
G1 F8640
G1 X134.210 Y80.628 E-0.28204
G1 F8640
G1 X134.210 Y79.927 E-0.16193
G1 F8640
G1 X134.323 Y78.563 E-0.31603
G1 E-0.04000 F2100.00000
G1 X135.077 Y79.975 F10800.000
G1 E0.80000 F2100.00000
G1 F1260
G1 X135.666 Y80.564 E0.02611
G1 X136.196 Y80.560 E0.01662
G1 X135.274 Y79.639 E0.04087
G1 X135.315 Y79.146 E0.01550
G1 X136.287 Y80.118 E0.04310
G1 X136.287 Y79.584 E0.01674
G1 X135.356 Y78.654 E0.04128
G1 X135.397 Y78.161 E0.01550
G1 X136.287 Y79.051 E0.03946
G1 X136.287 Y78.517 E0.01674
G1 X135.438 Y77.668 E0.03764
G1 X135.481 Y77.177 E0.01547
G1 X136.287 Y77.983 E0.03576
G1 X136.287 Y77.450 E0.01674
G1 X135.529 Y76.692 E0.03363
G1 X135.577 Y76.207 E0.01530
G1 X136.457 Y77.086 E0.03901
G1 F8640
G1 X135.577 Y76.207 E-0.28717
G1 F8640
G1 X135.529 Y76.692 E-0.11261
G1 F8640
G1 X136.287 Y77.450 E-0.24751
G1 F8640
G1 X136.287 Y77.938 E-0.11271
G1 E-0.04000 F2100.00000
G1 X131.819 Y76.395 F10800.000
G1 E0.80000 F2100.00000
G1 F1260
G1 X131.399 Y75.975 E0.02030
G1 X131.081 Y76.237 E0.01407
G1 X131.688 Y76.845 E0.02930
G1 X131.742 Y77.479 E0.02172
G1 X130.763 Y76.500 E0.04723
G1 X130.706 Y76.547 E0.00251
G1 X130.849 Y76.734 E0.00802
G1 X130.849 Y77.166 E0.01477
G1 X131.795 Y78.113 E0.04568
G1 X131.849 Y78.747 E0.02172
G1 X130.849 Y77.747 E0.04827
G1 X130.849 Y78.327 E0.01980
G1 X131.903 Y79.381 E0.05086
G1 X131.953 Y80.011 E0.02158
G1 X130.849 Y78.907 E0.05327
G1 X130.849 Y79.488 E0.01980
G1 X131.925 Y80.564 E0.05192
G1 X131.343 Y80.563 E0.01984
G1 X130.679 Y79.898 E0.03205
G1 F8640
G1 X131.343 Y80.563 E-0.21689
G1 F8640
G1 X131.925 Y80.564 E-0.13422
G1 F8640
G1 X130.849 Y79.488 E-0.35130
G1 F8640
G1 X130.849 Y79.238 E-0.05758
G1 E-0.04000 F2100.00000
G1 X131.267 Y110.698 F10800.000
G1 E0.80000 F2100.00000
G1 F630
G1 X135.932 Y110.698 E0.14629
G1 X135.932 Y111.209 E0.01604
G1 X131.267 Y111.209 E0.14629
G1 X131.267 Y110.758 E0.01416
G1 X130.889 Y110.321 F10800.000
G1 F630
G1 X136.309 Y110.321 E0.16994
G1 X136.309 Y111.586 E0.03969
G1 X130.889 Y111.586 E0.16994
G1 X130.889 Y110.381 E0.03781
G1 X131.288 Y110.351 F10800.000
G1 X131.455 Y110.954 F10800.000
G1 F840
G1 X135.744 Y110.954 E0.03268
G1 F8640
G1 X132.452 Y110.954 E-0.76000
G1 E-0.04000 F2100.00000
G1 X134.964 Y104.371 F10800.000
G1 E0.80000 F2100.00000
G1 F630
G1 X134.964 Y103.478 E0.02799
G1 X135.190 Y100.763 E0.08545
G1 X135.381 Y98.835 E0.06073
G1 X136.818 Y100.023 E0.05845
G1 X136.570 Y100.350 E0.01289
G1 X136.570 Y104.360 E0.12573
G1 X135.024 Y104.371 E0.04847
G1 F8640
G1 X134.964 Y103.478 E-0.20664
G1 F8640
G1 X135.163 Y101.090 E-0.55336
G1 E-0.04000 F2100.00000
G1 X132.236 Y104.367 F10800.000
G1 E0.80000 F2100.00000
G1 F630
G1 X130.566 Y104.364 E0.05235
G1 X130.566 Y100.349 E0.12589
G1 X130.316 Y100.022 E0.01290
G1 X131.817 Y98.782 E0.06104
G1 X131.937 Y99.959 E0.03709
G1 X132.236 Y103.479 E0.11077
G1 X132.236 Y104.307 E0.02595
G1 X132.613 Y104.525 F10800.000
G1 F1260
G1 X134.587 Y104.525 E0.06190
G1 X134.587 Y103.463 E0.03332
G1 X134.814 Y100.728 E0.08603
G1 X135.076 Y98.093 E0.08302
G1 X137.338 Y99.963 E0.09199
G1 X136.947 Y100.477 E0.02026
G1 X136.947 Y104.611 E0.12962
G1 X138.613 Y104.611 E0.05225
G1 X138.613 Y104.737 E0.00395
G1 X128.588 Y104.738 E0.31432
G1 X128.588 Y104.611 E0.00398
G1 X130.189 Y104.611 E0.05019
G1 X130.189 Y100.477 E0.12964
G1 X129.797 Y99.962 E0.02028
G1 X132.121 Y98.042 E0.09453
G1 X132.313 Y99.924 E0.05930
G1 X132.613 Y103.463 E0.11137
G1 X132.613 Y104.465 E0.03143
G1 X132.990 Y104.148 F10800.000
G1 F840
G1 X134.210 Y104.148 E0.03825
G1 X134.210 Y103.447 E0.02199
G1 X134.439 Y100.694 E0.08662
G1 X134.771 Y97.352 E0.10530
G1 X137.857 Y99.903 E0.12553
G1 X137.324 Y100.604 E0.02762
G1 X137.324 Y104.234 E0.11382
G1 X138.990 Y104.234 E0.05225
G1 X138.990 Y105.114 E0.02759
G1 X136.309 Y105.114 E0.08406
G1 X136.309 Y105.127 E0.00042
G1 X128.211 Y105.115 E0.25391
G1 X128.211 Y104.234 E0.02760
G1 X129.812 Y104.234 E0.05019
G1 X129.812 Y100.604 E0.11382
G1 X129.277 Y99.903 E0.02766
G1 X132.425 Y97.302 E0.12801
G1 X132.688 Y99.889 E0.08151
G1 X132.990 Y103.447 E0.11197
G1 X132.990 Y104.088 E0.02010
G1 X132.999 Y104.548 F10800.000
G1 F8640
G1 X134.210 Y104.148 E-0.28204
G1 F8640
G1 X134.210 Y103.447 E-0.16193
G1 F8640
G1 X134.323 Y102.083 E-0.31603
G1 E-0.04000 F2100.00000
G1 X135.077 Y103.495 F10800.000
G1 E0.80000 F2100.00000
G1 F1260
G1 X135.666 Y104.084 E0.02611
G1 X136.196 Y104.080 E0.01662
G1 X135.274 Y103.159 E0.04087
G1 X135.315 Y102.666 E0.01550
G1 X136.287 Y103.638 E0.04310
G1 X136.287 Y103.104 E0.01674
G1 X135.356 Y102.174 E0.04128
G1 X135.397 Y101.681 E0.01550
G1 X136.287 Y102.571 E0.03946
G1 X136.287 Y102.037 E0.01674
G1 X135.438 Y101.188 E0.03764
G1 X135.481 Y100.697 E0.01547
G1 X136.287 Y101.503 E0.03576
G1 X136.287 Y100.970 E0.01674
G1 X135.529 Y100.212 E0.03363
G1 X135.577 Y99.727 E0.01530
G1 X136.457 Y100.606 E0.03901
G1 F8640
G1 X135.577 Y99.727 E-0.28717
G1 F8640
G1 X135.529 Y100.212 E-0.11261
G1 F8640
G1 X136.287 Y100.970 E-0.24751
G1 F8640
G1 X136.287 Y101.458 E-0.11271
G1 E-0.04000 F2100.00000
G1 X131.819 Y99.915 F10800.000
G1 E0.80000 F2100.00000
G1 F1260
G1 X131.399 Y99.495 E0.02030
G1 X131.081 Y99.757 E0.01407
G1 X131.688 Y100.365 E0.02930
G1 X131.742 Y100.999 E0.02172
G1 X130.763 Y100.020 E0.04723
G1 X130.706 Y100.067 E0.00251
G1 X130.849 Y100.254 E0.00802
G1 X130.849 Y100.686 E0.01477
G1 X131.795 Y101.633 E0.04568
G1 X131.849 Y102.267 E0.02172
G1 X130.849 Y101.267 E0.04827
G1 X130.849 Y101.847 E0.01980
G1 X131.903 Y102.901 E0.05086
G1 X131.953 Y103.531 E0.02158
G1 X130.849 Y102.427 E0.05327
G1 X130.849 Y103.008 E0.01980
G1 X131.925 Y104.084 E0.05192
G1 X131.343 Y104.083 E0.01984
G1 X130.679 Y103.418 E0.03205
G1 F8640
G1 X131.343 Y104.083 E-0.21689
G1 F8640
G1 X131.925 Y104.084 E-0.13422
G1 F8640
G1 X130.849 Y103.008 E-0.35130
G1 F8640
G1 X130.849 Y102.758 E-0.05758
G1 E-0.04000 F2100.00000
G1 X118.725 Y110.698 F10800.000
G1 E0.80000 F2100.00000
G1 F630
G1 X118.725 Y111.209 E0.01604
G1 X114.059 Y111.209 E0.14629
