; generated by Slic3r 1.33.8-prusa3d-win64 on 2017-04-29 at 21:12:54

; external perimeters extrusion width = 0.45mm
; perimeters extrusion width = 0.45mm
; infill extrusion width = 0.45mm
; solid infill extrusion width = 0.45mm
; top infill extrusion width = 0.45mm

M107
M115 U3.0.10 ; tell printer latest fw version
M83  ; extruder relative mode
M104 S215 ; set extruder temp
M140 S55 ; set bed temp
M190 S55 ; wait for bed temp
M109 S215 ; wait for extruder temp
G28 W ; home all without mesh bed level
G80 ; mesh bed leveling
G1 Y-3.0 F1000.0 ; go outside pritn area
G1 X60.0 E9.0  F1000.0 ; intro line
G1 X100.0 E12.5  F1000.0 ; intro line
G21 ; set units to millimeters
G90 ; use absolute coordinates
M83 ; use relative distances for extrusion
G1 E-0.80000 F2100.00000
G1 Z0.200 F7200.000
G1 X116.960 Y108.142 F7200.000
G1 E0.80000 F2100.00000
M204 S1000
G1 F2100
G1 X117.539 Y107.530 E0.02644
G1 X118.029 Y107.071 E0.02104
G1 X118.582 Y106.610 E0.02258
G1 X119.250 Y106.122 E0.02592
G1 X119.810 Y105.761 E0.02091
G1 X120.387 Y105.434 E0.02078
G1 X121.122 Y105.073 E0.02567
G1 X121.885 Y104.761 E0.02587
G1 X122.510 Y104.546 E0.02071
G1 X123.156 Y104.365 E0.02104
G1 X124.017 Y104.181 E0.02759
G1 X124.680 Y104.081 E0.02104
G1 X125.393 Y104.016 E0.02246
G1 X149.358 Y102.450 E0.75298
G1 X150.086 Y102.429 E0.02283
G1 X150.830 Y102.451 E0.02335
G1 X151.564 Y102.518 E0.02310
G1 X152.324 Y102.635 E0.02413
G1 X153.012 Y102.784 E0.02207
G1 X153.663 Y102.964 E0.02117
G1 X154.503 Y103.254 E0.02785
G1 X155.122 Y103.512 E0.02104
G1 X155.781 Y103.833 E0.02297
G1 X156.419 Y104.192 E0.02297
G1 X156.983 Y104.555 E0.02104
G1 X157.702 Y105.084 E0.02798
G1 X158.220 Y105.517 E0.02117
G1 X158.747 Y106.014 E0.02271
G1 X159.316 Y106.623 E0.02613
G1 X159.740 Y107.134 E0.02084
G1 X160.179 Y107.731 E0.02323
G1 X160.574 Y108.343 E0.02284
G1 X160.905 Y108.927 E0.02104
G1 X161.296 Y109.729 E0.02798
G1 X161.551 Y110.350 E0.02104
G1 X161.790 Y111.042 E0.02297
G1 X161.988 Y111.752 E0.02310
G1 X162.129 Y112.403 E0.02091
G1 X162.264 Y113.286 E0.02798
G1 X162.324 Y113.958 E0.02117
G1 X162.346 Y114.686 E0.02284
G1 X162.324 Y115.423 E0.02310
G1 X162.265 Y116.091 E0.02104
G1 X162.139 Y116.933 E0.02669
G1 X161.986 Y117.641 E0.02271
G1 X161.767 Y118.413 E0.02515
G1 X161.518 Y119.117 E0.02343
G1 X161.266 Y119.723 E0.02058
G1 X160.977 Y120.320 E0.02078
G1 X160.584 Y121.024 E0.02528
G1 X160.180 Y121.650 E0.02335
G1 X159.737 Y122.253 E0.02348
G1 X159.257 Y122.829 E0.02348
G1 X158.746 Y123.371 E0.02336
G1 X158.156 Y123.920 E0.02528
G1 X157.579 Y124.395 E0.02343
G1 X157.050 Y124.783 E0.02058
G1 X156.494 Y125.144 E0.02078
G1 X155.790 Y125.545 E0.02541
G1 X155.120 Y125.872 E0.02335
G1 X154.429 Y126.159 E0.02348
G1 X153.697 Y126.410 E0.02425
G1 X153.015 Y126.599 E0.02220
G1 X152.294 Y126.753 E0.02310
G1 X151.566 Y126.864 E0.02310
G1 X150.869 Y126.929 E0.02194
G1 X126.905 Y128.495 E0.75299
G1 X126.157 Y128.518 E0.02348
G1 X125.412 Y128.495 E0.02335
G1 X124.674 Y128.428 E0.02323
G1 X123.918 Y128.312 E0.02400
G1 X123.218 Y128.161 E0.02245
G1 X122.497 Y127.959 E0.02348
G1 X121.797 Y127.717 E0.02323
G1 X121.053 Y127.405 E0.02528
G1 X120.384 Y127.073 E0.02343
G1 X119.812 Y126.750 E0.02058
G1 X119.259 Y126.393 E0.02065
G1 X118.607 Y125.919 E0.02528
G1 X118.077 Y125.480 E0.02155
G1 X117.491 Y124.933 E0.02515
G1 X116.983 Y124.394 E0.02322
G1 X116.503 Y123.819 E0.02348
G1 X116.064 Y123.222 E0.02323
G1 X115.662 Y122.600 E0.02323
G1 X115.294 Y121.948 E0.02348
G1 X114.968 Y121.278 E0.02335
G1 X114.663 Y120.531 E0.02528
G1 X114.424 Y119.823 E0.02343
G1 X114.249 Y119.191 E0.02058
G1 X114.110 Y118.547 E0.02066
G1 X113.984 Y117.750 E0.02528
G1 X113.920 Y117.070 E0.02143
G1 X113.893 Y116.264 E0.02528
G1 X113.914 Y115.524 E0.02323
G1 X113.982 Y114.778 E0.02348
G1 X114.093 Y114.046 E0.02323
G1 X114.249 Y113.321 E0.02323
G1 X114.450 Y112.600 E0.02348
G1 X114.693 Y111.896 E0.02335
G1 X115.004 Y111.156 E0.02515
G1 X115.304 Y110.543 E0.02143
G1 X115.704 Y109.842 E0.02528
G1 X116.112 Y109.221 E0.02330
G1 X116.502 Y108.693 E0.02058
G1 X116.921 Y108.188 E0.02057
G1 X117.244 Y108.390 F7200.000
G1 F2100
G1 X117.801 Y107.802 E0.02538
G1 X118.277 Y107.355 E0.02048
G1 X118.820 Y106.903 E0.02215
G1 X119.458 Y106.437 E0.02478
G1 X120.007 Y106.083 E0.02048
G1 X120.572 Y105.763 E0.02036
G1 X121.278 Y105.416 E0.02466
G1 X122.008 Y105.117 E0.02474
G1 X122.620 Y104.907 E0.02028
G1 X123.253 Y104.730 E0.02060
G1 X124.077 Y104.553 E0.02645
G1 X124.727 Y104.455 E0.02060
G1 X125.419 Y104.392 E0.02180
G1 X149.376 Y102.827 E0.75276
G1 X150.083 Y102.806 E0.02217
G1 X150.805 Y102.828 E0.02263
G1 X151.516 Y102.892 E0.02239
G1 X152.241 Y103.003 E0.02299
G1 X152.924 Y103.150 E0.02191
G1 X153.557 Y103.326 E0.02060
G1 X154.358 Y103.602 E0.02657
G1 X154.965 Y103.855 E0.02060
G1 X155.607 Y104.167 E0.02239
G1 X156.226 Y104.516 E0.02227
G1 X156.775 Y104.870 E0.02048
G1 X157.461 Y105.374 E0.02669
G1 X157.968 Y105.798 E0.02072
G1 X158.482 Y106.282 E0.02215
G1 X159.025 Y106.862 E0.02490
G1 X159.442 Y107.365 E0.02048
G1 X159.865 Y107.940 E0.02239
G1 X160.253 Y108.540 E0.02239
G1 X160.577 Y109.111 E0.02060
G1 X160.947 Y109.873 E0.02657
G1 X161.198 Y110.481 E0.02060
G1 X161.431 Y111.156 E0.02239
G1 X161.622 Y111.840 E0.02227
G1 X161.760 Y112.479 E0.02048
G1 X161.889 Y113.320 E0.02669
G1 X161.947 Y113.978 E0.02072
G1 X161.969 Y114.684 E0.02215
G1 X161.947 Y115.402 E0.02251
G1 X161.890 Y116.053 E0.02048
G1 X161.771 Y116.850 E0.02526
G1 X161.621 Y117.544 E0.02227
G1 X161.410 Y118.290 E0.02430
G1 X161.170 Y118.973 E0.02271
G1 X160.921 Y119.570 E0.02028
G1 X160.638 Y120.154 E0.02036
G1 X160.260 Y120.831 E0.02430
G1 X159.869 Y121.438 E0.02263
G1 X159.439 Y122.022 E0.02275
G1 X158.977 Y122.577 E0.02263
G1 X158.482 Y123.102 E0.02263
G1 X157.915 Y123.631 E0.02430
G1 X157.358 Y124.090 E0.02263
G1 X156.834 Y124.474 E0.02036
G1 X156.289 Y124.827 E0.02036
G1 X155.613 Y125.213 E0.02442
G1 X154.964 Y125.529 E0.02263
G1 X154.293 Y125.807 E0.02275
G1 X153.582 Y126.050 E0.02359
G1 X152.923 Y126.233 E0.02144
G1 X152.225 Y126.383 E0.02239
G1 X151.519 Y126.490 E0.02239
G1 X150.842 Y126.553 E0.02132
G1 X126.881 Y128.119 E0.75288
G1 X126.155 Y128.141 E0.02277
G1 X125.437 Y128.119 E0.02251
G1 X124.722 Y128.054 E0.02251
G1 X124.001 Y127.944 E0.02287
G1 X123.310 Y127.795 E0.02215
G1 X122.612 Y127.600 E0.02275
G1 X121.933 Y127.365 E0.02251
G1 X121.218 Y127.066 E0.02430
G1 X120.569 Y126.745 E0.02271
G1 X120.006 Y126.426 E0.02028
G1 X119.463 Y126.077 E0.02024
G1 X118.837 Y125.620 E0.02430
G1 X118.322 Y125.193 E0.02096
G1 X117.759 Y124.667 E0.02418
G1 X117.264 Y124.142 E0.02263
G1 X116.799 Y123.585 E0.02275
G1 X116.373 Y123.006 E0.02251
G1 X115.984 Y122.403 E0.02251
G1 X115.627 Y121.771 E0.02275
G1 X115.313 Y121.126 E0.02251
G1 X115.020 Y120.408 E0.02430
G1 X114.803 Y119.776 E0.02096
G1 X114.599 Y119.029 E0.02427
G1 X114.464 Y118.397 E0.02028
G1 X114.366 Y117.759 E0.02024
G1 X114.296 Y117.040 E0.02263
G1 X114.270 Y116.262 E0.02442
G1 X114.291 Y115.544 E0.02251
G1 X114.356 Y114.822 E0.02275
G1 X114.464 Y114.116 E0.02239
G1 X114.615 Y113.410 E0.02263
G1 X114.809 Y112.715 E0.02263
G1 X115.045 Y112.032 E0.02263
G1 X115.343 Y111.321 E0.02418
G1 X115.637 Y110.721 E0.02096
G1 X116.020 Y110.047 E0.02430
G1 X116.414 Y109.447 E0.02251
G1 X116.800 Y108.924 E0.02036
G1 X117.205 Y108.436 E0.01991
G1 F5760
G1 X117.801 Y107.802 E-0.30107
G1 F5760
G1 X118.277 Y107.355 E-0.22624
G1 F5760
G1 X118.793 Y106.925 E-0.23269
G1 E-0.04000 F2100.00000
G1 X119.760 Y110.589 F7200.000
G1 E0.80000 F2100.00000
G1 F1680
G1 X120.114 Y110.213 E0.01618
G1 X120.490 Y109.859 E0.01618
G1 X120.886 Y109.529 E0.01618
G1 X121.302 Y109.223 E0.01618
G1 X121.735 Y108.943 E0.01618
G1 X122.185 Y108.689 E0.01618
G1 X122.649 Y108.463 E0.01618
G1 X123.126 Y108.266 E0.01618
G1 X123.614 Y108.098 E0.01618
G1 X124.111 Y107.959 E0.01618
G1 X124.615 Y107.851 E0.01618
G1 X125.126 Y107.773 E0.01618
G1 X125.630 Y107.727 E0.01589
G1 X126.401 Y107.719 E0.02417
G1 X127.195 Y107.775 E0.02496
G1 X127.696 Y107.851 E0.01587
G1 X128.200 Y107.959 E0.01618
G1 X128.697 Y108.098 E0.01618
G1 X129.185 Y108.266 E0.01618
G1 X129.662 Y108.463 E0.01618
G1 X130.126 Y108.689 E0.01618
G1 X130.576 Y108.943 E0.01618
G1 X131.009 Y109.223 E0.01618
G1 X131.425 Y109.529 E0.01618
G1 X131.821 Y109.859 E0.01618
G1 X132.197 Y110.213 E0.01618
G1 X132.551 Y110.589 E0.01618
G1 X132.881 Y110.986 E0.01618
G1 X133.187 Y111.401 E0.01618
G1 X133.467 Y111.835 E0.01618
G1 X133.721 Y112.284 E0.01618
G1 X133.947 Y112.748 E0.01618
G1 X134.144 Y113.225 E0.01618
G1 X134.313 Y113.713 E0.01618
G1 X134.451 Y114.210 E0.01618
G1 X134.560 Y114.715 E0.01618
G1 X134.637 Y115.225 E0.01618
G1 X134.684 Y115.739 E0.01618
G1 X134.700 Y116.255 E0.01618
G1 X134.684 Y116.771 E0.01618
G1 X134.637 Y117.285 E0.01618
G1 X134.560 Y117.795 E0.01618
G1 X134.453 Y118.290 E0.01589
G1 X134.232 Y119.029 E0.02417
G1 X133.946 Y119.762 E0.02466
G1 X133.600 Y120.439 E0.02386
G1 X133.181 Y121.117 E0.02496
G1 X132.670 Y121.778 E0.02620
G1 X132.192 Y122.302 E0.02224
G1 X131.821 Y122.650 E0.01595
G1 X131.432 Y122.975 E0.01589
G1 X130.802 Y123.419 E0.02417
G1 X130.117 Y123.825 E0.02496
G1 X129.662 Y124.046 E0.01587
G1 X129.185 Y124.244 E0.01618
G1 X128.697 Y124.412 E0.01618
G1 X128.200 Y124.551 E0.01618
G1 X127.696 Y124.659 E0.01618
G1 X127.185 Y124.737 E0.01618
G1 X126.671 Y124.783 E0.01618
G1 X126.156 Y124.799 E0.01618
G1 X125.640 Y124.783 E0.01618
G1 X125.126 Y124.737 E0.01618
G1 X124.615 Y124.659 E0.01618
G1 X124.111 Y124.551 E0.01618
G1 X123.614 Y124.412 E0.01618
G1 X123.126 Y124.244 E0.01618
G1 X122.649 Y124.046 E0.01618
G1 X122.185 Y123.820 E0.01618
G1 X121.735 Y123.567 E0.01618
G1 X121.302 Y123.287 E0.01618
G1 X120.886 Y122.981 E0.01618
G1 X120.490 Y122.650 E0.01618
G1 X120.114 Y122.297 E0.01618
G1 X119.760 Y121.921 E0.01618
G1 X119.430 Y121.524 E0.01618
G1 X119.129 Y121.116 E0.01589
G1 X118.723 Y120.461 E0.02417
G1 X118.360 Y119.752 E0.02496
G1 X118.167 Y119.285 E0.01587
G1 X117.998 Y118.797 E0.01618
G1 X117.860 Y118.300 E0.01618
G1 X117.751 Y117.795 E0.01618
G1 X117.674 Y117.285 E0.01618
G1 X117.627 Y116.771 E0.01618
G1 X117.611 Y116.255 E0.01618
G1 X117.627 Y115.739 E0.01618
G1 X117.674 Y115.225 E0.01618
G1 X117.751 Y114.715 E0.01618
G1 X117.860 Y114.210 E0.01618
G1 X117.998 Y113.713 E0.01618
G1 X118.167 Y113.225 E0.01618
G1 X118.364 Y112.748 E0.01618
G1 X118.590 Y112.284 E0.01618
G1 X118.844 Y111.835 E0.01618
G1 X119.124 Y111.401 E0.01618
G1 X119.430 Y110.986 E0.01618
G1 X119.722 Y110.635 E0.01430
G1 X119.478 Y110.339 F7200.000
G1 F1680
G1 X119.847 Y109.946 E0.01690
G1 X120.240 Y109.577 E0.01690
G1 X120.653 Y109.232 E0.01690
G1 X121.088 Y108.913 E0.01690
G1 X121.540 Y108.620 E0.01690
G1 X122.010 Y108.355 E0.01690
G1 X122.494 Y108.119 E0.01690
G1 X122.992 Y107.913 E0.01690
G1 X123.501 Y107.737 E0.01690
G1 X124.020 Y107.593 E0.01690
G1 X124.547 Y107.480 E0.01690
G1 X125.080 Y107.399 E0.01690
G1 X125.611 Y107.350 E0.01672
G1 X126.412 Y107.342 E0.02512
G1 X127.237 Y107.399 E0.02592
G1 X127.764 Y107.480 E0.01671
G1 X128.291 Y107.593 E0.01690
G1 X128.810 Y107.737 E0.01690
G1 X129.319 Y107.913 E0.01690
G1 X129.817 Y108.119 E0.01690
G1 X130.302 Y108.355 E0.01690
G1 X130.771 Y108.620 E0.01690
G1 X131.223 Y108.913 E0.01690
G1 X131.658 Y109.232 E0.01690
G1 X132.072 Y109.577 E0.01690
G1 X132.464 Y109.946 E0.01690
G1 X132.833 Y110.339 E0.01690
G1 X133.178 Y110.753 E0.01690
G1 X133.498 Y111.187 E0.01690
G1 X133.790 Y111.639 E0.01690
G1 X134.055 Y112.109 E0.01690
G1 X134.291 Y112.593 E0.01690
G1 X134.497 Y113.091 E0.01690
G1 X134.673 Y113.601 E0.01690
G1 X134.818 Y114.120 E0.01690
G1 X134.931 Y114.647 E0.01690
G1 X135.012 Y115.180 E0.01690
G1 X135.061 Y115.716 E0.01690
G1 X135.077 Y116.255 E0.01690
G1 X135.061 Y116.794 E0.01690
G1 X135.012 Y117.330 E0.01690
G1 X134.931 Y117.863 E0.01690
G1 X134.819 Y118.384 E0.01672
G1 X134.589 Y119.152 E0.02512
G1 X134.290 Y119.916 E0.02573
G1 X133.928 Y120.624 E0.02493
G1 X133.494 Y121.328 E0.02592
G1 X133.178 Y121.757 E0.01671
G1 X132.954 Y122.026 E0.01097
G1 X132.461 Y122.566 E0.02295
G1 X132.072 Y122.933 E0.01676
G1 X131.662 Y123.274 E0.01672
G1 X131.007 Y123.736 E0.02512
G1 X130.296 Y124.157 E0.02591
G1 X129.817 Y124.390 E0.01671
G1 X129.319 Y124.597 E0.01690
G1 X128.810 Y124.772 E0.01690
G1 X128.291 Y124.917 E0.01690
G1 X127.764 Y125.030 E0.01690
G1 X127.231 Y125.111 E0.01690
G1 X126.694 Y125.160 E0.01690
G1 X126.156 Y125.176 E0.01690
G1 X125.617 Y125.160 E0.01690
G1 X125.080 Y125.111 E0.01690
G1 X124.547 Y125.030 E0.01690
G1 X124.020 Y124.917 E0.01690
G1 X123.501 Y124.772 E0.01690
G1 X122.992 Y124.597 E0.01690
G1 X122.494 Y124.390 E0.01690
G1 X122.010 Y124.154 E0.01690
G1 X121.540 Y123.890 E0.01690
G1 X121.088 Y123.597 E0.01690
G1 X120.653 Y123.278 E0.01690
G1 X120.240 Y122.933 E0.01690
G1 X119.847 Y122.563 E0.01690
G1 X119.478 Y122.171 E0.01690
G1 X119.133 Y121.757 E0.01690
G1 X118.817 Y121.327 E0.01672
G1 X118.395 Y120.646 E0.02512
G1 X118.018 Y119.911 E0.02592
G1 X117.814 Y119.418 E0.01671
G1 X117.638 Y118.909 E0.01690
G1 X117.493 Y118.390 E0.01690
G1 X117.380 Y117.863 E0.01690
G1 X117.299 Y117.330 E0.01690
G1 X117.250 Y116.794 E0.01690
G1 X117.234 Y116.255 E0.01690
G1 X117.250 Y115.716 E0.01690
G1 X117.299 Y115.180 E0.01690
G1 X117.380 Y114.647 E0.01690
G1 X117.493 Y114.120 E0.01690
G1 X117.638 Y113.601 E0.01690
G1 X117.814 Y113.091 E0.01690
G1 X118.020 Y112.593 E0.01690
G1 X118.256 Y112.109 E0.01690
G1 X118.521 Y111.639 E0.01690
G1 X118.813 Y111.187 E0.01690
G1 X119.133 Y110.753 E0.01690
G1 X119.439 Y110.385 E0.01502
G1 X119.195 Y110.089 F7200.000
G1 F1050
G1 X119.580 Y109.680 E0.01761
G1 X119.989 Y109.295 E0.01761
G1 X120.421 Y108.935 E0.01761
G1 X120.873 Y108.602 E0.01761
G1 X121.345 Y108.297 E0.01761
G1 X121.834 Y108.021 E0.01761
G1 X122.339 Y107.775 E0.01761
G1 X122.858 Y107.560 E0.01761
G1 X123.389 Y107.377 E0.01761
G1 X123.930 Y107.226 E0.01761
G1 X124.479 Y107.109 E0.01761
G1 X125.035 Y107.024 E0.01761
G1 X125.592 Y106.973 E0.01755
G1 X126.424 Y106.964 E0.02607
G1 X127.278 Y107.024 E0.02687
G1 X127.832 Y107.109 E0.01754
G1 X128.381 Y107.226 E0.01761
G1 X128.922 Y107.377 E0.01761
G1 X129.453 Y107.560 E0.01761
G1 X129.972 Y107.775 E0.01761
G1 X130.477 Y108.021 E0.01761
G1 X130.966 Y108.297 E0.01761
G1 X131.438 Y108.602 E0.01761
G1 X131.890 Y108.935 E0.01761
G1 X132.322 Y109.295 E0.01761
G1 X132.731 Y109.680 E0.01761
G1 X133.116 Y110.089 E0.01761
G1 X133.475 Y110.520 E0.01761
G1 X133.808 Y110.973 E0.01761
G1 X134.113 Y111.444 E0.01761
G1 X134.389 Y111.934 E0.01761
G1 X134.635 Y112.439 E0.01761
G1 X134.850 Y112.958 E0.01761
G1 X135.033 Y113.488 E0.01761
G1 X135.184 Y114.030 E0.01761
G1 X135.302 Y114.579 E0.01761
G1 X135.386 Y115.134 E0.01761
G1 X135.437 Y115.693 E0.01761
G1 X135.454 Y116.255 E0.01761
G1 X135.437 Y116.816 E0.01761
G1 X135.386 Y117.376 E0.01761
G1 X135.302 Y117.931 E0.01761
G1 X135.184 Y118.478 E0.01755
G1 X134.946 Y119.275 E0.02607
G1 X134.635 Y120.071 E0.02681
G1 X134.257 Y120.810 E0.02601
G1 X133.807 Y121.539 E0.02687
G1 X133.475 Y121.990 E0.01754
G1 X133.238 Y122.274 E0.01160
G1 X132.729 Y122.831 E0.02367
G1 X132.322 Y123.215 E0.01756
G1 X131.892 Y123.573 E0.01755
G1 X131.212 Y124.053 E0.02607
G1 X130.475 Y124.489 E0.02687
G1 X129.972 Y124.734 E0.01754
G1 X129.453 Y124.949 E0.01761
G1 X128.922 Y125.133 E0.01761
G1 X128.381 Y125.283 E0.01761
G1 X127.832 Y125.401 E0.01761
G1 X127.276 Y125.486 E0.01761
G1 X126.717 Y125.537 E0.01761
G1 X126.156 Y125.554 E0.01761
G1 X125.594 Y125.537 E0.01761
G1 X125.035 Y125.486 E0.01761
G1 X124.479 Y125.401 E0.01761
G1 X123.930 Y125.283 E0.01761
G1 X123.389 Y125.133 E0.01761
G1 X122.858 Y124.949 E0.01761
G1 X122.339 Y124.734 E0.01761
G1 X121.834 Y124.488 E0.01761
G1 X121.345 Y124.213 E0.01761
G1 X120.873 Y123.908 E0.01761
G1 X120.421 Y123.575 E0.01761
G1 X119.989 Y123.215 E0.01761
G1 X119.580 Y122.830 E0.01761
G1 X119.195 Y122.421 E0.01761
G1 X118.836 Y121.990 E0.01761
G1 X118.504 Y121.539 E0.01755
G1 X118.066 Y120.832 E0.02607
G1 X117.675 Y120.069 E0.02687
G1 X117.461 Y119.552 E0.01754
G1 X117.278 Y119.021 E0.01761
G1 X117.127 Y118.480 E0.01761
G1 X117.009 Y117.931 E0.01761
