; generated by Slic3r 1.33.8-prusa3d-win64 on 2017-05-01 at 12:54:28

; external perimeters extrusion width = 0.45mm
; perimeters extrusion width = 0.45mm
; infill extrusion width = 0.45mm
; solid infill extrusion width = 0.45mm
; top infill extrusion width = 0.40mm

M107
M115 U3.0.10 ; tell printer latest fw version
M83  ; extruder relative mode
M104 S215 ; set extruder temp
M140 S55 ; set bed temp
M190 S55 ; wait for bed temp
M109 S215 ; wait for extruder temp
G28 W ; home all without mesh bed level
G80 ; mesh bed leveling
G1 Y-3.0 F1000.0 ; go outside pritn area
G1 X60.0 E9.0  F1000.0 ; intro line
G1 X100.0 E12.5  F1000.0 ; intro line
G21 ; set units to millimeters
G90 ; use absolute coordinates
M83 ; use relative distances for extrusion
G1 E-0.80000 F2100.00000
G1 Z0.200 F7200.000
G1 X102.657 Y59.984 F7200.000
G1 E0.80000 F2100.00000
M204 S1000
G1 F2100
G1 X103.361 Y59.041 E0.03693
G1 X104.240 Y58.126 E0.03978
G1 X105.149 Y57.383 E0.03680
G1 X106.008 Y56.823 E0.03216
G1 X106.933 Y56.354 E0.03251
G1 X108.121 Y55.909 E0.03978
G1 X109.267 Y55.636 E0.03693
G1 X110.437 Y55.499 E0.03693
G1 X111.668 Y55.506 E0.03859
G1 X132.828 Y57.830 E0.66745
G1 X134.034 Y58.043 E0.03838
G1 X135.023 Y58.333 E0.03234
G1 X136.060 Y58.763 E0.03520
G1 X137.036 Y59.304 E0.03496
G1 X137.963 Y59.963 E0.03568
G1 X138.788 Y60.702 E0.03472
G1 X139.538 Y61.542 E0.03532
G1 X140.187 Y62.458 E0.03520
G1 X140.745 Y63.476 E0.03639
G1 X141.158 Y64.479 E0.03401
G1 X141.468 Y65.558 E0.03520
G1 X141.655 Y66.661 E0.03508
G1 X141.717 Y67.801 E0.03580
G1 X140.008 Y136.425 E2.15232
G1 X139.976 Y136.751 E0.01026
G1 X139.899 Y137.073 E0.01038
G1 X139.778 Y137.381 E0.01038
G1 X139.615 Y137.669 E0.01038
G1 X139.416 Y137.929 E0.01026
G1 X139.180 Y138.162 E0.01038
G1 X138.915 Y138.359 E0.01038
G1 X138.624 Y138.518 E0.01038
G1 X138.376 Y138.616 E0.00836
G1 X138.115 Y138.686 E0.00847
G1 X112.792 Y143.896 E0.81063
G1 X111.609 Y144.039 E0.03734
G1 X110.561 Y144.044 E0.03287
G1 X110.314 Y144.031 E0.00776
G1 X109.292 Y143.909 E0.03228
G1 X108.142 Y143.638 E0.03705
G1 X107.032 Y143.232 E0.03705
G1 X106.111 Y142.773 E0.03228
G1 X105.897 Y142.649 E0.00776
G1 X105.039 Y142.080 E0.03227
G1 X104.251 Y141.424 E0.03216
G1 X104.072 Y141.258 E0.00764
G1 X103.426 Y140.573 E0.02953
G1 X102.658 Y139.558 E0.03991
G1 X102.038 Y138.472 E0.03918
G1 X101.610 Y137.470 E0.03419
G1 X101.279 Y136.359 E0.03633
G1 X101.079 Y135.226 E0.03609
G1 X101.011 Y134.096 E0.03550
G1 X101.011 Y65.461 E2.15199
G1 X101.081 Y64.298 E0.03654
G1 X101.257 Y63.288 E0.03215
G1 X101.314 Y63.047 E0.00776
G1 X101.613 Y62.062 E0.03227
G1 X102.019 Y61.112 E0.03239
G1 X102.625 Y60.035 E0.03874
G1 F5760
G1 X103.361 Y59.041 E-0.42866
G1 F5760
G1 X104.024 Y58.351 E-0.33134
G1 E-0.04000 F2100.00000
G1 X136.668 Y66.814 F7200.000
G1 E0.80000 F2100.00000
G1 F1680
G1 X136.668 Y135.394 E2.15028
G1 X126.745 Y135.394 E0.31113
G1 X126.745 Y66.814 E2.15028
G1 X125.117 Y66.814 E0.05105
G1 X125.205 Y66.294 E0.01653
G1 X125.411 Y65.580 E0.02331
G1 X125.733 Y64.822 E0.02583
G1 X126.060 Y64.230 E0.02119
G1 X126.493 Y63.621 E0.02345
G1 X126.991 Y63.063 E0.02345
G1 X127.548 Y62.565 E0.02345
G1 X128.158 Y62.132 E0.02345
G1 X128.813 Y61.770 E0.02345
G1 X129.504 Y61.484 E0.02345
G1 X130.222 Y61.277 E0.02345
G1 X130.955 Y61.152 E0.02331
G1 X131.778 Y61.114 E0.02583
G1 X132.453 Y61.152 E0.02119
G1 X133.190 Y61.277 E0.02345
G1 X133.909 Y61.484 E0.02345
G1 X134.600 Y61.770 E0.02345
G1 X135.254 Y62.132 E0.02345
G1 X135.864 Y62.565 E0.02345
G1 X136.421 Y63.063 E0.02345
G1 X136.920 Y63.621 E0.02345
G1 X137.353 Y64.230 E0.02345
G1 X137.714 Y64.885 E0.02345
G1 X138.000 Y65.576 E0.02345
G1 X138.207 Y66.294 E0.02345
G1 X138.296 Y66.814 E0.01653
G1 X136.728 Y66.814 E0.04916
G1 X137.045 Y67.191 F7200.000
G1 F1680
G1 X137.045 Y135.771 E2.15028
G1 X126.368 Y135.771 E0.33478
G1 X126.368 Y67.191 E2.15028
G1 X124.693 Y67.191 E0.05250
G1 X124.704 Y66.989 E0.00634
G1 X124.837 Y66.210 E0.02477
G1 X125.055 Y65.454 E0.02469
G1 X125.393 Y64.657 E0.02716
G1 X125.740 Y64.029 E0.02246
G1 X126.197 Y63.385 E0.02477
G1 X126.724 Y62.796 E0.02477
G1 X127.313 Y62.269 E0.02477
G1 X127.957 Y61.812 E0.02477
G1 X128.649 Y61.430 E0.02477
G1 X129.379 Y61.128 E0.02477
G1 X130.138 Y60.909 E0.02477
G1 X130.915 Y60.777 E0.02469
G1 X131.780 Y60.736 E0.02716
G1 X132.495 Y60.776 E0.02246
G1 X133.274 Y60.909 E0.02477
G1 X134.033 Y61.128 E0.02477
G1 X134.763 Y61.430 E0.02477
G1 X135.455 Y61.812 E0.02477
G1 X136.099 Y62.269 E0.02477
G1 X136.689 Y62.796 E0.02477
G1 X137.215 Y63.385 E0.02477
G1 X137.672 Y64.029 E0.02477
G1 X138.055 Y64.721 E0.02477
G1 X138.357 Y65.451 E0.02477
G1 X138.576 Y66.210 E0.02477
G1 X138.708 Y66.989 E0.02477
G1 X138.719 Y67.191 E0.00634
G1 X137.105 Y67.191 E0.05062
G1 X137.422 Y67.568 F7200.000
G1 F1260
G1 X137.422 Y136.148 E2.15028
G1 X125.990 Y136.148 E0.35842
G1 X125.990 Y67.568 E2.15028
G1 X124.294 Y67.568 E0.05319
G1 X124.329 Y66.947 E0.01951
G1 X124.469 Y66.126 E0.02610
G1 X124.699 Y65.327 E0.02607
G1 X125.054 Y64.491 E0.02848
G1 X125.420 Y63.829 E0.02374
G1 X125.902 Y63.150 E0.02610
G1 X126.457 Y62.529 E0.02610
G1 X127.078 Y61.974 E0.02610
G1 X127.756 Y61.492 E0.02610
G1 X128.485 Y61.090 E0.02610
G1 X129.254 Y60.771 E0.02610
G1 X130.054 Y60.541 E0.02610
G1 X130.874 Y60.401 E0.02607
G1 X131.781 Y60.359 E0.02848
G1 X132.537 Y60.401 E0.02374
G1 X133.358 Y60.541 E0.02610
G1 X134.158 Y60.771 E0.02610
G1 X134.927 Y61.090 E0.02610
G1 X135.656 Y61.492 E0.02610
G1 X136.335 Y61.974 E0.02610
G1 X136.956 Y62.529 E0.02610
G1 X137.510 Y63.150 E0.02610
G1 X137.992 Y63.829 E0.02610
G1 X138.395 Y64.557 E0.02610
G1 X138.713 Y65.326 E0.02610
G1 X138.944 Y66.126 E0.02610
G1 X139.083 Y66.947 E0.02610
G1 X139.118 Y67.568 E0.01951
G1 X137.482 Y67.568 E0.05131
G1 X137.025 Y67.616 F7200.000
G1 F5760
G1 X137.480 Y69.763 E-0.76000
G1 E-0.04000 F2100.00000
G1 X137.792 Y65.368 F7200.000
G1 E0.80000 F2100.00000
G1 F1680
G1 X134.430 Y62.006 E0.14923
G1 X133.815 Y61.751 E0.02090
G1 X133.571 Y61.681 E0.00796
G1 X137.803 Y65.913 E0.18787
G1 X137.931 Y66.357 E0.01452
G1 X137.961 Y66.531 E0.00554
G1 X137.888 Y66.531 E0.00230
G1 X132.865 Y61.509 E0.22298
G1 X132.421 Y61.433 E0.01413
G1 X132.246 Y61.423 E0.00551
G1 X137.354 Y66.531 E0.22676
G1 X136.820 Y66.531 E0.01676
G1 X131.690 Y61.401 E0.22775
G1 X131.180 Y61.425 E0.01603
G1 X136.385 Y66.630 E0.23108
G1 X136.385 Y67.164 E0.01676
G1 X130.703 Y61.482 E0.25224
G1 X130.250 Y61.563 E0.01444
G1 X136.385 Y67.698 E0.27235
G1 X136.385 Y68.232 E0.01676
G1 X129.836 Y61.683 E0.29075
G1 X129.437 Y61.818 E0.01322
G1 X136.385 Y68.766 E0.30845
G1 X136.385 Y69.300 E0.01676
G1 X129.059 Y61.974 E0.32521
G1 X128.704 Y62.153 E0.01248
G1 X136.385 Y69.834 E0.34096
G1 X136.385 Y70.368 E0.01676
G1 X128.361 Y62.343 E0.35623
G1 X128.044 Y62.560 E0.01206
G1 X136.385 Y70.901 E0.37030
G1 X136.385 Y71.435 E0.01676
G1 X127.731 Y62.782 E0.38417
G1 X127.449 Y63.033 E0.01187
G1 X136.385 Y71.969 E0.39671
G1 X136.385 Y72.503 E0.01676
G1 X127.169 Y63.288 E0.40911
G1 X126.917 Y63.570 E0.01187
G1 X136.385 Y73.037 E0.42030
G1 X136.385 Y73.571 E0.01676
G1 X126.671 Y63.857 E0.43122
G1 X126.450 Y64.170 E0.01202
G1 X136.385 Y74.105 E0.44106
G1 X136.385 Y74.639 E0.01676
G1 X126.238 Y64.492 E0.45044
G1 X126.048 Y64.836 E0.01233
G1 X136.385 Y75.173 E0.45888
G1 X136.385 Y75.706 E0.01676
G1 X125.879 Y65.201 E0.46639
G1 X125.720 Y65.575 E0.01278
G1 X126.676 Y66.531 E0.04244
G1 X126.142 Y66.531 E0.01676
G1 X125.590 Y65.979 E0.02450
G1 X125.474 Y66.397 E0.01362
G1 X125.778 Y66.701 E0.01347
G1 F5760
G1 X125.474 Y66.397 E-0.14866
G1 F5760
G1 X125.590 Y65.979 E-0.15028
G1 F5760
G1 X126.142 Y66.531 E-0.27037
G1 F5760
G1 X126.676 Y66.531 E-0.18492
G1 F5760
G1 X126.664 Y66.520 E-0.00577
G1 E-0.04000 F2100.00000
G1 X136.555 Y76.410 F7200.000
G1 E0.80000 F2100.00000
G1 F1680
G1 X127.027 Y66.883 E0.42295
G1 X127.027 Y67.417 E0.01676
G1 X136.385 Y76.774 E0.41541
G1 X136.385 Y77.308 E0.01676
G1 X127.027 Y67.951 E0.41541
G1 X127.027 Y68.485 E0.01676
G1 X136.385 Y77.842 E0.41541
G1 X136.385 Y78.376 E0.01676
G1 X127.027 Y69.018 E0.41541
G1 X127.027 Y69.552 E0.01676
G1 X136.385 Y78.910 E0.41541
G1 X136.385 Y79.444 E0.01676
G1 X127.027 Y70.086 E0.41541
G1 X127.027 Y70.620 E0.01676
G1 X136.385 Y79.978 E0.41541
G1 X136.385 Y80.512 E0.01676
G1 X127.027 Y71.154 E0.41541
G1 X127.027 Y71.688 E0.01676
G1 X136.385 Y81.045 E0.41541
G1 X136.385 Y81.579 E0.01676
G1 X127.027 Y72.222 E0.41541
G1 X127.027 Y72.756 E0.01676
G1 X136.385 Y82.113 E0.41541
G1 X136.385 Y82.647 E0.01676
G1 X127.027 Y73.290 E0.41541
G1 X127.027 Y73.824 E0.01676
G1 X136.385 Y83.181 E0.41541
G1 X136.385 Y83.715 E0.01676
G1 X127.027 Y74.357 E0.41541
G1 X127.027 Y74.891 E0.01676
G1 X136.385 Y84.249 E0.41541
G1 X136.385 Y84.783 E0.01676
G1 X127.027 Y75.425 E0.41541
G1 X127.027 Y75.959 E0.01676
G1 X136.385 Y85.317 E0.41541
G1 X136.385 Y85.850 E0.01676
G1 X127.027 Y76.493 E0.41541
G1 X127.027 Y77.027 E0.01676
G1 X136.385 Y86.384 E0.41541
G1 X136.385 Y86.918 E0.01676
G1 X127.027 Y77.561 E0.41541
G1 X127.027 Y78.095 E0.01676
G1 X136.385 Y87.452 E0.41541
G1 X136.385 Y87.986 E0.01676
G1 X127.027 Y78.629 E0.41541
G1 X127.027 Y79.162 E0.01676
G1 X136.385 Y88.520 E0.41541
G1 X136.385 Y89.054 E0.01676
G1 X127.027 Y79.696 E0.41541
G1 X127.027 Y80.230 E0.01676
G1 X136.385 Y89.588 E0.41541
G1 X136.385 Y90.122 E0.01676
G1 X127.027 Y80.764 E0.41541
G1 X127.027 Y81.298 E0.01676
G1 X136.385 Y90.656 E0.41541
G1 X136.385 Y91.189 E0.01676
G1 X127.027 Y81.832 E0.41541
G1 X127.027 Y82.366 E0.01676
G1 X136.385 Y91.723 E0.41541
G1 X136.385 Y92.257 E0.01676
G1 X127.027 Y82.900 E0.41541
G1 X127.027 Y83.434 E0.01676
G1 X136.385 Y92.791 E0.41541
G1 X136.385 Y93.325 E0.01676
G1 X127.027 Y83.968 E0.41541
G1 X127.027 Y84.501 E0.01676
G1 X136.385 Y93.859 E0.41541
G1 X136.385 Y94.393 E0.01676
G1 X127.027 Y85.035 E0.41541
G1 X127.027 Y85.569 E0.01676
G1 X136.385 Y94.927 E0.41541
G1 X136.385 Y95.461 E0.01676
G1 X127.027 Y86.103 E0.41541
G1 X127.027 Y86.637 E0.01676
G1 X136.385 Y95.995 E0.41541
G1 X136.385 Y96.528 E0.01676
G1 X127.027 Y87.171 E0.41541
G1 X127.027 Y87.705 E0.01676
G1 X136.385 Y97.062 E0.41541
G1 X136.385 Y97.596 E0.01676
G1 X127.027 Y88.239 E0.41541
G1 X127.027 Y88.773 E0.01676
G1 X136.385 Y98.130 E0.41541
G1 X136.385 Y98.664 E0.01676
G1 X127.027 Y89.306 E0.41541
G1 X127.027 Y89.840 E0.01676
G1 X136.385 Y99.198 E0.41541
G1 X136.385 Y99.732 E0.01676
G1 X127.027 Y90.374 E0.41541
G1 X127.027 Y90.908 E0.01676
G1 X136.385 Y100.266 E0.41541
G1 X136.385 Y100.800 E0.01676
G1 X127.027 Y91.442 E0.41541
G1 X127.027 Y91.976 E0.01676
G1 X136.385 Y101.333 E0.41541
G1 X136.385 Y101.867 E0.01676
G1 X127.027 Y92.510 E0.41541
G1 X127.027 Y93.044 E0.01676
G1 X136.385 Y102.401 E0.41541
G1 X136.385 Y102.935 E0.01676
G1 X127.027 Y93.578 E0.41541
G1 X127.027 Y94.112 E0.01676
G1 X136.385 Y103.469 E0.41541
G1 X136.385 Y104.003 E0.01676
G1 X127.027 Y94.645 E0.41541
G1 X127.027 Y95.179 E0.01676
G1 X136.385 Y104.537 E0.41541
G1 X136.385 Y105.071 E0.01676
G1 X127.027 Y95.713 E0.41541
G1 X127.027 Y96.247 E0.01676
G1 X136.385 Y105.605 E0.41541
G1 X136.385 Y106.139 E0.01676
G1 X127.027 Y96.781 E0.41541
G1 X127.027 Y97.315 E0.01676
G1 X136.385 Y106.672 E0.41541
G1 X136.385 Y107.206 E0.01676
G1 X127.027 Y97.849 E0.41541
G1 X127.027 Y98.383 E0.01676
G1 X136.385 Y107.740 E0.41541
G1 X136.385 Y108.274 E0.01676
G1 X127.027 Y98.917 E0.41541
G1 X127.027 Y99.451 E0.01676
G1 X136.385 Y108.808 E0.41541
G1 X136.385 Y109.342 E0.01676
G1 X127.027 Y99.984 E0.41541
G1 X127.027 Y100.518 E0.01676
G1 X136.385 Y109.876 E0.41541
G1 X136.385 Y110.410 E0.01676
G1 X127.027 Y101.052 E0.41541
G1 X127.027 Y101.586 E0.01676
G1 X136.385 Y110.944 E0.41541
G1 X136.385 Y111.477 E0.01676
G1 X127.027 Y102.120 E0.41541
G1 X127.027 Y102.654 E0.01676
G1 X136.385 Y112.011 E0.41541
G1 X136.385 Y112.545 E0.01676
G1 X127.027 Y103.188 E0.41541
G1 X127.027 Y103.722 E0.01676
G1 X136.385 Y113.079 E0.41541
G1 X136.385 Y113.613 E0.01676
G1 X127.027 Y104.256 E0.41541
G1 X127.027 Y104.789 E0.01676
G1 X136.385 Y114.147 E0.41541
G1 X136.385 Y114.681 E0.01676
G1 X127.027 Y105.323 E0.41541
G1 X127.027 Y105.857 E0.01676
G1 X136.385 Y115.215 E0.41541
G1 X136.385 Y115.749 E0.01676
G1 X127.027 Y106.391 E0.41541
G1 X127.027 Y106.925 E0.01676
G1 X136.385 Y116.283 E0.41541
G1 X136.385 Y116.816 E0.01676
G1 X127.027 Y107.459 E0.41541
G1 X127.027 Y107.993 E0.01676
G1 X136.385 Y117.350 E0.41541
G1 X136.385 Y117.884 E0.01676
G1 X127.027 Y108.527 E0.41541
G1 X127.027 Y109.061 E0.01676
G1 X136.385 Y118.418 E0.41541
G1 X136.385 Y118.952 E0.01676
G1 X127.027 Y109.595 E0.41541
G1 X127.027 Y110.128 E0.01676
G1 X136.385 Y119.486 E0.41541
G1 X136.385 Y120.020 E0.01676
G1 X127.027 Y110.662 E0.41541
G1 X127.027 Y111.196 E0.01676
G1 X136.385 Y120.554 E0.41541
G1 X136.385 Y121.088 E0.01676
G1 X127.027 Y111.730 E0.41541
G1 X127.027 Y112.264 E0.01676
G1 X136.385 Y121.621 E0.41541
G1 X136.385 Y122.155 E0.01676
G1 X127.027 Y112.798 E0.41541
G1 X127.027 Y113.332 E0.01676
G1 X136.385 Y122.689 E0.41541
G1 X136.385 Y123.223 E0.01676
G1 X127.027 Y113.866 E0.41541
G1 X127.027 Y114.400 E0.01676
G1 X136.385 Y123.757 E0.41541
G1 X136.385 Y124.291 E0.01676
G1 X127.027 Y114.933 E0.41541
G1 X127.027 Y115.467 E0.01676
G1 X136.385 Y124.825 E0.41541
G1 X136.385 Y125.359 E0.01676
G1 X127.027 Y116.001 E0.41541
G1 X127.027 Y116.535 E0.01676
G1 X136.385 Y125.893 E0.41541
G1 X136.385 Y126.427 E0.01676
G1 X127.027 Y117.069 E0.41541
G1 X127.027 Y117.603 E0.01676
G1 X136.385 Y126.960 E0.41541
G1 X136.385 Y127.494 E0.01676
G1 X127.027 Y118.137 E0.41541
G1 X127.027 Y118.671 E0.01676
G1 X136.385 Y128.028 E0.41541
G1 X136.385 Y128.562 E0.01676
G1 X127.027 Y119.205 E0.41541
G1 X127.027 Y119.739 E0.01676
G1 X136.385 Y129.096 E0.41541
G1 X136.385 Y129.630 E0.01676
G1 X127.027 Y120.272 E0.41541
G1 X127.027 Y120.806 E0.01676
G1 X136.385 Y130.164 E0.41541
G1 X136.385 Y130.698 E0.01676
G1 X127.027 Y121.340 E0.41541
G1 X127.027 Y121.874 E0.01676
G1 X136.385 Y131.232 E0.41541
G1 X136.385 Y131.765 E0.01676
G1 X127.027 Y122.408 E0.41541
G1 X127.027 Y122.942 E0.01676
G1 X136.385 Y132.299 E0.41541
G1 X136.385 Y132.833 E0.01676
G1 X127.027 Y123.476 E0.41541
G1 X127.027 Y124.010 E0.01676
G1 X136.385 Y133.367 E0.41541
G1 X136.385 Y133.901 E0.01676
G1 X127.027 Y124.544 E0.41541
G1 X127.027 Y125.077 E0.01676
G1 X136.385 Y134.435 E0.41541
G1 X136.385 Y134.969 E0.01676
G1 X127.027 Y125.611 E0.41541
G1 X127.027 Y126.145 E0.01676
G1 X135.993 Y135.111 E0.39803
G1 X135.460 Y135.111 E0.01676
G1 X127.027 Y126.679 E0.37433
G1 X127.027 Y127.213 E0.01676
G1 X134.926 Y135.111 E0.35063
G1 X134.392 Y135.111 E0.01676
G1 X127.027 Y127.747 E0.32693
G1 X127.027 Y128.281 E0.01676
G1 X133.858 Y135.111 E0.30323
G1 X133.324 Y135.111 E0.01676
G1 X127.027 Y128.815 E0.27953
G1 X127.027 Y129.349 E0.01676
G1 X132.790 Y135.111 E0.25583
G1 X132.256 Y135.111 E0.01676
G1 X127.027 Y129.883 E0.23212
G1 X127.027 Y130.416 E0.01676
G1 X131.722 Y135.111 E0.20842
G1 X131.188 Y135.111 E0.01676
G1 X127.027 Y130.950 E0.18472
G1 X127.027 Y131.484 E0.01676
G1 X130.655 Y135.111 E0.16102
G1 X130.121 Y135.111 E0.01676
G1 X127.027 Y132.018 E0.13732
G1 X127.027 Y132.552 E0.01676
G1 X129.587 Y135.111 E0.11362
G1 X129.053 Y135.111 E0.01676
G1 X127.027 Y133.086 E0.08991
G1 X127.027 Y133.620 E0.01676
G1 X128.519 Y135.111 E0.06621
G1 X127.985 Y135.111 E0.01676
G1 X127.027 Y134.154 E0.04251
G1 X127.027 Y134.688 E0.01676
G1 X127.621 Y135.281 E0.02634
G1 F5760
G1 X127.027 Y134.688 E-0.29066
G1 F5760
G1 X127.027 Y134.154 E-0.18492
G1 F5760
G1 X127.608 Y134.734 E-0.28443
G1 E-0.04000 F2100.00000
G1 Z0.200 F7200.000
G1 X117.617 Y134.833 F7200.000
G1 E0.80000 F2100.00000
G1 F1680
G1 X117.483 Y135.595 E0.02426
G1 X117.261 Y136.336 E0.02426
G1 X116.954 Y137.047 E0.02426
G1 X116.568 Y137.717 E0.02426
G1 X116.105 Y138.337 E0.02426
G1 X115.574 Y138.900 E0.02426
G1 X114.982 Y139.398 E0.02426
G1 X114.335 Y139.823 E0.02426
G1 X113.644 Y140.170 E0.02426
G1 X112.933 Y140.429 E0.02372
G1 X112.162 Y140.613 E0.02484
G1 X111.395 Y140.703 E0.02423
G1 X110.621 Y140.703 E0.02426
G1 X109.853 Y140.613 E0.02426
G1 X109.100 Y140.435 E0.02426
G1 X108.372 Y140.170 E0.02426
