; generated by Slic3r 1.33.8-prusa3d-win64 on 2017-05-01 at 14:20:07

; external perimeters extrusion width = 0.45mm
; perimeters extrusion width = 0.45mm
; infill extrusion width = 0.45mm
; solid infill extrusion width = 0.45mm
; top infill extrusion width = 0.40mm

M107
M115 U3.0.10 ; tell printer latest fw version
M83  ; extruder relative mode
M104 S215 ; set extruder temp
M140 S55 ; set bed temp
M190 S55 ; wait for bed temp
M109 S215 ; wait for extruder temp
G28 W ; home all without mesh bed level
G80 ; mesh bed leveling
G1 Y-3.0 F1000.0 ; go outside pritn area
G1 X60.0 E9.0  F1000.0 ; intro line
G1 X100.0 E12.5  F1000.0 ; intro line
G21 ; set units to millimeters
G90 ; use absolute coordinates
M83 ; use relative distances for extrusion
G1 E-0.80000 F2100.00000
G1 Z0.200 F7200.000
G1 X111.400 Y90.799 F7200.000
G1 E0.80000 F2100.00000
M204 S1000
G1 F2100
G1 X112.094 Y89.977 E0.03372
G1 X112.766 Y89.272 E0.03054
G1 X113.647 Y88.449 E0.03780
G1 X114.472 Y87.772 E0.03347
G1 X115.269 Y87.195 E0.03085
G1 X116.345 Y86.513 E0.03992
G1 X117.223 Y86.032 E0.03142
G1 X118.199 Y85.570 E0.03385
G1 X119.197 Y85.169 E0.03372
G1 X120.127 Y84.859 E0.03073
G1 X121.353 Y84.532 E0.03979
G1 X122.344 Y84.335 E0.03167
G1 X123.405 Y84.188 E0.03360
G1 X124.481 Y84.106 E0.03384
G1 X125.482 Y84.089 E0.03137
G1 X126.672 Y84.140 E0.03736
G1 X127.738 Y84.255 E0.03362
G1 X128.707 Y84.417 E0.03079
G1 X129.937 Y84.703 E0.03961
G1 X130.905 Y84.994 E0.03167
G1 X131.829 Y85.331 E0.03085
G1 X132.988 Y85.838 E0.03966
G1 X133.883 Y86.298 E0.03155
G1 X134.808 Y86.846 E0.03372
G1 X135.699 Y87.449 E0.03372
G1 X136.477 Y88.045 E0.03073
G1 X137.434 Y88.879 E0.03980
G1 X138.155 Y89.592 E0.03180
G1 X138.867 Y90.387 E0.03347
G1 X139.541 Y91.236 E0.03398
G1 X140.102 Y92.035 E0.03061
G1 X140.729 Y93.052 E0.03747
G1 X141.234 Y94.006 E0.03385
G1 X141.639 Y94.892 E0.03054
G1 X142.074 Y96.017 E0.03780
G1 X142.386 Y97.007 E0.03255
G1 X142.633 Y97.990 E0.03177
G1 X142.864 Y99.238 E0.03980
G1 X142.984 Y100.241 E0.03167
G1 X143.049 Y101.314 E0.03373
G1 X143.049 Y102.361 E0.03282
G1 X142.990 Y103.364 E0.03151
G1 X142.837 Y104.620 E0.03967
G1 X142.657 Y105.586 E0.03081
G1 X142.414 Y106.570 E0.03177
G1 X142.036 Y107.771 E0.03948
G1 X141.683 Y108.689 E0.03084
G1 X141.238 Y109.668 E0.03374
G1 X140.733 Y110.622 E0.03383
G1 X140.208 Y111.484 E0.03164
G1 X139.498 Y112.503 E0.03895
G1 X138.874 Y113.287 E0.03140
G1 X138.199 Y114.042 E0.03177
G1 X137.294 Y114.932 E0.03979
G1 X136.558 Y115.571 E0.03056
G1 X135.703 Y116.229 E0.03383
G1 X134.814 Y116.832 E0.03370
G1 X133.946 Y117.348 E0.03164
G1 X132.816 Y117.925 E0.03978
G1 X131.915 Y118.318 E0.03082
G1 X130.913 Y118.685 E0.03344
G1 X129.757 Y119.026 E0.03780
G1 X128.805 Y119.246 E0.03062
G1 X127.738 Y119.427 E0.03396
G1 X126.673 Y119.542 E0.03357
G1 X125.675 Y119.590 E0.03134
G1 X124.480 Y119.576 E0.03747
G1 X123.416 Y119.494 E0.03345
G1 X122.412 Y119.357 E0.03177
G1 X121.168 Y119.105 E0.03979
G1 X120.227 Y118.854 E0.03056
G1 X119.203 Y118.514 E0.03383
G1 X118.205 Y118.114 E0.03370
G1 X117.288 Y117.682 E0.03177
G1 X116.181 Y117.071 E0.03966
G1 X115.351 Y116.544 E0.03082
G1 X114.477 Y115.912 E0.03383
G1 X113.645 Y115.231 E0.03370
G1 X112.907 Y114.550 E0.03151
G1 X112.091 Y113.701 E0.03691
G1 X111.402 Y112.886 E0.03344
G1 X110.793 Y112.071 E0.03190
G1 X110.101 Y111.010 E0.03972
G1 X109.619 Y110.161 E0.03063
G1 X109.142 Y109.193 E0.03383
G1 X108.727 Y108.201 E0.03370
G1 X108.392 Y107.245 E0.03177
G1 X108.057 Y106.057 E0.03871
G1 X107.845 Y105.070 E0.03164
G1 X107.681 Y104.008 E0.03370
G1 X107.582 Y102.929 E0.03396
G1 X107.550 Y101.925 E0.03151
G1 X107.582 Y100.752 E0.03680
G1 X107.680 Y99.685 E0.03359
G1 X107.832 Y98.686 E0.03166
G1 X108.095 Y97.475 E0.03886
G1 X108.370 Y96.503 E0.03167
G1 X108.724 Y95.488 E0.03372
G1 X109.141 Y94.492 E0.03385
G1 X109.570 Y93.618 E0.03053
G1 X110.196 Y92.515 E0.03974
G1 X110.752 Y91.668 E0.03179
G1 X111.363 Y90.846 E0.03210
G1 X111.696 Y91.032 F7200.000
G1 F2100
G1 X112.376 Y90.228 E0.03302
G1 X113.041 Y89.530 E0.03025
G1 X113.938 Y88.696 E0.03841
G1 X114.713 Y88.063 E0.03135
G1 X115.567 Y87.447 E0.03302
G1 X116.460 Y86.882 E0.03314
G1 X117.301 Y86.417 E0.03015
G1 X118.410 Y85.890 E0.03851
G1 X119.335 Y85.520 E0.03123
G1 X120.331 Y85.190 E0.03290
G1 X121.436 Y84.900 E0.03581
G1 X122.407 Y84.707 E0.03106
G1 X123.451 Y84.563 E0.03302
G1 X124.501 Y84.482 E0.03302
G1 X125.487 Y84.466 E0.03095
G1 X126.643 Y84.516 E0.03627
G1 X127.688 Y84.628 E0.03296
G1 X128.643 Y84.789 E0.03036
G1 X129.833 Y85.066 E0.03829
G1 X130.787 Y85.352 E0.03123
G1 X131.695 Y85.683 E0.03030
G1 X132.816 Y86.173 E0.03838
G1 X133.698 Y86.626 E0.03108
G1 X134.607 Y87.165 E0.03314
G1 X135.482 Y87.758 E0.03314
G1 X136.246 Y88.344 E0.03020
G1 X137.171 Y89.150 E0.03846
G1 X137.882 Y89.853 E0.03135
G1 X138.580 Y90.631 E0.03278
G1 X139.242 Y91.465 E0.03338
G1 X139.793 Y92.251 E0.03010
G1 X140.402 Y93.240 E0.03641
G1 X140.896 Y94.174 E0.03314
G1 X141.298 Y95.052 E0.03028
G1 X141.718 Y96.141 E0.03659
G1 X142.024 Y97.112 E0.03194
G1 X142.267 Y98.080 E0.03129
G1 X142.490 Y99.288 E0.03850
G1 X142.609 Y100.275 E0.03117
G1 X142.672 Y101.326 E0.03302
G1 X142.672 Y102.352 E0.03216
G1 X142.614 Y103.341 E0.03109
G1 X142.466 Y104.554 E0.03831
G1 X142.288 Y105.508 E0.03042
G1 X142.049 Y106.478 E0.03132
G1 X141.683 Y107.638 E0.03813
G1 X141.335 Y108.542 E0.03039
G1 X140.899 Y109.504 E0.03309
G1 X140.404 Y110.437 E0.03312
G1 X139.887 Y111.287 E0.03121
G1 X139.200 Y112.272 E0.03763
G1 X138.585 Y113.045 E0.03098
G1 X137.919 Y113.789 E0.03133
G1 X137.048 Y114.646 E0.03829
G1 X136.321 Y115.278 E0.03020
G1 X135.484 Y115.922 E0.03312
G1 X134.610 Y116.515 E0.03312
G1 X133.754 Y117.023 E0.03121
G1 X132.664 Y117.580 E0.03839
G1 X131.777 Y117.967 E0.03034
G1 X130.792 Y118.328 E0.03288
G1 X129.669 Y118.659 E0.03671
G1 X128.734 Y118.876 E0.03012
G1 X127.689 Y119.053 E0.03324
G1 X126.642 Y119.166 E0.03300
G1 X125.657 Y119.213 E0.03091
G1 X124.498 Y119.199 E0.03637
G1 X123.458 Y119.120 E0.03269
G1 X122.468 Y118.984 E0.03133
G1 X121.265 Y118.741 E0.03850
G1 X120.337 Y118.493 E0.03012
G1 X119.331 Y118.159 E0.03324
G1 X118.354 Y117.768 E0.03300
G1 X117.450 Y117.342 E0.03133
G1 X116.382 Y116.751 E0.03828
G1 X115.565 Y116.233 E0.03033
G1 X114.708 Y115.615 E0.03312
G1 X113.891 Y114.946 E0.03312
G1 X113.163 Y114.273 E0.03109
G1 X112.373 Y113.451 E0.03574
G1 X111.696 Y112.650 E0.03288
G1 X111.098 Y111.850 E0.03132
G1 X110.428 Y110.821 E0.03850
G1 X109.953 Y109.986 E0.03012
G1 X109.486 Y109.039 E0.03312
G1 X109.078 Y108.064 E0.03312
G1 X108.748 Y107.121 E0.03133
G1 X108.426 Y105.977 E0.03729
G1 X108.215 Y105.000 E0.03133
G1 X108.055 Y103.960 E0.03300
G1 X107.954 Y102.798 E0.03658
G1 X107.926 Y101.837 E0.03013
G1 X107.958 Y100.777 E0.03325
G1 X108.054 Y99.729 E0.03302
G1 X108.204 Y98.744 E0.03122
G1 X108.457 Y97.577 E0.03743
G1 X108.729 Y96.619 E0.03123
G1 X109.077 Y95.621 E0.03314
G1 X109.483 Y94.650 E0.03302
G1 X109.908 Y93.784 E0.03023
G1 X110.513 Y92.719 E0.03843
G1 X111.060 Y91.886 E0.03122
G1 X111.659 Y91.080 E0.03150
G1 F5760
G1 X112.376 Y90.228 E-0.38548
G1 F5760
G1 X113.041 Y89.530 E-0.33414
G1 F5760
G1 X113.126 Y89.450 E-0.04039
G1 E-0.04000 F2100.00000
G1 X114.311 Y93.113 F7200.000
G1 E0.80000 F2100.00000
G1 F1680
G1 X114.864 Y92.459 E0.02684
G1 X115.455 Y91.840 E0.02685
G1 X116.062 Y91.278 E0.02591
G1 X116.747 Y90.715 E0.02780
G1 X117.440 Y90.214 E0.02682
G1 X118.164 Y89.757 E0.02684
G1 X118.914 Y89.344 E0.02685
G1 X119.661 Y88.990 E0.02591
G1 X120.483 Y88.659 E0.02780
G1 X121.295 Y88.390 E0.02682
G1 X122.094 Y88.178 E0.02591
G1 X122.963 Y88.002 E0.02780
G1 X123.810 Y87.885 E0.02682
G1 X124.634 Y87.822 E0.02590
G1 X125.534 Y87.808 E0.02823
G1 X126.383 Y87.847 E0.02666
G1 X127.205 Y87.935 E0.02590
G1 X128.079 Y88.083 E0.02779
G1 X128.912 Y88.278 E0.02683
G1 X129.732 Y88.523 E0.02684
G1 X130.536 Y88.818 E0.02686
G1 X131.293 Y89.149 E0.02590
G1 X132.083 Y89.552 E0.02779
G1 X132.819 Y89.988 E0.02683
G1 X133.528 Y90.468 E0.02684
G1 X134.206 Y90.991 E0.02686
G1 X134.829 Y91.534 E0.02590
G1 X135.461 Y92.156 E0.02779
G1 X136.032 Y92.793 E0.02684
G1 X136.546 Y93.440 E0.02590
G1 X137.054 Y94.166 E0.02779
G1 X137.500 Y94.897 E0.02683
G1 X137.900 Y95.653 E0.02684
G1 X138.254 Y96.433 E0.02686
G1 X138.550 Y97.205 E0.02590
G1 X138.816 Y98.050 E0.02779
G1 X139.022 Y98.880 E0.02683
G1 X139.177 Y99.722 E0.02684
G1 X139.280 Y100.573 E0.02686
G1 X139.331 Y101.397 E0.02590
G1 X139.331 Y102.284 E0.02780
G1 X139.280 Y103.109 E0.02590
G1 X139.177 Y103.959 E0.02686
G1 X139.022 Y104.801 E0.02684
G1 X138.816 Y105.632 E0.02683
G1 X138.550 Y106.477 E0.02779
G1 X138.254 Y107.248 E0.02590
G1 X137.900 Y108.028 E0.02684
G1 X137.485 Y108.811 E0.02779
G1 X137.054 Y109.515 E0.02590
G1 X136.564 Y110.218 E0.02684
G1 X136.013 Y110.912 E0.02779
G1 X135.461 Y111.526 E0.02590
G1 X134.851 Y112.127 E0.02684
G1 X134.183 Y112.709 E0.02779
G1 X133.528 Y113.213 E0.02590
G1 X132.819 Y113.694 E0.02686
G1 X132.082 Y114.130 E0.02684
G1 X131.321 Y114.520 E0.02683
G1 X130.508 Y114.875 E0.02779
G1 X129.733 Y115.159 E0.02590
G1 X128.912 Y115.404 E0.02686
G1 X128.078 Y115.599 E0.02684
G1 X127.235 Y115.742 E0.02683
G1 X126.359 Y115.836 E0.02761
G1 X125.509 Y115.875 E0.02667
G1 X124.659 Y115.861 E0.02668
G1 X123.810 Y115.797 E0.02668
G1 X122.963 Y115.680 E0.02682
G1 X122.094 Y115.504 E0.02780
G1 X121.295 Y115.292 E0.02591
G1 X120.482 Y115.022 E0.02685
G1 X119.688 Y114.704 E0.02684
G1 X118.914 Y114.338 E0.02682
G1 X118.138 Y113.909 E0.02780
G1 X117.440 Y113.467 E0.02591
G1 X116.747 Y112.967 E0.02682
G1 X116.062 Y112.404 E0.02780
G1 X115.455 Y111.842 E0.02591
G1 X114.864 Y111.223 E0.02682
G1 X114.293 Y110.545 E0.02780
G1 X113.799 Y109.882 E0.02591
G1 X113.330 Y109.166 E0.02685
G1 X112.906 Y108.422 E0.02685
G1 X112.528 Y107.655 E0.02682
G1 X112.187 Y106.837 E0.02780
G1 X111.915 Y106.056 E0.02591
G1 X111.683 Y105.232 E0.02685
G1 X111.502 Y104.395 E0.02684
G1 X111.372 Y103.550 E0.02682
G1 X111.292 Y102.667 E0.02780
G1 X111.267 Y101.841 E0.02591
G1 X111.293 Y100.985 E0.02685
G1 X111.372 Y100.132 E0.02685
G1 X111.497 Y99.315 E0.02591
G1 X111.683 Y98.449 E0.02780
G1 X111.915 Y97.625 E0.02682
G1 X112.187 Y96.845 E0.02591
G1 X112.528 Y96.026 E0.02780
G1 X112.906 Y95.259 E0.02682
G1 X113.316 Y94.541 E0.02591
G1 X113.800 Y93.798 E0.02780
G1 X114.275 Y93.161 E0.02493
G1 X114.016 Y92.878 F7200.000
G1 F1680
G1 X114.583 Y92.207 E0.02757
G1 X115.191 Y91.571 E0.02757
G1 X115.813 Y90.994 E0.02662
G1 X116.516 Y90.416 E0.02852
G1 X117.229 Y89.902 E0.02755
G1 X117.972 Y89.432 E0.02757
G1 X118.742 Y89.008 E0.02757
G1 X119.509 Y88.645 E0.02662
G1 X120.353 Y88.305 E0.02852
G1 X121.187 Y88.028 E0.02755
G1 X122.008 Y87.810 E0.02662
G1 X122.900 Y87.630 E0.02852
G1 X123.770 Y87.510 E0.02755
G1 X124.617 Y87.445 E0.02662
G1 X125.540 Y87.430 E0.02895
G1 X126.412 Y87.471 E0.02738
G1 X127.256 Y87.561 E0.02662
G1 X128.153 Y87.713 E0.02852
G1 X129.009 Y87.913 E0.02755
G1 X129.851 Y88.165 E0.02757
G1 X130.677 Y88.468 E0.02757
G1 X131.455 Y88.808 E0.02662
G1 X132.265 Y89.221 E0.02852
G1 X133.021 Y89.669 E0.02756
G1 X133.749 Y90.162 E0.02757
G1 X134.445 Y90.699 E0.02757
G1 X135.085 Y91.257 E0.02662
G1 X135.733 Y91.895 E0.02852
G1 X136.320 Y92.550 E0.02756
G1 X136.848 Y93.214 E0.02662
G1 X137.369 Y93.960 E0.02852
G1 X137.827 Y94.710 E0.02756
G1 X138.239 Y95.487 E0.02757
G1 X138.602 Y96.288 E0.02758
G1 X138.906 Y97.080 E0.02662
G1 X139.179 Y97.948 E0.02852
G1 X139.391 Y98.801 E0.02756
G1 X139.550 Y99.666 E0.02757
G1 X139.656 Y100.539 E0.02758
G1 X139.708 Y101.386 E0.02662
G1 X139.708 Y102.296 E0.02853
G1 X139.656 Y103.143 E0.02662
G1 X139.550 Y104.016 E0.02758
G1 X139.391 Y104.881 E0.02757
G1 X139.179 Y105.734 E0.02756
G1 X138.906 Y106.601 E0.02852
G1 X138.602 Y107.394 E0.02662
G1 X138.239 Y108.194 E0.02756
G1 X137.812 Y108.998 E0.02852
G1 X137.369 Y109.722 E0.02662
G1 X136.866 Y110.443 E0.02756
G1 X136.301 Y111.155 E0.02852
G1 X135.733 Y111.787 E0.02662
G1 X135.108 Y112.404 E0.02756
G1 X134.422 Y113.001 E0.02852
G1 X133.749 Y113.519 E0.02662
G1 X133.021 Y114.012 E0.02757
G1 X132.264 Y114.460 E0.02757
G1 X131.482 Y114.861 E0.02756
G1 X130.649 Y115.225 E0.02852
G1 X129.851 Y115.517 E0.02662
G1 X129.009 Y115.769 E0.02757
G1 X128.153 Y115.969 E0.02757
G1 X127.286 Y116.116 E0.02756
G1 X126.388 Y116.212 E0.02834
G1 X125.515 Y116.252 E0.02739
G1 X124.641 Y116.238 E0.02740
G1 X123.770 Y116.172 E0.02740
G1 X122.900 Y116.052 E0.02755
G1 X122.008 Y115.871 E0.02852
G1 X121.187 Y115.653 E0.02662
G1 X120.353 Y115.377 E0.02757
G1 X119.537 Y115.050 E0.02757
G1 X118.742 Y114.674 E0.02755
G1 X117.946 Y114.234 E0.02852
G1 X117.229 Y113.780 E0.02662
G1 X116.516 Y113.265 E0.02755
G1 X115.813 Y112.688 E0.02852
G1 X115.191 Y112.111 E0.02662
G1 X114.584 Y111.475 E0.02755
G1 X113.998 Y110.779 E0.02852
G1 X113.490 Y110.099 E0.02662
G1 X113.009 Y109.363 E0.02757
G1 X112.573 Y108.599 E0.02757
G1 X112.185 Y107.811 E0.02755
G1 X111.835 Y106.971 E0.02852
G1 X111.555 Y106.170 E0.02662
G1 X111.317 Y105.323 E0.02757
G1 X111.131 Y104.464 E0.02757
G1 X110.997 Y103.596 E0.02755
G1 X110.916 Y102.690 E0.02853
G1 X110.890 Y101.841 E0.02662
G1 X110.917 Y100.962 E0.02757
G1 X110.997 Y100.086 E0.02757
G1 X111.126 Y99.247 E0.02662
G1 X111.317 Y98.358 E0.02853
G1 X111.555 Y97.512 E0.02755
G1 X111.835 Y96.710 E0.02662
G1 X112.185 Y95.870 E0.02852
G1 X112.573 Y95.082 E0.02755
G1 X112.994 Y94.345 E0.02662
G1 X113.491 Y93.582 E0.02852
G1 X113.980 Y92.926 E0.02567
G1 X113.720 Y92.643 F7200.000
G1 F1260
G1 X114.303 Y91.954 E0.02829
G1 X114.926 Y91.302 E0.02829
G1 X115.565 Y90.710 E0.02733
G1 X116.286 Y90.117 E0.02925
G1 X117.017 Y89.589 E0.02828
G1 X117.780 Y89.107 E0.02829
G1 X118.570 Y88.672 E0.02829
G1 X119.358 Y88.299 E0.02733
G1 X120.223 Y87.950 E0.02925
G1 X121.080 Y87.667 E0.02828
G1 X121.922 Y87.443 E0.02733
G1 X122.836 Y87.258 E0.02925
G1 X123.730 Y87.135 E0.02828
G1 X124.599 Y87.068 E0.02733
G1 X125.546 Y87.053 E0.02968
G1 X126.441 Y87.095 E0.02811
G1 X127.308 Y87.188 E0.02733
G1 X128.228 Y87.343 E0.02925
G1 X129.106 Y87.548 E0.02828
G1 X129.970 Y87.807 E0.02829
G1 X130.817 Y88.118 E0.02829
G1 X131.616 Y88.467 E0.02733
G1 X132.447 Y88.891 E0.02924
G1 X133.223 Y89.351 E0.02828
G1 X133.970 Y89.857 E0.02829
G1 X134.684 Y90.408 E0.02829
G1 X135.342 Y90.980 E0.02733
G1 X136.006 Y91.635 E0.02924
G1 X136.609 Y92.306 E0.02829
G1 X137.151 Y92.989 E0.02733
G1 X137.685 Y93.753 E0.02924
G1 X138.155 Y94.523 E0.02828
G1 X138.577 Y95.321 E0.02829
G1 X138.950 Y96.142 E0.02829
G1 X139.262 Y96.956 E0.02733
G1 X139.542 Y97.846 E0.02924
G1 X139.760 Y98.721 E0.02828
G1 X139.923 Y99.609 E0.02829
G1 X140.032 Y100.504 E0.02829
G1 X140.085 Y101.374 E0.02733
G1 X140.085 Y102.307 E0.02925
G1 X140.032 Y103.177 E0.02733
G1 X139.923 Y104.073 E0.02829
G1 X139.760 Y104.960 E0.02829
G1 X139.542 Y105.836 E0.02828
G1 X139.262 Y106.725 E0.02924
G1 X138.950 Y107.539 E0.02733
G1 X138.578 Y108.361 E0.02829
G1 X138.140 Y109.185 E0.02924
G1 X137.685 Y109.928 E0.02733
G1 X137.169 Y110.668 E0.02829
G1 X136.589 Y111.399 E0.02924
G1 X136.006 Y112.047 E0.02733
G1 X135.364 Y112.681 E0.02829
G1 X134.661 Y113.293 E0.02924
G1 X133.970 Y113.825 E0.02733
G1 X133.223 Y114.331 E0.02829
G1 X132.447 Y114.791 E0.02829
G1 X131.644 Y115.202 E0.02828
G1 X130.789 Y115.575 E0.02924
G1 X129.970 Y115.875 E0.02733
G1 X129.106 Y116.133 E0.02829
G1 X128.227 Y116.338 E0.02829
G1 X127.338 Y116.490 E0.02828
G1 X126.416 Y116.589 E0.02907
G1 X125.521 Y116.629 E0.02811
G1 X124.624 Y116.615 E0.02811
G1 X123.730 Y116.547 E0.02811
G1 X122.836 Y116.424 E0.02828
G1 X121.922 Y116.238 E0.02925
G1 X121.080 Y116.015 E0.02733
G1 X120.223 Y115.731 E0.02829
G1 X119.386 Y115.396 E0.02829
G1 X118.570 Y115.010 E0.02828
G1 X117.754 Y114.558 E0.02925
G1 X117.017 Y114.092 E0.02733
G1 X116.286 Y113.564 E0.02828
G1 X115.565 Y112.972 E0.02925
G1 X114.926 Y112.380 E0.02733
G1 X114.303 Y111.727 E0.02828
G1 X113.702 Y111.014 E0.02925
G1 X113.181 Y110.315 E0.02733
G1 X112.687 Y109.560 E0.02829
G1 X112.240 Y108.776 E0.02829
G1 X111.841 Y107.967 E0.02828
G1 X111.483 Y107.106 E0.02925
G1 X111.196 Y106.283 E0.02733
G1 X110.951 Y105.414 E0.02829
G1 X110.760 Y104.533 E0.02829
