; generated by Slic3r 1.33.8-prusa3d-win64 on 2017-05-03 at 13:46:53

; external perimeters extrusion width = 0.60mm
; perimeters extrusion width = 0.43mm
; infill extrusion width = 0.70mm
; solid infill extrusion width = 0.70mm
; top infill extrusion width = 0.43mm

M107
M115 U3.0.10 ; tell printer latest fw version
M83  ; extruder relative mode
M104 S215 ; set extruder temp
M140 S55 ; set bed temp
M190 S55 ; wait for bed temp
M109 S215 ; wait for extruder temp
G28 W ; home all without mesh bed level
G80 ; mesh bed leveling
G1 Y-3.0 F1000.0 ; go outside pritn area
G1 X60.0 E9.0  F1000.0 ; intro line
G1 X100.0 E12.5  F1000.0 ; intro line
G21 ; set units to millimeters
G90 ; use absolute coordinates
M83 ; use relative distances for extrusion
G1 E-0.80000 F2100.00000
G1 Z0.200 F6000.000
G1 X122.839 Y23.155 F6000.000
G1 E0.80000 F2100.00000
M204 S1000
G1 F2100
G1 X122.873 Y22.906 E0.00788
G1 X122.950 Y22.575 E0.01068
G1 X123.128 Y22.122 E0.01526
G1 X123.258 Y21.902 E0.00800
G1 X123.412 Y21.694 E0.00812
G1 X123.585 Y21.507 E0.00800
G1 X123.781 Y21.337 E0.00812
G1 X124.143 Y21.105 E0.01348
G1 X124.509 Y20.926 E0.01277
G1 X124.747 Y20.834 E0.00800
G1 X125.681 Y20.602 E0.03018
G1 X125.930 Y20.568 E0.00788
G1 X126.181 Y20.560 E0.00788
G1 X126.619 Y20.610 E0.01383
G1 X127.566 Y20.853 E0.03065
G1 X128.090 Y21.097 E0.01813
G1 X128.473 Y21.366 E0.01467
G1 X128.657 Y21.542 E0.00800
G1 X128.819 Y21.735 E0.00788
G1 X128.959 Y21.943 E0.00788
G1 X129.079 Y22.168 E0.00800
G1 X129.295 Y22.765 E0.01991
G1 X129.347 Y23.031 E0.00847
G1 X129.369 Y23.304 E0.00859
G1 X129.494 Y178.901 E4.87863
G1 X129.465 Y179.223 E0.01014
G1 X129.394 Y179.538 E0.01014
G1 X129.275 Y179.860 E0.01075
G1 X129.116 Y180.159 E0.01062
G1 X128.839 Y180.517 E0.01419
G1 X127.849 Y181.509 E0.04396
G1 X127.497 Y181.800 E0.01431
G1 X127.096 Y182.018 E0.01431
G1 X126.638 Y182.164 E0.01507
G1 X126.177 Y182.219 E0.01455
G1 X125.696 Y182.180 E0.01514
G1 X125.223 Y182.043 E0.01543
G1 X124.803 Y181.829 E0.01478
G1 X124.434 Y181.535 E0.01478
G1 X123.422 Y180.521 E0.04495
G1 X123.146 Y180.166 E0.01407
G1 X122.985 Y179.868 E0.01062
G1 X122.865 Y179.546 E0.01077
G1 X122.792 Y179.227 E0.01026
G1 X122.763 Y178.905 E0.01014
G1 X122.835 Y23.215 E4.88155
G1 F4800
G1 X122.873 Y22.906 E-0.12933
G1 F4800
G1 X122.950 Y22.575 E-0.14159
G1 F4800
G1 X123.128 Y22.122 E-0.20228
G1 F4800
G1 X123.258 Y21.902 E-0.10602
G1 F4800
G1 X123.412 Y21.694 E-0.10760
G1 F4800
G1 X123.532 Y21.565 E-0.07318
G1 E-0.04000 F2100.00000
G1 X125.795 Y23.623 F6000.000
G1 E0.80000 F2100.00000
G1 F1680
G1 X126.128 Y23.541 E0.01077
G1 X126.405 Y23.609 E0.00894
G1 X126.405 Y159.419 E4.25823
G1 X126.534 Y177.724 E0.57396
G1 X126.522 Y178.644 E0.02884
G1 X126.128 Y179.038 E0.01745
G1 X125.727 Y178.636 E0.01779
G1 X125.795 Y159.418 E0.60258
G1 X125.795 Y23.683 E4.25588
G1 X125.418 Y23.378 F6000.000
G1 F1260
G1 X125.422 Y23.358 E0.00064
G1 X125.552 Y23.294 E0.00455
G1 X126.128 Y23.152 E0.01860
G1 X126.704 Y23.294 E0.01860
G1 X126.755 Y23.319 E0.00176
G1 X126.782 Y23.393 E0.00248
G1 X126.782 Y159.417 E4.26497
G1 X126.911 Y177.725 E0.57404
G1 X126.897 Y178.802 E0.03377
G1 X126.128 Y179.571 E0.03409
G1 X125.350 Y178.792 E0.03455
G1 X125.418 Y159.417 E0.60748
G1 X125.418 Y23.438 E4.26353
G1 X125.437 Y23.370 F6000.000
G1 X126.144 Y23.806 F6000.000
G1 F1680
G1 X126.188 Y23.750 E0.00096
G1 X126.144 Y23.806 F6000.000
G1 F1680
G1 X126.100 Y23.862 E0.00141
G1 X126.108 Y163.899 E2.76162
G1 F1680
G1 X126.124 Y172.857 E0.24596
G1 X126.393 Y173.788 F6000.000
G1 F2520
G1 X126.028 Y173.423 E0.01718
G1 X126.026 Y173.988 E0.01880
G1 X126.226 Y174.188 E0.00942
G1 X126.230 Y174.758 E0.01900
G1 X126.024 Y174.552 E0.00970
G1 X126.022 Y175.117 E0.01880
G1 X126.234 Y175.328 E0.00998
G1 X126.238 Y175.899 E0.01900
G1 X126.020 Y175.681 E0.01026
G1 X126.018 Y176.245 E0.01880
G1 X126.242 Y176.469 E0.01054
G1 X126.246 Y177.040 E0.01900
G1 X126.017 Y176.810 E0.01083
G1 X126.015 Y177.374 E0.01880
G1 X126.250 Y177.610 E0.01111
G1 X126.251 Y177.723 E0.00376
G1 X126.245 Y178.171 E0.01494
G1 X126.013 Y177.939 E0.01095
G1 X126.011 Y178.503 E0.01880
G1 X126.256 Y178.749 E0.01158
M106 S237.15
M104 S205 ; set temperature
G1 F4800
G1 X126.011 Y178.503 E-0.14452
G1 F4800
G1 X126.013 Y177.939 E-0.23461
G1 F4800
G1 X126.245 Y178.171 E-0.13670
G1 F4800
G1 X126.251 Y177.723 E-0.18639
G1 F4800
G1 X126.250 Y177.610 E-0.04688
G1 F4800
G1 X126.232 Y177.592 E-0.01091
G1 E-0.04000 F2100.00000
G1 Z0.550 F6000.000
G1 X125.348 Y23.394 F6000.000
G1 E0.80000 F2100.00000
M204 S800
G1 F2400
G1 X126.131 Y23.327 E0.04059
G1 X126.907 Y23.394 E0.04023
G1 X127.223 Y23.525 E0.01767
G1 X127.223 Y159.418 E7.01765
G1 X127.283 Y178.728 E0.99722
G1 X127.042 Y179.425 E0.03808
G1 X126.680 Y179.784 E0.02629
G1 X126.128 Y179.969 E0.03005
G1 X125.576 Y179.784 E0.03005
G1 X125.215 Y179.425 E0.02629
G1 X124.974 Y178.730 E0.03799
G1 X125.002 Y159.417 E0.99734
G1 X125.002 Y23.548 E7.01642
G1 X125.056 Y23.508 E0.00349
G1 X125.292 Y23.416 E0.01309
M204 S1000
G1 X126.130 Y22.885 F6000.000
M204 S800
G1 F1800
G1 X127.009 Y22.961 E0.06744
G1 X127.413 Y23.120 E0.03315
G1 X127.649 Y23.290 E0.02221
G1 X127.663 Y23.379 E0.00684
G1 X127.663 Y159.417 E10.39038
G1 X127.724 Y178.277 E1.44048
G1 X127.723 Y178.803 E0.04020
G1 X127.424 Y179.666 E0.06972
G1 X126.917 Y180.168 E0.05451
G1 X126.128 Y180.433 E0.06354
G1 X125.339 Y180.168 E0.06354
G1 X124.833 Y179.666 E0.05451
G1 X124.534 Y178.804 E0.06966
G1 X124.562 Y159.417 E1.48075
G1 X124.562 Y23.374 E10.39075
G1 X124.584 Y23.308 E0.00532
G1 X124.843 Y23.120 E0.02446
G1 X125.247 Y22.961 E0.03311
G1 X126.070 Y22.890 E0.06308
M204 S1000
G1 X126.330 Y23.231 F6000.000
G1 F4800
G1 X127.009 Y22.961 E-0.39160
G1 F4800
G1 X127.413 Y23.120 E-0.18037
G1 F4800
G1 X127.649 Y23.290 E-0.12088
G1 F4800
G1 X127.663 Y23.379 E-0.03720
G1 F4800
G1 X127.663 Y23.451 E-0.02996
G1 E-0.04000 F2100.00000
G1 X127.146 Y53.266 F6000.000
G1 E0.80000 F2100.00000
M106 S255
G1 F1200
G1 X126.939 Y23.704 E1.63311
G1 X126.841 Y23.664 E0.00585
G1 X126.477 Y23.631 E0.02019
G1 X126.948 Y90.750 E3.70793
G1 X126.948 Y156.403 E3.62693
G1 X126.015 Y23.612 E7.33599
G1 X125.554 Y23.652 E0.02556
G1 X126.649 Y179.428 E8.60576
G1 X126.532 Y179.544 E0.00909
G1 X126.189 Y179.659 E0.01998
G1 X125.277 Y49.793 E7.17440
G1 X125.277 Y115.446 E3.62693
G1 X125.727 Y179.544 E3.54108
G1 X125.454 Y179.275 E0.02119
G1 X125.260 Y178.715 E0.03276
G1 X125.079 Y152.930 E1.42447
M106 S237.15
M106 S249.9
G1 F4800
G1 X125.091 Y154.759 E-0.76000
G1 E-0.04000 F2100.00000
G1 Z0.900 F6000.000
G1 X124.511 Y23.314 F6000.000
G1 E0.80000 F2100.00000
M204 S800
G1 F2400
G1 X124.928 Y23.218 E0.02213
G1 X125.311 Y23.170 E0.01993
G1 X126.128 Y23.136 E0.04223
G1 X126.945 Y23.170 E0.04223
G1 X127.328 Y23.218 E0.01993
G1 X127.746 Y23.314 E0.02213
G1 X127.934 Y23.446 E0.01187
G1 X127.934 Y159.418 E7.02169
G1 X127.962 Y171.878 E0.64349
G1 X127.946 Y178.776 E0.35621
G1 X127.782 Y179.549 E0.04082
G1 X127.390 Y180.180 E0.03835
G1 X126.749 Y180.541 E0.03797
G1 X126.128 Y180.659 E0.03265
G1 X125.507 Y180.541 E0.03265
G1 X124.866 Y180.180 E0.03797
G1 X124.474 Y179.549 E0.03835
G1 X124.311 Y178.776 E0.04081
G1 X124.285 Y161.063 E0.91476
G1 X124.288 Y23.495 E7.10415
G1 X124.346 Y23.419 E0.00496
G1 X124.460 Y23.346 E0.00695
M204 S1000
G1 F4800
G1 X124.928 Y23.218 E-0.20176
G1 F4800
G1 X125.311 Y23.170 E-0.16039
G1 F4800
G1 X126.128 Y23.136 E-0.33991
G1 F4800
G1 X126.268 Y23.141 E-0.05794
G1 E-0.04000 F2100.00000
G1 X126.128 Y22.695 F6000.000
G1 E0.80000 F2100.00000
M204 S800
G1 F1800
G1 X126.982 Y22.731 E0.06526
G1 X127.405 Y22.784 E0.03258
G1 X127.876 Y22.893 E0.03691
G1 X128.202 Y23.083 E0.02884
G1 X128.348 Y23.255 E0.01719
G1 X128.374 Y23.370 E0.00906
G1 X128.374 Y159.417 E10.39101
G1 X128.402 Y171.878 E0.95177
G1 X128.386 Y178.823 E0.53039
G1 X128.197 Y179.716 E0.06975
G1 X127.727 Y180.472 E0.06798
G1 X127.672 Y180.526 E0.00588
G1 X126.902 Y180.959 E0.06744
G1 X126.128 Y181.107 E0.06019
G1 X125.354 Y180.959 E0.06019
G1 X124.585 Y180.526 E0.06744
G1 X124.530 Y180.472 E0.00588
G1 X124.060 Y179.716 E0.06798
G1 X123.871 Y178.823 E0.06975
G1 X123.845 Y161.063 E1.35646
G1 X123.848 Y23.411 E10.51360
G1 X123.911 Y23.252 E0.01310
G1 X124.054 Y23.083 E0.01690
G1 X124.380 Y22.893 E0.02884
G1 X124.851 Y22.784 E0.03691
G1 X125.275 Y22.731 E0.03258
G1 X126.068 Y22.698 E0.06067
M204 S1000
G1 X126.327 Y23.043 F6000.000
G1 F4800
G1 X126.982 Y22.731 E-0.37996
G1 F4800
G1 X127.405 Y22.784 E-0.17730
G1 F4800
G1 X127.876 Y22.893 E-0.20087
G1 F4800
G1 X127.880 Y22.895 E-0.00187
G1 E-0.04000 F2100.00000
G1 X127.848 Y24.774 F6000.000
G1 E0.80000 F2100.00000
M204 S2000
G1 F3600
G1 X126.596 Y23.523 E0.16145
G1 X126.128 Y23.503 E0.04276
G1 X125.708 Y23.521 E0.03842
G1 X127.566 Y25.380 E0.23987
G1 X127.566 Y26.267 E0.08093
G1 X124.901 Y23.601 E0.34399
G1 X124.656 Y23.658 E0.02297
G1 X124.656 Y24.243 E0.05338
G1 X127.566 Y27.153 E0.37564
G1 X127.566 Y28.040 E0.08093
G1 X124.656 Y25.130 E0.37565
G1 X124.655 Y26.016 E0.08093
G1 X127.566 Y28.927 E0.37565
G1 X127.566 Y29.814 E0.08093
G1 X124.655 Y26.903 E0.37565
G1 X124.655 Y27.790 E0.08093
G1 X127.566 Y30.701 E0.37565
G1 X127.566 Y31.588 E0.08093
G1 X124.655 Y28.677 E0.37566
G1 X124.655 Y29.564 E0.08093
G1 X127.566 Y32.475 E0.37566
G1 X127.566 Y33.362 E0.08093
G1 X124.655 Y30.451 E0.37566
G1 X124.655 Y31.337 E0.08093
G1 X127.566 Y34.248 E0.37566
G1 X127.566 Y35.135 E0.08093
G1 X124.655 Y32.224 E0.37567
G1 X124.655 Y33.111 E0.08093
G1 X127.566 Y36.022 E0.37567
G1 X127.566 Y36.909 E0.08093
G1 X124.655 Y33.998 E0.37567
G1 X124.655 Y34.885 E0.08093
G1 X127.566 Y37.796 E0.37567
G1 X127.566 Y38.683 E0.08093
G1 X124.655 Y35.772 E0.37568
G1 X124.655 Y36.659 E0.08093
G1 X127.566 Y39.570 E0.37568
G1 X127.566 Y40.457 E0.08093
G1 X124.655 Y37.545 E0.37568
G1 X124.655 Y38.432 E0.08093
G1 X127.566 Y41.343 E0.37568
G1 X127.566 Y42.230 E0.08093
G1 X124.655 Y39.319 E0.37569
G1 X124.655 Y40.206 E0.08093
G1 X127.566 Y43.117 E0.37569
G1 X127.566 Y44.004 E0.08093
G1 X124.655 Y41.093 E0.37569
G1 X124.655 Y41.980 E0.08093
G1 X127.566 Y44.891 E0.37569
G1 X127.566 Y45.778 E0.08093
G1 X124.655 Y42.867 E0.37570
G1 X124.655 Y43.753 E0.08093
G1 X127.566 Y46.665 E0.37570
G1 X127.566 Y47.552 E0.08093
G1 X124.655 Y44.640 E0.37570
G1 X124.655 Y45.527 E0.08093
G1 X127.566 Y48.438 E0.37570
G1 X127.566 Y49.325 E0.08093
G1 X124.655 Y46.414 E0.37571
G1 X124.655 Y47.301 E0.08093
G1 X127.566 Y50.212 E0.37571
G1 X127.566 Y51.099 E0.08093
G1 X124.655 Y48.188 E0.37571
G1 X124.655 Y49.075 E0.08093
G1 X127.566 Y51.986 E0.37571
G1 X127.566 Y52.873 E0.08093
G1 X124.655 Y49.961 E0.37572
G1 X124.655 Y50.848 E0.08093
G1 X127.566 Y53.760 E0.37572
G1 X127.566 Y54.647 E0.08093
G1 X124.655 Y51.735 E0.37572
G1 X124.655 Y52.622 E0.08093
G1 X127.566 Y55.533 E0.37572
G1 X127.566 Y56.420 E0.08093
G1 X124.655 Y53.509 E0.37573
G1 X124.655 Y54.396 E0.08093
G1 X127.566 Y57.307 E0.37573
G1 X127.566 Y58.194 E0.08093
G1 X124.655 Y55.283 E0.37573
G1 X124.655 Y56.169 E0.08093
G1 X127.566 Y59.081 E0.37573
G1 X127.566 Y59.968 E0.08093
G1 X124.655 Y57.056 E0.37574
G1 X124.655 Y57.943 E0.08093
G1 X127.566 Y60.855 E0.37574
G1 X127.566 Y61.742 E0.08093
G1 X124.655 Y58.830 E0.37574
G1 X124.655 Y59.717 E0.08093
G1 X127.566 Y62.628 E0.37574
G1 X127.566 Y63.515 E0.08093
G1 X124.655 Y60.604 E0.37575
G1 X124.655 Y61.491 E0.08093
G1 X127.566 Y64.402 E0.37575
G1 X127.566 Y65.289 E0.08093
G1 X124.655 Y62.377 E0.37575
G1 X124.655 Y63.264 E0.08093
G1 X127.566 Y66.176 E0.37576
G1 X127.566 Y67.063 E0.08093
G1 X124.655 Y64.151 E0.37576
G1 X124.655 Y65.038 E0.08093
G1 X127.566 Y67.950 E0.37576
G1 X127.566 Y68.837 E0.08093
G1 X124.655 Y65.925 E0.37576
G1 X124.655 Y66.812 E0.08093
G1 X127.566 Y69.723 E0.37576
G1 X127.566 Y70.610 E0.08093
G1 X124.655 Y67.698 E0.37577
G1 X124.655 Y68.585 E0.08093
G1 X127.566 Y71.497 E0.37577
G1 X127.566 Y72.384 E0.08093
G1 X124.655 Y69.472 E0.37577
G1 X124.655 Y70.359 E0.08093
G1 X127.566 Y73.271 E0.37578
G1 X127.566 Y74.158 E0.08093
G1 X124.654 Y71.246 E0.37578
G1 X124.654 Y72.133 E0.08093
G1 X127.566 Y75.045 E0.37578
G1 X127.566 Y75.931 E0.08093
G1 X124.654 Y73.020 E0.37578
G1 X124.654 Y73.906 E0.08093
G1 X127.566 Y76.818 E0.37579
G1 X127.566 Y77.705 E0.08093
G1 X124.654 Y74.793 E0.37579
G1 X124.654 Y75.680 E0.08093
G1 X127.566 Y78.592 E0.37579
G1 X127.566 Y79.479 E0.08093
G1 X124.654 Y76.567 E0.37579
G1 X124.654 Y77.454 E0.08093
G1 X127.566 Y80.366 E0.37580
G1 X127.566 Y81.253 E0.08093
G1 X124.654 Y78.341 E0.37580
G1 X124.654 Y79.228 E0.08093
G1 X127.566 Y82.140 E0.37580
G1 X127.566 Y83.026 E0.08093
G1 X124.654 Y80.114 E0.37580
G1 X124.654 Y81.001 E0.08093
G1 X127.566 Y83.913 E0.37581
G1 X127.566 Y84.800 E0.08093
G1 X124.654 Y81.888 E0.37581
G1 X124.654 Y82.775 E0.08093
G1 X127.566 Y85.687 E0.37581
G1 X127.566 Y86.574 E0.08093
G1 X124.654 Y83.662 E0.37581
G1 X124.654 Y84.549 E0.08093
G1 X127.566 Y87.461 E0.37582
G1 X127.566 Y88.348 E0.08093
G1 X124.654 Y85.436 E0.37582
G1 X124.654 Y86.322 E0.08093
G1 X127.566 Y89.235 E0.37582
G1 X127.566 Y90.121 E0.08093
G1 X124.654 Y87.209 E0.37582
G1 X124.654 Y88.096 E0.08093
G1 X127.566 Y91.008 E0.37583
G1 X127.566 Y91.895 E0.08093
G1 X124.654 Y88.983 E0.37583
G1 X124.654 Y89.870 E0.08093
G1 X127.566 Y92.782 E0.37583
G1 X127.566 Y93.669 E0.08093
G1 X124.654 Y90.757 E0.37583
G1 X124.654 Y91.644 E0.08093
G1 X127.566 Y94.556 E0.37584
G1 X127.566 Y95.443 E0.08093
G1 X124.654 Y92.530 E0.37584
G1 X124.654 Y93.417 E0.08093
G1 X127.566 Y96.330 E0.37584
G1 X127.566 Y97.216 E0.08093
G1 X124.654 Y94.304 E0.37584
G1 X124.654 Y95.191 E0.08093
G1 X127.566 Y98.103 E0.37585
G1 X127.566 Y98.990 E0.08093
G1 X124.654 Y96.078 E0.37585
G1 X124.654 Y96.965 E0.08093
G1 X127.566 Y99.877 E0.37585
G1 X127.566 Y100.764 E0.08093
G1 X124.654 Y97.852 E0.37585
G1 X124.654 Y98.738 E0.08093
G1 X127.566 Y101.651 E0.37586
G1 X127.566 Y102.538 E0.08093
G1 X124.654 Y99.625 E0.37586
G1 X124.654 Y100.512 E0.08093
G1 X127.566 Y103.425 E0.37586
G1 X127.566 Y104.311 E0.08093
G1 X124.654 Y101.399 E0.37586
G1 X124.654 Y102.286 E0.08093
G1 X127.566 Y105.198 E0.37587
G1 X127.566 Y106.085 E0.08093
G1 X124.654 Y103.173 E0.37587
G1 X124.654 Y104.059 E0.08093
G1 X127.566 Y106.972 E0.37587
G1 X127.566 Y107.859 E0.08093
G1 X124.654 Y104.946 E0.37587
G1 X124.654 Y105.833 E0.08093
G1 X127.566 Y108.746 E0.37588
G1 X127.566 Y109.633 E0.08093
G1 X124.654 Y106.720 E0.37588
G1 X124.654 Y107.607 E0.08093
G1 X127.566 Y110.520 E0.37588
G1 X127.566 Y111.406 E0.08093
G1 X124.654 Y108.494 E0.37588
G1 X124.654 Y109.381 E0.08093
G1 X127.566 Y112.293 E0.37589
G1 X127.566 Y113.180 E0.08093
G1 X124.654 Y110.267 E0.37589
G1 X124.654 Y111.154 E0.08093
G1 X127.566 Y114.067 E0.37589
G1 X127.566 Y114.954 E0.08093
G1 X124.654 Y112.041 E0.37589
G1 X124.654 Y112.928 E0.08093
G1 X127.566 Y115.841 E0.37590
G1 X127.566 Y116.728 E0.08093
G1 X124.654 Y113.815 E0.37590
G1 X124.654 Y114.702 E0.08093
G1 X127.566 Y117.615 E0.37590
G1 X127.566 Y118.501 E0.08093
G1 X124.654 Y115.589 E0.37590
G1 X124.653 Y116.475 E0.08093
G1 X127.566 Y119.388 E0.37591
G1 X127.566 Y120.275 E0.08093
G1 X124.653 Y117.362 E0.37591
G1 X124.653 Y118.249 E0.08093
G1 X127.566 Y121.162 E0.37591
G1 X127.566 Y122.049 E0.08093
G1 X124.653 Y119.136 E0.37591
G1 X124.653 Y120.023 E0.08093
G1 X127.566 Y122.936 E0.37592
G1 X127.566 Y123.823 E0.08093
G1 X124.653 Y120.910 E0.37592
G1 X124.653 Y121.797 E0.08093
G1 X127.566 Y124.710 E0.37592
G1 X127.566 Y125.596 E0.08093
G1 X124.653 Y122.683 E0.37592
G1 X124.653 Y123.570 E0.08093
G1 X127.566 Y126.483 E0.37593
G1 X127.566 Y127.370 E0.08093
G1 X124.653 Y124.457 E0.37593
G1 X124.653 Y125.344 E0.08093
G1 X127.566 Y128.257 E0.37593
G1 X127.566 Y129.144 E0.08093
G1 X124.653 Y126.231 E0.37593
G1 X124.653 Y127.118 E0.08093
G1 X127.566 Y130.031 E0.37594
G1 X127.566 Y130.918 E0.08093
G1 X124.653 Y128.005 E0.37594
G1 X124.653 Y128.891 E0.08093
G1 X127.566 Y131.805 E0.37594
G1 X127.566 Y132.691 E0.08093
G1 X124.653 Y129.778 E0.37594
G1 X124.653 Y130.665 E0.08093
G1 X127.566 Y133.578 E0.37595
G1 X127.566 Y134.465 E0.08093
G1 X124.653 Y131.552 E0.37595
G1 X124.653 Y132.439 E0.08093
G1 X127.566 Y135.352 E0.37595
