; generated by Slic3r 1.33.8-prusa3d-win64 on 2017-04-30 at 20:44:44

; external perimeters extrusion width = 0.60mm
; perimeters extrusion width = 0.43mm
; infill extrusion width = 0.70mm
; solid infill extrusion width = 0.70mm
; top infill extrusion width = 0.43mm

M107
M115 U3.0.10 ; tell printer latest fw version
M83  ; extruder relative mode
M104 S215 ; set extruder temp
M140 S55 ; set bed temp
M190 S55 ; wait for bed temp
M109 S215 ; wait for extruder temp
G28 W ; home all without mesh bed level
G80 ; mesh bed leveling
G1 Y-3.0 F1000.0 ; go outside pritn area
G1 X60.0 E9.0  F1000.0 ; intro line
G1 X100.0 E12.5  F1000.0 ; intro line
G21 ; set units to millimeters
G90 ; use absolute coordinates
M83 ; use relative distances for extrusion
G1 E-0.80000 F2100.00000
G1 Z0.200 F6000.000
G1 X62.508 Y121.785 F6000.000
G1 E0.80000 F2100.00000
M204 S1000
G1 F2100
G1 X62.932 Y121.590 E0.01462
G1 X63.359 Y121.423 E0.01439
G1 X64.201 Y121.171 E0.02755
G1 X64.781 Y121.053 E0.01857
G1 X65.194 Y120.995 E0.01306
G1 X65.689 Y120.955 E0.01559
G1 X115.007 Y119.833 E1.54674
G1 X149.443 Y119.845 E1.07972
G1 X149.962 Y119.888 E0.01631
G1 X150.443 Y119.958 E0.01523
G1 X150.915 Y120.057 E0.01512
G1 X151.423 Y120.197 E0.01655
G1 X152.189 Y120.476 E0.02557
G1 X152.631 Y120.679 E0.01524
G1 X153.096 Y120.928 E0.01654
G1 X153.528 Y121.196 E0.01595
G1 X154.221 Y121.714 E0.02712
G1 X154.663 Y122.109 E0.01858
G1 X155.266 Y122.757 E0.02774
G1 X155.797 Y123.471 E0.02793
G1 X156.106 Y123.977 E0.01857
G1 X156.499 Y124.773 E0.02783
G1 X156.802 Y125.607 E0.02783
G1 X156.953 Y126.184 E0.01870
G1 X157.037 Y126.608 E0.01356
G1 X157.107 Y127.129 E0.01648
G1 X158.584 Y145.825 E0.58802
G1 X159.473 Y164.185 E0.57632
G1 X159.615 Y182.328 E0.56890
G1 X159.593 Y182.856 E0.01655
G1 X159.493 Y183.670 E0.02572
G1 X159.386 Y184.190 E0.01665
G1 X159.256 Y184.663 E0.01538
G1 X159.083 Y185.166 E0.01666
G1 X158.752 Y185.918 E0.02577
G1 X158.500 Y186.383 E0.01659
G1 X158.234 Y186.807 E0.01570
G1 X157.965 Y187.184 E0.01451
G1 X157.660 Y187.562 E0.01522
G1 X157.341 Y187.913 E0.01488
G1 X156.961 Y188.282 E0.01660
G1 X156.338 Y188.795 E0.02531
G1 X155.943 Y189.071 E0.01511
G1 X155.497 Y189.344 E0.01641
G1 X155.088 Y189.561 E0.01451
G1 X154.596 Y189.784 E0.01691
G1 X146.141 Y193.144 E0.28529
G1 X145.753 Y193.256 E0.01264
G1 X145.349 Y193.301 E0.01276
G1 X96.222 Y193.616 E1.54038
G1 X70.696 Y193.613 E0.80034
G1 X70.215 Y193.540 E0.01526
G1 X69.759 Y193.371 E0.01526
G1 X62.644 Y189.737 E0.25048
G1 X62.211 Y189.486 E0.01569
G1 X61.851 Y189.247 E0.01355
G1 X61.446 Y188.945 E0.01583
G1 X61.090 Y188.645 E0.01461
G1 X60.747 Y188.318 E0.01486
G1 X60.432 Y187.984 E0.01438
G1 X60.128 Y187.620 E0.01487
G1 X59.850 Y187.246 E0.01462
G1 X59.594 Y186.857 E0.01461
G1 X59.368 Y186.466 E0.01416
G1 X59.151 Y186.036 E0.01509
G1 X58.965 Y185.609 E0.01462
G1 X58.804 Y185.171 E0.01463
G1 X58.672 Y184.735 E0.01427
G1 X58.559 Y184.271 E0.01497
G1 X58.477 Y183.820 E0.01439
G1 X58.392 Y182.949 E0.02742
G1 X58.196 Y163.269 E0.61711
G1 X58.057 Y146.322 E0.53136
G1 X57.983 Y128.927 E0.54541
G1 X58.007 Y128.427 E0.01570
G1 X58.065 Y127.914 E0.01617
G1 X58.147 Y127.444 E0.01498
G1 X58.346 Y126.666 E0.02517
G1 X58.515 Y126.174 E0.01631
G1 X58.697 Y125.737 E0.01485
G1 X58.906 Y125.307 E0.01498
G1 X59.157 Y124.861 E0.01605
G1 X59.418 Y124.458 E0.01508
G1 X59.907 Y123.819 E0.02521
G1 X60.252 Y123.436 E0.01616
G1 X60.591 Y123.104 E0.01488
G1 X60.951 Y122.790 E0.01497
G1 X61.360 Y122.476 E0.01618
G1 X61.755 Y122.209 E0.01494
G1 X62.454 Y121.812 E0.02523
G1 F4800
G1 X62.932 Y121.590 E-0.21873
G1 F4800
G1 X63.359 Y121.423 E-0.19072
G1 F4800
G1 X64.167 Y121.181 E-0.35055
G1 E-0.04000 F2100.00000
G1 X125.436 Y123.223 F6000.000
G1 E0.80000 F2100.00000
G1 F1680
G1 X138.610 Y123.223 E0.41307
G1 X138.610 Y124.646 E0.04462
G1 X143.946 Y123.223 E0.17315
G1 X149.043 Y123.223 E0.15981
G1 X149.656 Y123.265 E0.01926
G1 X149.996 Y123.324 E0.01081
G1 X150.595 Y123.491 E0.01950
G1 X150.915 Y123.617 E0.01081
G1 X151.477 Y123.907 E0.01981
G1 X151.996 Y124.271 E0.01989
G1 X152.254 Y124.496 E0.01073
G1 X152.682 Y124.950 E0.01957
G1 X152.890 Y125.223 E0.01074
G1 X153.222 Y125.765 E0.01996
G1 X153.477 Y126.344 E0.01981
G1 X153.582 Y126.669 E0.01073
G1 X153.712 Y127.280 E0.01957
G1 X153.748 Y127.610 E0.01042
G1 X153.761 Y127.945 E0.01049
G1 X153.722 Y128.575 E0.01981
G1 X153.595 Y129.207 E0.02020
G1 X153.387 Y129.806 E0.01989
G1 X153.242 Y130.116 E0.01074
G1 X152.915 Y130.663 E0.01996
G1 X152.521 Y131.156 E0.01981
G1 X152.281 Y131.400 E0.01073
G1 X151.793 Y131.805 E0.01989
G1 X151.254 Y132.140 E0.01989
G1 X150.947 Y132.290 E0.01073
G1 X150.351 Y132.509 E0.01989
G1 X149.732 Y132.645 E0.01989
G1 X149.067 Y132.698 E0.02090
G1 X148.436 Y132.662 E0.01981
G1 X147.854 Y132.549 E0.01861
G1 X138.610 Y131.097 E0.29338
G1 X138.610 Y132.598 E0.04705
G1 X125.436 Y132.598 E0.41307
G1 X125.436 Y131.097 E0.04705
G1 X116.193 Y132.549 E0.29338
G1 X115.610 Y132.662 E0.01861
G1 X114.967 Y132.699 E0.02020
G1 X114.324 Y132.647 E0.02020
G1 X113.705 Y132.511 E0.01989
G1 X113.079 Y132.281 E0.02090
G1 X112.521 Y131.985 E0.01981
G1 X112.007 Y131.614 E0.01989
G1 X111.751 Y131.387 E0.01073
G1 X111.329 Y130.927 E0.01958
G1 X111.123 Y130.650 E0.01081
G1 X110.804 Y130.116 E0.01950
G1 X110.659 Y129.804 E0.01080
G1 X110.452 Y129.207 E0.01981
G1 X110.325 Y128.573 E0.02027
G1 X110.285 Y127.942 E0.01981
G1 X110.335 Y127.277 E0.02090
G1 X110.467 Y126.660 E0.01981
G1 X110.682 Y126.063 E0.01989
G1 X110.991 Y125.472 E0.02090
G1 X111.358 Y124.958 E0.01981
G1 X111.792 Y124.495 E0.01989
G1 X112.053 Y124.270 E0.01081
G1 X112.570 Y123.907 E0.01981
G1 X113.142 Y123.611 E0.02020
G1 X113.740 Y123.400 E0.01989
G1 X114.063 Y123.321 E0.01042
G1 X114.393 Y123.265 E0.01049
G1 X115.003 Y123.223 E0.01918
G1 X120.100 Y123.223 E0.15981
G1 X125.436 Y124.646 E0.17315
G1 X125.436 Y123.283 E0.04273
G1 X125.813 Y123.600 F6000.000
G1 F1260
G1 X138.233 Y123.600 E0.38942
G1 X138.233 Y125.137 E0.04818
G1 X143.996 Y123.600 E0.18699
G1 X149.030 Y123.600 E0.15786
G1 X149.611 Y123.640 E0.01825
G1 X149.913 Y123.692 E0.00960
G1 X150.475 Y123.849 E0.01829
G1 X150.760 Y123.961 E0.00960
G1 X151.281 Y124.230 E0.01840
G1 X151.763 Y124.569 E0.01848
G1 X151.993 Y124.768 E0.00952
G1 X152.394 Y125.195 E0.01836
G1 X152.578 Y125.436 E0.00953
G1 X152.887 Y125.940 E0.01855
G1 X153.124 Y126.478 E0.01840
G1 X153.217 Y126.767 E0.00952
G1 X153.339 Y127.340 E0.01836
G1 X153.371 Y127.638 E0.00941
G1 X153.383 Y127.940 E0.00949
G1 X153.347 Y128.526 E0.01840
G1 X153.230 Y129.107 E0.01859
G1 X153.037 Y129.664 E0.01848
G1 X152.908 Y129.939 E0.00953
G1 X152.605 Y130.447 E0.01855
G1 X152.238 Y130.906 E0.01840
G1 X152.026 Y131.122 E0.00952
G1 X151.572 Y131.499 E0.01848
G1 X151.071 Y131.810 E0.01848
G1 X150.798 Y131.943 E0.00952
G1 X150.245 Y132.146 E0.01848
G1 X149.670 Y132.273 E0.01848
G1 X149.069 Y132.320 E0.01889
G1 X148.483 Y132.287 E0.01840
G1 X147.919 Y132.178 E0.01802
G1 X138.233 Y130.656 E0.30742
G1 X138.233 Y132.220 E0.04905
G1 X125.813 Y132.220 E0.38942
G1 X125.813 Y130.656 E0.04905
G1 X116.127 Y132.178 E0.30742
G1 X115.563 Y132.287 E0.01802
G1 X114.971 Y132.321 E0.01859
G1 X114.380 Y132.273 E0.01859
G1 X113.805 Y132.147 E0.01848
G1 X113.239 Y131.939 E0.01889
G1 X112.721 Y131.664 E0.01840
G1 X112.243 Y131.319 E0.01848
G1 X112.016 Y131.117 E0.00952
G1 X111.620 Y130.686 E0.01837
G1 X111.437 Y130.440 E0.00960
G1 X111.138 Y129.939 E0.01829
G1 X111.009 Y129.662 E0.00960
G1 X110.816 Y129.107 E0.01840
G1 X110.699 Y128.524 E0.01866
G1 X110.663 Y127.938 E0.01840
G1 X110.708 Y127.337 E0.01889
G1 X110.830 Y126.763 E0.01840
G1 X111.030 Y126.209 E0.01848
G1 X111.310 Y125.675 E0.01889
G1 X111.650 Y125.197 E0.01840
G1 X112.054 Y124.768 E0.01848
G1 X112.285 Y124.567 E0.00960
G1 X112.765 Y124.230 E0.01840
G1 X113.292 Y123.958 E0.01859
G1 X113.848 Y123.762 E0.01848
G1 X114.139 Y123.691 E0.00941
G1 X114.438 Y123.640 E0.00949
G1 X115.016 Y123.600 E0.01818
G1 X120.051 Y123.600 E0.15786
G1 X125.813 Y125.137 E0.18699
G1 X125.813 Y123.660 E0.04630
G1 X126.013 Y123.254 F6000.000
G1 F4800
G1 X127.642 Y123.652 E-0.76000
G1 E-0.04000 F2100.00000
G1 X142.236 Y133.023 F6000.000
G1 E0.80000 F2100.00000
G1 F1680
G1 X142.236 Y135.993 E0.09311
G1 X141.810 Y135.567 E0.01888
G1 X141.810 Y133.023 E0.07976
G1 X122.236 Y133.023 E0.61373
G1 X122.236 Y135.567 E0.07976
G1 X121.810 Y135.993 E0.01888
G1 X121.810 Y133.023 E0.09311
G1 X116.053 Y133.023 E0.18051
G1 X115.384 Y133.110 E0.02115
G1 X114.782 Y133.117 E0.01889
G1 X114.177 Y133.053 E0.01908
G1 X113.886 Y132.996 E0.00927
G1 X113.603 Y132.924 E0.00918
G1 X113.027 Y132.721 E0.01916
G1 X112.486 Y132.456 E0.01889
G1 X111.979 Y132.129 E0.01889
G1 X111.514 Y131.746 E0.01889
G1 X111.097 Y131.311 E0.01889
G1 X110.733 Y130.831 E0.01889
G1 X110.428 Y130.312 E0.01889
G1 X110.182 Y129.752 E0.01916
G1 X110.090 Y129.483 E0.00891
G1 X109.944 Y128.881 E0.01943
G1 X109.901 Y128.600 E0.00891
G1 X109.861 Y127.990 E0.01916
G1 X109.893 Y127.383 E0.01908
G1 X109.933 Y127.099 E0.00900
G1 X110.071 Y126.503 E0.01916
G1 X110.277 Y125.931 E0.01908
G1 X110.397 Y125.670 E0.00900
G1 X110.704 Y125.132 E0.01943
G1 X110.867 Y124.899 E0.00891
G1 X111.258 Y124.429 E0.01916
G1 X111.695 Y124.015 E0.01889
G1 X112.184 Y123.649 E0.01916
G1 X112.426 Y123.499 E0.00891
G1 X112.972 Y123.224 E0.01916
G1 X113.537 Y123.017 E0.01889
G1 X114.132 Y122.876 E0.01916
G1 X114.413 Y122.834 E0.00891
G1 X115.040 Y122.798 E0.01970
G1 X149.322 Y122.807 E1.07487
G1 X149.923 Y122.878 E0.01898
G1 X150.509 Y123.017 E0.01889
G1 X151.075 Y123.224 E0.01889
G1 X151.613 Y123.495 E0.01889
G1 X152.115 Y123.827 E0.01889
G1 X152.576 Y124.216 E0.01889
G1 X152.988 Y124.655 E0.01889
G1 X153.346 Y125.140 E0.01889
G1 X153.645 Y125.663 E0.01889
G1 X153.882 Y126.217 E0.01889
G1 X154.054 Y126.803 E0.01916
G1 X154.110 Y127.082 E0.00891
G1 X154.178 Y127.686 E0.01908
G1 X154.174 Y128.292 E0.01898
G1 X154.101 Y128.890 E0.01889
G1 X153.958 Y129.475 E0.01889
G1 X153.748 Y130.040 E0.01889
G1 X153.473 Y130.576 E0.01889
G1 X153.138 Y131.077 E0.01889
G1 X152.747 Y131.535 E0.01889
G1 X152.301 Y131.949 E0.01908
G1 X152.074 Y132.125 E0.00900
G1 X151.561 Y132.456 E0.01916
G1 X151.020 Y132.721 E0.01889
G1 X150.452 Y132.921 E0.01889
G1 X149.855 Y133.055 E0.01916
G1 X149.574 Y133.093 E0.00891
G1 X148.963 Y133.122 E0.01916
G1 X148.356 Y133.080 E0.01908
G1 X148.002 Y133.023 E0.01126
G1 X142.296 Y133.023 E0.17889
G1 X142.613 Y133.400 F6000.000
G1 F1260
G1 X142.613 Y136.400 E0.09406
G1 X142.110 Y136.400 E0.01577
G1 X141.433 Y135.723 E0.03002
G1 X141.433 Y133.400 E0.07284
G1 X122.613 Y133.400 E0.59009
G1 X122.613 Y135.723 E0.07284
G1 X121.936 Y136.400 E0.03002
G1 X121.433 Y136.400 E0.01577
G1 X121.433 Y133.400 E0.09406
G1 X116.077 Y133.400 E0.16793
G1 X115.411 Y133.487 E0.02108
G1 X114.764 Y133.494 E0.02027
G1 X114.121 Y133.426 E0.02028
G1 X113.803 Y133.364 E0.01013
G1 X113.493 Y133.285 E0.01004
G1 X112.880 Y133.069 E0.02037
G1 X112.300 Y132.784 E0.02027
G1 X111.756 Y132.434 E0.02027
G1 X111.257 Y132.023 E0.02027
G1 X110.810 Y131.557 E0.02027
G1 X110.419 Y131.041 E0.02027
G1 X110.092 Y130.484 E0.02027
G1 X109.830 Y129.889 E0.02037
G1 X109.728 Y129.589 E0.00995
G1 X109.573 Y128.955 E0.02047
G1 X109.525 Y128.641 E0.00995
G1 X109.484 Y127.993 E0.02037
G1 X109.518 Y127.347 E0.02028
G1 X109.562 Y127.030 E0.01004
G1 X109.709 Y126.397 E0.02037
G1 X109.927 Y125.788 E0.02028
G1 X110.061 Y125.497 E0.01004
G1 X110.385 Y124.931 E0.02046
G1 X110.566 Y124.670 E0.00995
G1 X110.982 Y124.171 E0.02037
G1 X111.451 Y123.726 E0.02027
G1 X111.972 Y123.337 E0.02037
G1 X112.241 Y123.170 E0.00995
G1 X112.821 Y122.877 E0.02037
G1 X113.429 Y122.655 E0.02027
G1 X114.061 Y122.505 E0.02037
G1 X114.375 Y122.459 E0.00995
G1 X115.029 Y122.420 E0.02056
G1 X149.344 Y122.430 E1.07590
G1 X149.989 Y122.506 E0.02036
G1 X150.618 Y122.655 E0.02027
G1 X151.225 Y122.877 E0.02027
G1 X151.802 Y123.168 E0.02027
G1 X152.342 Y123.525 E0.02027
G1 X152.836 Y123.942 E0.02027
G1 X153.278 Y124.413 E0.02027
G1 X153.663 Y124.933 E0.02027
G1 X153.984 Y125.495 E0.02027
G1 X154.237 Y126.089 E0.02027
G1 X154.421 Y126.713 E0.02037
G1 X154.483 Y127.024 E0.00995
G1 X154.555 Y127.667 E0.02028
G1 X154.551 Y128.316 E0.02036
G1 X154.472 Y128.958 E0.02027
G1 X154.319 Y129.586 E0.02027
G1 X154.094 Y130.192 E0.02027
G1 X153.799 Y130.767 E0.02027
G1 X153.440 Y131.305 E0.02027
G1 X153.020 Y131.796 E0.02027
G1 X152.545 Y132.236 E0.02028
G1 X152.293 Y132.433 E0.01004
G1 X151.747 Y132.784 E0.02037
G1 X151.166 Y133.069 E0.02027
G1 X150.556 Y133.284 E0.02027
G1 X149.922 Y133.427 E0.02037
G1 X149.608 Y133.469 E0.00995
G1 X148.959 Y133.500 E0.02037
G1 X148.314 Y133.455 E0.02028
G1 X147.972 Y133.400 E0.01084
G1 X142.673 Y133.400 E0.16614
G1 X142.213 Y133.399 F6000.000
G1 F4800
G1 X142.637 Y135.229 E-0.76000
G1 E-0.04000 F2100.00000
G1 X145.876 Y132.910 F6000.000
G1 E0.80000 F2100.00000
G1 F2520
G1 X145.419 Y132.453 E0.02066
G1 X144.774 Y132.352 E0.02082
G1 X145.163 Y132.741 E0.01756
G1 X144.620 Y132.741 E0.01734
G1 X144.130 Y132.250 E0.02213
G1 X143.486 Y132.149 E0.02082
G1 X144.077 Y132.741 E0.02670
G1 X143.534 Y132.741 E0.01734
G1 X142.842 Y132.048 E0.03127
G1 X142.198 Y131.947 E0.02082
G1 X142.991 Y132.741 E0.03584
G1 X142.448 Y132.741 E0.01734
G1 X141.553 Y131.846 E0.04041
G1 X140.909 Y131.744 E0.02082
G1 X141.905 Y132.741 E0.04498
G1 X141.362 Y132.741 E0.01734
G1 X140.265 Y131.643 E0.04955
G1 X139.621 Y131.542 E0.02082
G1 X140.819 Y132.741 E0.05412
G1 X140.276 Y132.741 E0.01734
G1 X138.977 Y131.441 E0.05869
G1 X138.893 Y131.428 E0.00270
G1 X138.893 Y131.900 E0.01509
G1 X139.733 Y132.741 E0.03795
G1 X139.190 Y132.741 E0.01734
G1 X138.723 Y132.273 E0.02109
G1 F4800
G1 X139.190 Y132.741 E-0.27457
G1 F4800
G1 X139.733 Y132.741 E-0.22568
G1 F4800
G1 X139.292 Y132.299 E-0.25975
G1 E-0.04000 F2100.00000
G1 X125.323 Y131.905 F6000.000
G1 E0.80000 F2100.00000
G1 F2520
G1 X124.887 Y131.469 E0.01966
G1 X124.418 Y131.543 E0.01517
G1 X125.153 Y132.278 E0.03319
G1 X125.153 Y132.741 E0.01476
G1 X125.073 Y132.741 E0.00257
G1 X123.949 Y131.617 E0.05074
G1 X123.480 Y131.691 E0.01517
G1 X124.530 Y132.741 E0.04741
G1 X123.987 Y132.741 E0.01734
G1 X123.010 Y131.764 E0.04408
G1 X122.541 Y131.838 E0.01517
G1 X123.444 Y132.741 E0.04075
G1 X122.901 Y132.741 E0.01734
G1 X122.072 Y131.912 E0.03742
G1 X121.603 Y131.985 E0.01517
G1 X122.358 Y132.741 E0.03409
G1 X121.815 Y132.741 E0.01734
G1 X121.133 Y132.059 E0.03077
G1 X120.664 Y132.133 E0.01517
G1 X121.272 Y132.741 E0.02744
G1 X120.729 Y132.741 E0.01734
G1 X120.195 Y132.207 E0.02411
G1 X119.725 Y132.280 E0.01517
G1 X120.186 Y132.741 E0.02078
G1 X119.643 Y132.741 E0.01734
G1 X119.256 Y132.354 E0.01745
G1 X118.787 Y132.428 E0.01517
G1 X119.100 Y132.741 E0.01412
G1 X118.557 Y132.741 E0.01734
G1 X118.169 Y132.353 E0.01750
G1 X117.815 Y132.661 F6000.000
G1 F1680
G1 X117.183 Y132.710 E0.01476
G1 F1680
G1 X116.550 Y132.760 E0.01008
G1 F1680
G1 X116.041 Y132.803 E0.00434
G1 F1680
G1 X115.815 Y132.839 E0.00039
G1 X115.478 Y132.883 F6000.000
G1 F1680
G1 X115.206 Y132.899 E0.00031
G1 X114.859 Y132.903 F6000.000
G1 F1680
G1 X114.613 Y132.884 E0.00023
G1 X114.241 Y132.846 F6000.000
G1 F1680
G1 X113.701 Y132.729 E0.00038
G1 F4800
G1 X114.241 Y132.846 E-0.22963
G1 E-0.57037 F2100.00000
G1 X112.748 Y132.347 F6000.000
G1 E0.80000 F2100.00000
G1 F1680
G1 X112.520 Y132.224 E0.00027
G1 X112.231 Y132.038 F6000.000
G1 F1680
G1 X112.008 Y131.877 E0.00032
G1 X111.382 Y131.300 F6000.000
G1 F1680
G1 X111.222 Y131.124 E0.00022
G1 F4800
G1 X111.382 Y131.300 E-0.09893
G1 E-0.70107 F2100.00000
G1 X110.422 Y129.770 F6000.000
G1 E0.80000 F2100.00000
G1 F1680
G1 X110.278 Y129.354 E0.00050
G1 X110.196 Y129.016 F6000.000
G1 F1680
G1 X110.128 Y128.675 E0.00041
G1 F4800
G1 X110.196 Y129.016 E-0.14479
G1 E-0.65521 F2100.00000
G1 X110.134 Y127.199 F6000.000
G1 E0.80000 F2100.00000
G1 F1680
G1 X110.183 Y126.967 E0.00020
G1 F4800
G1 X110.134 Y127.199 E-0.09883
G1 E-0.70117 F2100.00000
G1 X110.853 Y125.300 F6000.000
G1 E0.80000 F2100.00000
G1 F1680
G1 X111.108 Y124.942 E0.00052
G1 X111.326 Y124.680 F6000.000
G1 F1680
G1 X111.515 Y124.479 E0.00032
