; generated by Slic3r 1.33.8-prusa3d-win64 on 2017-05-06 at 11:22:48

; external perimeters extrusion width = 0.45mm
; perimeters extrusion width = 0.45mm
; infill extrusion width = 0.45mm
; solid infill extrusion width = 0.45mm
; top infill extrusion width = 0.45mm

M107
M115 U3.0.10 ; tell printer latest fw version
M83  ; extruder relative mode
M104 S215 ; set extruder temp
M140 S55 ; set bed temp
M190 S55 ; wait for bed temp
M109 S215 ; wait for extruder temp
G28 W ; home all without mesh bed level
G80 ; mesh bed leveling
G1 Y-3.0 F1000.0 ; go outside pritn area
G1 X60.0 E9.0  F1000.0 ; intro line
G1 X100.0 E12.5  F1000.0 ; intro line
G21 ; set units to millimeters
G90 ; use absolute coordinates
M83 ; use relative distances for extrusion
G1 E-0.80000 F2100.00000
G1 Z0.200 F7200.000
G1 X84.184 Y98.489 F7200.000
G1 E0.80000 F2100.00000
M204 S1000
G1 F2100
G1 X97.222 Y90.032 E0.48726
G1 X110.792 Y82.335 E0.48916
G1 X111.027 Y82.218 E0.00824
G1 X111.458 Y82.081 E0.01419
G1 X111.912 Y82.028 E0.01431
G1 X119.951 Y82.028 E0.25206
G1 X120.336 Y82.073 E0.01217
G1 X120.709 Y82.180 E0.01217
G1 X121.060 Y82.346 E0.01217
G1 X121.379 Y82.567 E0.01217
G1 X121.671 Y82.851 E0.01276
G1 X121.909 Y83.181 E0.01276
G1 X125.886 Y90.069 E0.24938
G1 X126.073 Y90.481 E0.01419
G1 X126.179 Y90.917 E0.01407
G1 X126.202 Y91.190 E0.00859
G1 X126.986 Y121.560 E0.95254
G1 X126.974 Y121.864 E0.00955
G1 X126.923 Y122.164 E0.00955
G1 X126.834 Y122.456 E0.00955
G1 X126.707 Y122.737 E0.00967
G1 X122.710 Y129.663 E0.25074
G1 X122.491 Y129.978 E0.01205
G1 X122.147 Y130.318 E0.01514
G1 X121.743 Y130.581 E0.01514
G1 X121.293 Y130.757 E0.01514
G1 X120.817 Y130.839 E0.01514
G1 X112.707 Y130.844 E0.25427
G1 X112.314 Y130.805 E0.01241
G1 X111.928 Y130.700 E0.01253
G1 X97.880 Y123.899 E0.48938
G1 X84.444 Y116.126 E0.48669
G1 X84.131 Y115.909 E0.01193
G1 X83.840 Y115.625 E0.01276
G1 X83.601 Y115.295 E0.01276
G1 X79.605 Y108.376 E0.25053
G1 X79.476 Y108.104 E0.00943
G1 X79.382 Y107.819 E0.00943
G1 X79.325 Y107.523 E0.00943
G1 X79.306 Y107.219 E0.00955
G1 X79.325 Y106.919 E0.00943
G1 X79.382 Y106.624 E0.00943
G1 X79.475 Y106.338 E0.00943
G1 X79.605 Y106.067 E0.00943
G1 X83.600 Y99.146 E0.25057
G1 X83.842 Y98.813 E0.01288
G1 X84.137 Y98.527 E0.01291
G1 F5760
G1 X85.978 Y97.332 E-0.76000
G1 E-0.04000 F2100.00000
G1 X95.612 Y98.915 F7200.000
G1 E0.80000 F2100.00000
G1 F840
G1 X99.010 Y93.030 E0.21310
G1 X105.806 Y93.030 E0.21310
G1 X109.205 Y98.915 E0.21310
G1 X105.806 Y104.801 E0.21310
G1 X99.010 Y104.801 E0.21310
G1 X95.642 Y98.967 E0.21121
G1 X95.176 Y98.915 F7200.000
G1 F1680
G1 X98.792 Y92.652 E0.22675
G1 X106.024 Y92.652 E0.22675
G1 X109.640 Y98.915 E0.22675
G1 X106.024 Y105.178 E0.22675
G1 X98.792 Y105.178 E0.22675
G1 X95.206 Y98.967 E0.22487
G1 X94.741 Y98.915 F7200.000
G1 F1050
G1 X98.575 Y92.275 E0.24040
G1 X106.242 Y92.275 E0.24040
G1 X110.075 Y98.915 E0.24040
G1 X106.242 Y105.555 E0.24040
G1 X98.575 Y105.555 E0.24040
G1 X94.771 Y98.967 E0.23852
G1 X95.087 Y98.715 F7200.000
G1 F5760
G1 X95.855 Y97.060 E-0.76000
G1 E-0.04000 F2100.00000
G1 X95.813 Y99.037 F7200.000
G1 E0.80000 F2100.00000
G1 F1680
G1 X101.294 Y104.518 E0.24492
G1 X101.831 Y104.518 E0.01698
G1 X96.044 Y98.732 E0.25858
G1 X96.241 Y98.391 E0.01243
G1 X102.369 Y104.518 E0.27380
G1 X102.906 Y104.518 E0.01698
G1 X96.438 Y98.050 E0.28902
G1 X96.635 Y97.709 E0.01243
G1 X103.443 Y104.518 E0.30424
G1 X103.981 Y104.518 E0.01698
G1 X96.831 Y97.369 E0.31947
G1 X97.028 Y97.028 E0.01243
G1 X104.518 Y104.518 E0.33469
G1 X105.056 Y104.518 E0.01698
G1 X97.225 Y96.687 E0.34991
G1 X97.421 Y96.347 E0.01243
G1 X105.593 Y104.518 E0.36513
G1 X105.643 Y104.518 E0.00158
G1 X105.821 Y104.209 E0.01127
G1 X97.618 Y96.006 E0.36655
G1 X97.815 Y95.665 E0.01243
G1 X106.018 Y103.869 E0.36655
G1 X106.215 Y103.528 E0.01243
G1 X98.011 Y95.325 E0.36655
G1 X98.208 Y94.984 E0.01243
G1 X106.412 Y103.187 E0.36655
G1 X106.608 Y102.847 E0.01243
G1 X98.405 Y94.643 E0.36655
G1 X98.601 Y94.303 E0.01243
G1 X106.805 Y102.506 E0.36655
G1 X107.002 Y102.165 E0.01243
G1 X98.798 Y93.962 E0.36655
G1 X98.995 Y93.621 E0.01243
G1 X107.198 Y101.825 E0.36655
G1 X107.395 Y101.484 E0.01243
G1 X99.223 Y93.312 E0.36514
G1 X99.761 Y93.312 E0.01698
G1 X107.592 Y101.143 E0.34991
G1 X107.788 Y100.803 E0.01243
G1 X100.298 Y93.312 E0.33469
G1 X100.835 Y93.312 E0.01698
G1 X107.985 Y100.462 E0.31947
G1 X108.182 Y100.121 E0.01243
G1 X101.373 Y93.312 E0.30425
G1 X101.910 Y93.312 E0.01698
G1 X108.378 Y99.781 E0.28902
G1 X108.575 Y99.440 E0.01243
G1 X102.447 Y93.312 E0.27380
G1 X102.985 Y93.312 E0.01698
G1 X108.772 Y99.099 E0.25858
G1 X108.878 Y98.915 E0.00671
G1 X108.540 Y98.330 E0.02134
G1 X103.522 Y93.312 E0.22422
G1 X104.060 Y93.312 E0.01698
G1 X108.270 Y97.522 E0.18812
G1 F5760
G1 X106.718 Y95.971 E-0.76000
G1 E-0.04000 F2100.00000
G1 X107.536 Y96.251 F7200.000
G1 E0.80000 F2100.00000
G1 F1680
G1 X104.597 Y93.312 E0.13131
G1 X105.134 Y93.312 E0.01698
G1 X106.802 Y94.980 E0.07450
G1 F5760
G1 X105.250 Y93.428 E-0.76000
G1 E-0.04000 F2100.00000
G1 X100.926 Y104.688 F7200.000
G1 E0.80000 F2100.00000
G1 F1680
G1 X96.547 Y100.309 E0.19569
G1 F5760
G1 X98.098 Y101.860 E-0.76000
G1 E-0.04000 F2100.00000
G1 X97.281 Y101.580 F7200.000
G1 E0.80000 F2100.00000
G1 F1680
G1 X100.389 Y104.688 E0.13888
G1 X99.852 Y104.688 F7200.000
G1 F1680
G1 X98.015 Y102.851 E0.08207
G1 F5760
G1 X99.566 Y104.403 E-0.76000
G1 E-0.04000 F2100.00000
G1 X96.389 Y107.220 F7200.000
G1 E0.80000 F2100.00000
G1 F840
G1 X92.991 Y113.106 E0.21310
G1 X86.194 Y113.106 E0.21310
G1 X82.796 Y107.220 E0.21310
G1 X86.194 Y101.334 E0.21310
G1 X92.991 Y101.334 E0.21310
G1 X96.359 Y107.168 E0.21121
G1 X96.824 Y107.220 F7200.000
G1 F1680
G1 X93.208 Y113.483 E0.22675
G1 X85.977 Y113.483 E0.22675
G1 X82.361 Y107.220 E0.22675
G1 X85.977 Y100.957 E0.22675
G1 X93.208 Y100.957 E0.22675
G1 X96.794 Y107.168 E0.22487
G1 X97.260 Y107.220 F7200.000
G1 F1050
G1 X93.426 Y113.860 E0.24040
G1 X85.759 Y113.860 E0.24040
G1 X81.925 Y107.220 E0.24040
G1 X85.759 Y100.580 E0.24040
G1 X93.426 Y100.580 E0.24040
G1 X97.230 Y107.168 E0.23852
G1 X96.913 Y107.420 F7200.000
G1 F5760
G1 X96.145 Y109.076 E-0.76000
G1 E-0.04000 F2100.00000
G1 X95.454 Y105.827 F7200.000
G1 E0.80000 F2100.00000
G1 F1680
G1 X91.244 Y101.617 E0.18812
G1 X90.707 Y101.617 E0.01698
G1 X95.725 Y106.635 E0.22422
G1 X96.062 Y107.220 E0.02134
G1 X95.956 Y107.404 E0.00671
G1 X90.169 Y101.617 E0.25858
G1 X89.632 Y101.617 E0.01698
G1 X95.760 Y107.745 E0.27380
G1 X95.563 Y108.086 E0.01243
G1 X89.094 Y101.617 E0.28902
G1 X88.557 Y101.617 E0.01698
G1 X95.366 Y108.426 E0.30425
G1 X95.169 Y108.767 E0.01243
G1 X88.020 Y101.617 E0.31947
G1 X87.482 Y101.617 E0.01698
G1 X94.973 Y109.108 E0.33469
G1 X94.776 Y109.448 E0.01243
G1 X86.945 Y101.617 E0.34991
G1 X86.408 Y101.617 E0.01698
G1 X94.579 Y109.789 E0.36514
G1 X94.383 Y110.130 E0.01243
G1 X86.179 Y101.926 E0.36655
G1 X85.983 Y102.267 E0.01243
G1 X94.186 Y110.470 E0.36655
G1 X93.989 Y110.811 E0.01243
G1 X85.786 Y102.608 E0.36655
G1 X85.589 Y102.948 E0.01243
G1 X93.793 Y111.152 E0.36655
G1 X93.596 Y111.492 E0.01243
G1 X85.392 Y103.289 E0.36655
G1 X85.196 Y103.630 E0.01243
G1 X93.399 Y111.833 E0.36655
G1 X93.203 Y112.174 E0.01243
G1 X84.999 Y103.970 E0.36655
G1 X84.802 Y104.311 E0.01243
G1 X93.006 Y112.514 E0.36655
G1 X92.827 Y112.823 E0.01127
G1 X92.777 Y112.823 E0.00158
G1 X84.606 Y104.652 E0.36513
G1 X84.409 Y104.992 E0.01243
G1 X92.240 Y112.823 E0.34991
G1 X91.703 Y112.823 E0.01698
G1 X84.212 Y105.333 E0.33469
G1 X84.016 Y105.674 E0.01243
G1 X91.165 Y112.823 E0.31947
G1 X90.628 Y112.823 E0.01698
G1 X83.819 Y106.014 E0.30424
G1 X83.622 Y106.355 E0.01243
G1 X90.090 Y112.823 E0.28902
G1 X89.553 Y112.823 E0.01698
G1 X83.426 Y106.696 E0.27380
G1 X83.229 Y107.036 E0.01243
G1 X89.016 Y112.823 E0.25858
G1 X88.478 Y112.823 E0.01698
G1 X82.997 Y107.342 E0.24492
G1 F5760
G1 X84.549 Y108.894 E-0.76000
G1 E-0.04000 F2100.00000
G1 X83.731 Y108.614 F7200.000
G1 E0.80000 F2100.00000
G1 F1680
G1 X88.111 Y112.993 E0.19569
G1 X87.573 Y112.993 F7200.000
G1 F1680
G1 X84.465 Y109.885 E0.13888
G1 F5760
G1 X86.017 Y111.437 E-0.76000
G1 E-0.04000 F2100.00000
G1 X85.199 Y111.156 F7200.000
G1 E0.80000 F2100.00000
G1 F1680
G1 X87.036 Y112.993 E0.08207
G1 F5760
G1 X85.484 Y111.441 E-0.76000
G1 E-0.04000 F2100.00000
G1 X94.720 Y104.556 F7200.000
G1 E0.80000 F2100.00000
G1 F1680
G1 X91.781 Y101.617 E0.13131
G1 X92.319 Y101.617 E0.01698
G1 X93.986 Y103.285 E0.07450
G1 F5760
G1 X92.434 Y101.733 E-0.76000
G1 E-0.04000 F2100.00000
G1 X99.551 Y109.064 F7200.000
G1 E0.80000 F2100.00000
G1 F840
G1 X106.348 Y109.064 E0.21310
G1 X109.280 Y114.142 E0.18385
G1 X109.746 Y114.950 E0.02925
G1 X106.348 Y120.836 E0.21310
G1 X99.551 Y120.836 E0.21310
G1 X96.153 Y114.950 E0.21310
G1 X99.521 Y109.116 E0.21121
G1 X99.334 Y108.687 F7200.000
G1 F1680
G1 X106.566 Y108.687 E0.22675
G1 X109.606 Y113.954 E0.19067
G1 X110.181 Y114.950 E0.03608
G1 X106.566 Y121.213 E0.22675
G1 X99.334 Y121.213 E0.22675
G1 X95.718 Y114.950 E0.22675
G1 X99.304 Y108.739 E0.22487
G1 X99.116 Y108.310 F7200.000
G1 F1050
G1 X106.783 Y108.310 E0.24040
G1 X110.617 Y114.950 E0.24040
G1 X106.783 Y121.590 E0.24040
G1 X99.116 Y121.590 E0.24040
G1 X95.282 Y114.950 E0.24040
G1 X99.086 Y108.362 E0.23852
G1 X99.462 Y108.510 F7200.000
G1 F5760
G1 X101.280 Y108.347 E-0.76000
G1 E-0.04000 F2100.00000
G1 X96.354 Y115.072 F7200.000
G1 E0.80000 F2100.00000
G1 F1680
G1 X101.835 Y120.553 E0.24492
G1 X102.373 Y120.553 E0.01698
G1 X96.586 Y114.766 E0.25858
G1 X96.783 Y114.425 E0.01243
G1 X102.910 Y120.553 E0.27380
G1 X103.448 Y120.553 E0.01698
G1 X96.979 Y114.085 E0.28902
G1 X97.176 Y113.744 E0.01243
G1 X103.985 Y120.553 E0.30424
G1 X104.522 Y120.553 E0.01698
G1 X97.373 Y113.403 E0.31947
G1 X97.569 Y113.063 E0.01243
G1 X105.060 Y120.553 E0.33469
G1 X105.597 Y120.553 E0.01698
G1 X97.766 Y112.722 E0.34991
G1 X97.963 Y112.381 E0.01243
G1 X106.134 Y120.553 E0.36513
G1 X106.185 Y120.553 E0.00158
G1 X106.363 Y120.244 E0.01127
G1 X98.159 Y112.041 E0.36655
G1 X98.356 Y111.700 E0.01243
G1 X106.560 Y119.903 E0.36655
G1 X106.756 Y119.563 E0.01243
G1 X98.553 Y111.359 E0.36655
G1 X98.750 Y111.019 E0.01243
G1 X106.953 Y119.222 E0.36655
G1 X107.150 Y118.881 E0.01243
G1 X98.946 Y110.678 E0.36655
G1 X99.143 Y110.337 E0.01243
G1 X107.346 Y118.541 E0.36655
G1 X107.543 Y118.200 E0.01243
G1 X99.340 Y109.997 E0.36655
G1 X99.536 Y109.656 E0.01243
G1 X107.740 Y117.859 E0.36655
G1 X107.936 Y117.519 E0.01243
G1 X99.765 Y109.347 E0.36514
G1 X100.302 Y109.347 E0.01698
G1 X108.133 Y117.178 E0.34991
G1 X108.330 Y116.837 E0.01243
G1 X100.839 Y109.347 E0.33469
G1 X101.377 Y109.347 E0.01698
G1 X108.527 Y116.497 E0.31947
G1 X108.723 Y116.156 E0.01243
G1 X101.914 Y109.347 E0.30425
G1 X102.452 Y109.347 E0.01698
G1 X108.920 Y115.815 E0.28902
G1 X109.117 Y115.475 E0.01243
G1 X102.989 Y109.347 E0.27380
G1 X103.526 Y109.347 E0.01698
G1 X109.313 Y115.134 E0.25858
G1 X109.420 Y114.950 E0.00671
G1 X109.082 Y114.365 E0.02134
G1 X104.064 Y109.347 E0.22422
G1 X104.601 Y109.347 E0.01698
G1 X108.811 Y113.557 E0.18812
G1 F5760
G1 X107.260 Y112.006 E-0.76000
G1 E-0.04000 F2100.00000
G1 X108.077 Y112.286 F7200.000
G1 E0.80000 F2100.00000
G1 F1680
G1 X105.138 Y109.347 E0.13131
G1 X105.676 Y109.347 E0.01698
G1 X107.343 Y111.014 E0.07450
G1 F5760
G1 X105.792 Y109.463 E-0.76000
G1 E-0.04000 F2100.00000
G1 X101.468 Y120.723 F7200.000
G1 E0.80000 F2100.00000
G1 F1680
G1 X97.088 Y116.343 E0.19569
G1 F5760
G1 X98.640 Y117.895 E-0.76000
G1 E-0.04000 F2100.00000
G1 X97.822 Y117.615 F7200.000
G1 E0.80000 F2100.00000
G1 F1680
G1 X100.930 Y120.723 E0.13888
G1 X100.393 Y120.723 F7200.000
G1 F1680
G1 X98.556 Y118.886 E0.08207
G1 F5760
G1 X100.108 Y120.438 E-0.76000
G1 E-0.04000 F2100.00000
G1 X109.904 Y121.618 F7200.000
G1 E0.80000 F2100.00000
G1 F840
G1 X113.302 Y115.732 E0.21310
G1 X120.099 Y115.732 E0.21310
G1 X123.497 Y121.618 E0.21310
G1 X120.099 Y127.503 E0.21310
G1 X113.302 Y127.503 E0.21310
G1 X109.934 Y121.669 E0.21121
G1 X109.469 Y121.618 F7200.000
G1 F1680
G1 X113.084 Y115.355 E0.22675
G1 X120.316 Y115.355 E0.22675
G1 X123.932 Y121.618 E0.22675
G1 X120.316 Y127.880 E0.22675
G1 X113.084 Y127.880 E0.22675
G1 X109.499 Y121.669 E0.22487
G1 X109.033 Y121.618 F7200.000
G1 F1050
G1 X112.867 Y114.978 E0.24040
G1 X120.534 Y114.978 E0.24040
G1 X124.368 Y121.618 E0.24040
G1 X120.534 Y128.258 E0.24040
G1 X112.867 Y128.258 E0.24040
G1 X109.063 Y121.669 E0.23852
G1 X109.380 Y121.418 F7200.000
G1 F5760
G1 X110.147 Y119.762 E-0.76000
G1 E-0.04000 F2100.00000
G1 X110.105 Y121.739 F7200.000
G1 E0.80000 F2100.00000
G1 F1680
G1 X115.586 Y127.221 E0.24492
G1 X116.124 Y127.221 E0.01698
G1 X110.337 Y121.434 E0.25858
G1 X110.533 Y121.093 E0.01243
G1 X116.661 Y127.221 E0.27380
G1 X117.198 Y127.221 E0.01698
G1 X110.730 Y120.752 E0.28902
G1 X110.927 Y120.412 E0.01243
G1 X117.736 Y127.221 E0.30424
G1 X118.273 Y127.221 E0.01698
G1 X111.123 Y120.071 E0.31947
G1 X111.320 Y119.730 E0.01243
G1 X118.810 Y127.221 E0.33469
G1 X119.348 Y127.221 E0.01698
G1 X111.517 Y119.390 E0.34991
G1 X111.714 Y119.049 E0.01243
G1 X119.885 Y127.221 E0.36513
G1 X119.935 Y127.221 E0.00158
G1 X120.114 Y126.912 E0.01127
G1 X111.910 Y118.708 E0.36655
G1 X112.107 Y118.368 E0.01243
G1 X120.310 Y126.571 E0.36655
G1 X120.507 Y126.230 E0.01243
G1 X112.304 Y118.027 E0.36655
G1 X112.500 Y117.686 E0.01243
G1 X120.704 Y125.890 E0.36655
G1 X120.900 Y125.549 E0.01243
G1 X112.697 Y117.346 E0.36655
G1 X112.894 Y117.005 E0.01243
G1 X121.097 Y125.208 E0.36655
G1 X121.294 Y124.868 E0.01243
G1 X113.090 Y116.664 E0.36655
G1 X113.287 Y116.323 E0.01243
G1 X121.491 Y124.527 E0.36655
G1 X121.687 Y124.186 E0.01243
G1 X113.515 Y116.014 E0.36514
G1 X114.053 Y116.014 E0.01698
G1 X121.884 Y123.846 E0.34991
G1 X122.081 Y123.505 E0.01243
G1 X114.590 Y116.014 E0.33469
G1 X115.128 Y116.014 E0.01698
G1 X122.277 Y123.164 E0.31947
G1 X122.474 Y122.823 E0.01243
G1 X115.665 Y116.014 E0.30425
G1 X116.202 Y116.014 E0.01698
G1 X122.671 Y122.483 E0.28902
G1 X122.867 Y122.142 E0.01243
G1 X116.740 Y116.014 E0.27380
G1 X117.277 Y116.014 E0.01698
G1 X123.064 Y121.801 E0.25858
G1 X123.170 Y121.618 E0.00671
G1 X122.832 Y121.032 E0.02134
G1 X117.814 Y116.014 E0.22422
G1 X118.352 Y116.014 E0.01698
G1 X122.562 Y120.225 E0.18812
G1 F5760
G1 X121.010 Y118.673 E-0.76000
G1 E-0.04000 F2100.00000
G1 X121.828 Y118.953 F7200.000
G1 E0.80000 F2100.00000
G1 F1680
G1 X118.889 Y116.014 E0.13131
G1 X119.427 Y116.014 E0.01698
G1 X121.094 Y117.682 E0.07450
G1 F5760
G1 X119.542 Y116.130 E-0.76000
G1 E-0.04000 F2100.00000
G1 X115.219 Y127.390 F7200.000
G1 E0.80000 F2100.00000
G1 F1680
G1 X110.839 Y123.011 E0.19569
G1 F5760
G1 X112.391 Y124.562 E-0.76000
G1 E-0.04000 F2100.00000
G1 X111.573 Y124.282 F7200.000
G1 E0.80000 F2100.00000
G1 F1680
G1 X114.681 Y127.390 E0.13888
G1 X114.144 Y127.390 F7200.000
G1 F1680
G1 X112.307 Y125.554 E0.08207
G1 F5760
G1 X113.859 Y127.105 E-0.76000
G1 E-0.04000 F2100.00000
G1 X112.583 Y112.405 F7200.000
G1 E0.80000 F2100.00000
G1 F840
G1 X109.185 Y106.519 E0.21310
G1 X112.583 Y100.633 E0.21310
G1 X119.379 Y100.633 E0.21310
G1 X122.777 Y106.519 E0.21310
G1 X119.379 Y112.405 E0.21310
G1 X112.643 Y112.405 E0.21121
G1 X112.365 Y112.782 F7200.000
G1 F1680
G1 X108.749 Y106.519 E0.22675
G1 X112.365 Y100.256 E0.22675
G1 X119.597 Y100.256 E0.22675
G1 X123.213 Y106.519 E0.22675
G1 X119.597 Y112.782 E0.22675
G1 X112.425 Y112.782 E0.22487
G1 X112.147 Y113.159 F7200.000
G1 F1050
G1 X108.314 Y106.519 E0.24040
G1 X112.147 Y99.879 E0.24040
G1 X119.815 Y99.879 E0.24040
G1 X123.648 Y106.519 E0.24040
G1 X119.815 Y113.159 E0.24040
G1 X112.207 Y113.159 E0.23852
G1 X112.147 Y112.759 F7200.000
G1 F5760
G1 X111.098 Y111.266 E-0.76000
G1 E-0.04000 F2100.00000
G1 X113.424 Y112.291 F7200.000
G1 E0.80000 F2100.00000
G1 F1680
G1 X111.588 Y110.455 E0.08207
G1 F5760
G1 X113.139 Y112.006 E-0.76000
G1 E-0.04000 F2100.00000
G1 X110.854 Y109.183 F7200.000
G1 E0.80000 F2100.00000
G1 F1680
G1 X113.962 Y112.291 E0.13888
G1 X114.499 Y112.291 F7200.000
G1 F1680
G1 X110.120 Y107.912 E0.19569
G1 F5760
G1 X111.671 Y109.463 E-0.76000
G1 E-0.04000 F2100.00000
G1 X109.386 Y106.640 F7200.000
