; generated by Slic3r 1.33.8-prusa3d-win64 on 2017-05-03 at 22:46:32

; external perimeters extrusion width = 0.45mm
; perimeters extrusion width = 0.45mm
; infill extrusion width = 0.45mm
; solid infill extrusion width = 0.45mm
; top infill extrusion width = 0.45mm

M107
M115 U3.0.10 ; tell printer latest fw version
M83  ; extruder relative mode
M104 S215 ; set extruder temp
M140 S55 ; set bed temp
M190 S55 ; wait for bed temp
M109 S215 ; wait for extruder temp
G28 W ; home all without mesh bed level
G80 ; mesh bed leveling
G1 Y-3.0 F1000.0 ; go outside pritn area
G1 X60.0 E9.0  F1000.0 ; intro line
G1 X100.0 E12.5  F1000.0 ; intro line
G21 ; set units to millimeters
G90 ; use absolute coordinates
M83 ; use relative distances for extrusion
G1 E-0.80000 F2100.00000
G1 Z0.200 F7200.000
G1 X102.666 Y63.367 F7200.000
G1 E0.80000 F2100.00000
M204 S1000
G1 F2100
G1 X103.087 Y62.735 E0.02381
G1 X103.539 Y62.134 E0.02357
G1 X104.024 Y61.560 E0.02357
G1 X104.540 Y61.014 E0.02357
G1 X105.087 Y60.497 E0.02357
G1 X105.661 Y60.012 E0.02357
G1 X106.262 Y59.560 E0.02357
G1 X106.887 Y59.142 E0.02357
G1 X107.534 Y58.760 E0.02357
G1 X108.202 Y58.415 E0.02357
G1 X108.888 Y58.108 E0.02357
G1 X109.590 Y57.840 E0.02357
G1 X110.307 Y57.611 E0.02357
G1 X111.034 Y57.423 E0.02357
G1 X111.772 Y57.277 E0.02357
G1 X112.520 Y57.171 E0.02369
G1 X113.265 Y57.108 E0.02345
G1 X114.017 Y57.087 E0.02357
G1 X114.768 Y57.108 E0.02357
G1 X115.517 Y57.171 E0.02357
G1 X116.262 Y57.276 E0.02357
G1 X116.999 Y57.422 E0.02357
G1 X117.727 Y57.610 E0.02357
G1 X118.447 Y57.840 E0.02369
G1 X119.145 Y58.106 E0.02345
G1 X119.832 Y58.413 E0.02357
G1 X120.500 Y58.758 E0.02357
G1 X121.150 Y59.142 E0.02369
G1 X121.772 Y59.558 E0.02345
G1 X122.376 Y60.012 E0.02369
G1 X122.950 Y60.497 E0.02357
G1 X123.521 Y61.038 E0.02464
G1 X124.053 Y61.606 E0.02441
G1 X124.495 Y62.131 E0.02154
G1 X124.914 Y62.686 E0.02178
G1 X144.901 Y89.620 E1.05163
G1 X149.165 Y97.004 E0.26734
G1 X149.260 Y97.245 E0.00812
G1 X149.329 Y97.494 E0.00812
G1 X149.370 Y97.750 E0.00812
G1 X149.384 Y98.009 E0.00812
G1 X149.369 Y98.263 E0.00800
G1 X149.326 Y98.519 E0.00812
G1 X149.256 Y98.768 E0.00812
G1 X149.159 Y99.008 E0.00812
G1 X145.012 Y106.208 E0.26053
G1 X144.834 Y106.469 E0.00991
G1 X144.620 Y106.707 E0.01002
G1 X144.276 Y106.983 E0.01383
G1 X143.887 Y107.191 E0.01383
G1 X143.462 Y107.324 E0.01395
G1 X143.024 Y107.376 E0.01383
G1 X134.783 Y107.375 E0.25839
G1 X134.462 Y107.340 E0.01014
G1 X134.144 Y107.260 E0.01026
G1 X133.844 Y107.138 E0.01014
G1 X133.563 Y106.978 E0.01014
G1 X133.261 Y106.739 E0.01207
G1 X104.516 Y79.940 E1.23222
G1 X104.027 Y79.421 E0.02238
G1 X103.580 Y78.894 E0.02166
G1 X103.087 Y78.243 E0.02560
G1 X102.674 Y77.624 E0.02333
G1 X102.322 Y77.030 E0.02166
G1 X101.943 Y76.302 E0.02572
G1 X101.612 Y75.556 E0.02560
G1 X101.368 Y74.914 E0.02154
G1 X101.141 Y74.201 E0.02345
G1 X100.939 Y73.406 E0.02572
G1 X100.805 Y72.728 E0.02166
G1 X100.701 Y71.991 E0.02333
G1 X100.635 Y71.174 E0.02572
G1 X100.616 Y70.483 E0.02166
G1 X100.637 Y69.739 E0.02333
G1 X100.709 Y68.922 E0.02572
G1 X100.807 Y68.238 E0.02166
G1 X100.951 Y67.512 E0.02321
G1 X101.160 Y66.715 E0.02584
G1 X101.369 Y66.061 E0.02154
G1 X101.634 Y65.365 E0.02333
G1 X101.970 Y64.621 E0.02560
G1 X102.288 Y64.008 E0.02166
G1 X102.635 Y63.418 E0.02145
G1 F5760
G1 X103.087 Y62.735 E-0.28377
G1 F5760
G1 X103.539 Y62.134 E-0.26038
G1 F5760
G1 X103.941 Y61.658 E-0.21585
G1 E-0.04000 F2100.00000
G1 X135.439 Y91.964 F7200.000
G1 E0.80000 F2100.00000
G1 F1680
G1 X142.408 Y91.964 E0.21853
G1 X145.893 Y98.000 E0.21853
G1 X142.408 Y104.036 E0.21853
G1 X135.439 Y104.036 E0.21853
G1 X131.954 Y98.000 E0.21853
G1 X135.409 Y92.016 E0.21665
G1 X135.221 Y91.587 F7200.000
G1 F1680
G1 X142.626 Y91.587 E0.23218
G1 X146.329 Y98.000 E0.23218
G1 X142.626 Y104.413 E0.23218
G1 X135.221 Y104.413 E0.23218
G1 X131.519 Y98.000 E0.23218
G1 X135.191 Y91.639 E0.23030
G1 X135.003 Y91.210 F7200.000
G1 F1050
G1 X142.844 Y91.210 E0.24583
G1 X146.764 Y98.000 E0.24583
G1 X142.844 Y104.790 E0.24583
G1 X135.003 Y104.790 E0.24583
G1 X131.083 Y98.000 E0.24583
G1 X134.973 Y91.262 E0.24395
G1 X135.350 Y91.410 F7200.000
G1 F5760
G1 X137.168 Y91.247 E-0.76000
G1 E-0.04000 F2100.00000
G1 X132.984 Y99.558 F7200.000
G1 E0.80000 F2100.00000
G1 F1680
G1 X137.179 Y103.753 E0.18679
G1 X137.715 Y103.753 E0.01686
G1 X132.716 Y98.755 E0.22257
G1 X132.281 Y98.000 E0.02745
G1 X132.360 Y97.863 E0.00499
G1 X138.250 Y103.753 E0.26230
G1 X138.786 Y103.753 E0.01686
G1 X132.556 Y97.523 E0.27742
G1 X132.752 Y97.184 E0.01234
G1 X139.321 Y103.753 E0.29254
G1 X139.857 Y103.753 E0.01686
G1 X132.948 Y96.844 E0.30765
G1 X133.144 Y96.505 E0.01234
G1 X140.392 Y103.753 E0.32277
G1 X140.928 Y103.753 E0.01686
G1 X133.340 Y96.165 E0.33789
G1 X133.536 Y95.826 E0.01234
G1 X141.463 Y103.753 E0.35301
G1 X141.999 Y103.753 E0.01686
G1 X133.732 Y95.486 E0.36813
G1 X133.928 Y95.147 E0.01234
G1 X142.351 Y103.570 E0.37508
G1 X142.547 Y103.230 E0.01234
G1 X134.124 Y94.807 E0.37508
G1 X134.320 Y94.468 E0.01234
G1 X142.743 Y102.891 E0.37508
G1 X142.939 Y102.551 E0.01234
G1 X134.516 Y94.128 E0.37508
G1 X134.712 Y93.789 E0.01234
G1 X143.135 Y102.212 E0.37508
G1 X143.331 Y101.872 E0.01234
G1 X134.908 Y93.449 E0.37508
G1 X135.104 Y93.109 E0.01234
G1 X143.527 Y101.533 E0.37508
G1 X143.723 Y101.193 E0.01234
G1 X135.300 Y92.770 E0.37508
G1 X135.496 Y92.430 E0.01234
G1 X143.919 Y100.853 E0.37508
G1 X144.115 Y100.514 E0.01234
G1 X135.848 Y92.247 E0.36813
G1 X136.384 Y92.247 E0.01686
G1 X144.311 Y100.174 E0.35302
G1 X144.507 Y99.835 E0.01234
G1 X136.919 Y92.247 E0.33790
G1 X137.455 Y92.247 E0.01686
G1 X144.703 Y99.495 E0.32278
G1 X144.899 Y99.156 E0.01234
G1 X137.990 Y92.247 E0.30766
G1 X138.526 Y92.247 E0.01686
G1 X145.095 Y98.816 E0.29254
G1 X145.291 Y98.477 E0.01234
G1 X139.061 Y92.247 E0.27742
G1 X139.597 Y92.247 E0.01686
G1 X145.487 Y98.137 E0.26230
G1 X145.567 Y98.000 E0.00499
G1 X145.131 Y97.245 E0.02744
G1 X140.132 Y92.247 E0.22259
G1 X140.668 Y92.247 E0.01686
G1 X144.863 Y96.442 E0.18680
G1 F5760
G1 X143.311 Y94.890 E-0.76000
G1 E-0.04000 F2100.00000
G1 X144.131 Y95.175 F7200.000
G1 E0.80000 F2100.00000
G1 F1680
G1 X141.204 Y92.247 E0.13038
G1 X141.739 Y92.247 E0.01686
G1 X143.400 Y93.908 E0.07396
G1 F5760
G1 X141.848 Y92.356 E-0.76000
G1 E-0.04000 F2100.00000
G1 X133.716 Y100.826 F7200.000
G1 E0.80000 F2100.00000
G1 F1680
G1 X136.813 Y103.923 E0.13792
G1 X136.278 Y103.923 F7200.000
G1 F1680
G1 X134.447 Y102.093 E0.08150
G1 F5760
G1 X135.999 Y103.644 E-0.76000
G1 E-0.04000 F2100.00000
G1 X119.371 Y79.007 F7200.000
G1 E0.80000 F2100.00000
G1 F1680
G1 X118.885 Y79.294 E0.01769
G1 X118.384 Y79.553 E0.01769
G1 X117.868 Y79.784 E0.01769
G1 X117.341 Y79.985 E0.01769
G1 X116.804 Y80.156 E0.01769
G1 X116.257 Y80.297 E0.01769
G1 X115.704 Y80.407 E0.01769
G1 X115.145 Y80.486 E0.01769
G1 X114.583 Y80.534 E0.01769
G1 X114.019 Y80.549 E0.01769
G1 X113.454 Y80.534 E0.01769
G1 X112.892 Y80.486 E0.01769
G1 X112.333 Y80.407 E0.01769
G1 X111.780 Y80.297 E0.01769
G1 X111.233 Y80.156 E0.01769
G1 X110.696 Y79.985 E0.01769
G1 X110.169 Y79.784 E0.01769
G1 X109.653 Y79.553 E0.01769
G1 X109.152 Y79.294 E0.01769
G1 X108.666 Y79.007 E0.01769
G1 X108.197 Y78.694 E0.01769
G1 X107.746 Y78.355 E0.01769
G1 X107.315 Y77.990 E0.01769
G1 X106.905 Y77.603 E0.01769
G1 X106.517 Y77.193 E0.01769
G1 X106.153 Y76.762 E0.01769
G1 X105.814 Y76.311 E0.01769
G1 X105.500 Y75.841 E0.01769
G1 X105.213 Y75.355 E0.01769
G1 X104.954 Y74.854 E0.01769
G1 X104.724 Y74.339 E0.01769
G1 X104.523 Y73.812 E0.01769
G1 X104.351 Y73.274 E0.01769
G1 X104.210 Y72.728 E0.01769
G1 X104.100 Y72.174 E0.01769
G1 X104.021 Y71.615 E0.01769
G1 X103.974 Y71.053 E0.01769
G1 X103.958 Y70.489 E0.01769
G1 X103.974 Y69.925 E0.01769
G1 X104.021 Y69.363 E0.01769
G1 X104.100 Y68.804 E0.01769
G1 X104.210 Y68.250 E0.01769
G1 X104.351 Y67.704 E0.01769
G1 X104.523 Y67.166 E0.01769
G1 X104.724 Y66.639 E0.01769
G1 X104.954 Y66.124 E0.01769
G1 X105.213 Y65.623 E0.01769
G1 X105.500 Y65.136 E0.01769
G1 X105.814 Y64.667 E0.01769
G1 X106.153 Y64.216 E0.01769
G1 X106.517 Y63.785 E0.01769
G1 X106.905 Y63.375 E0.01769
G1 X107.315 Y62.987 E0.01769
G1 X107.746 Y62.623 E0.01769
G1 X108.197 Y62.284 E0.01769
G1 X108.666 Y61.970 E0.01769
G1 X109.152 Y61.684 E0.01769
G1 X109.653 Y61.425 E0.01769
G1 X110.169 Y61.194 E0.01769
G1 X110.696 Y60.993 E0.01769
G1 X111.233 Y60.822 E0.01769
G1 X111.780 Y60.681 E0.01769
G1 X112.333 Y60.571 E0.01769
G1 X112.892 Y60.492 E0.01769
G1 X113.448 Y60.445 E0.01751
G1 X114.187 Y60.433 E0.02317
G1 X114.583 Y60.444 E0.01239
G1 X115.145 Y60.492 E0.01769
G1 X115.704 Y60.571 E0.01769
G1 X116.257 Y60.681 E0.01769
G1 X116.804 Y60.822 E0.01769
G1 X117.341 Y60.993 E0.01769
G1 X117.868 Y61.194 E0.01769
G1 X118.384 Y61.425 E0.01769
G1 X118.881 Y61.682 E0.01755
G1 X119.470 Y62.037 E0.02157
G1 X119.840 Y62.284 E0.01396
G1 X120.291 Y62.623 E0.01769
G1 X120.722 Y62.987 E0.01769
G1 X121.132 Y63.375 E0.01769
G1 X121.520 Y63.785 E0.01769
G1 X121.884 Y64.216 E0.01769
G1 X122.223 Y64.667 E0.01769
G1 X122.537 Y65.136 E0.01769
G1 X122.824 Y65.623 E0.01769
G1 X123.083 Y66.124 E0.01769
G1 X123.313 Y66.639 E0.01769
G1 X123.514 Y67.166 E0.01769
G1 X123.686 Y67.704 E0.01769
G1 X123.827 Y68.250 E0.01769
G1 X123.937 Y68.804 E0.01769
G1 X124.016 Y69.363 E0.01769
G1 X124.063 Y69.925 E0.01769
G1 X124.079 Y70.489 E0.01769
G1 X124.063 Y71.053 E0.01769
G1 X124.016 Y71.615 E0.01769
G1 X123.937 Y72.174 E0.01769
G1 X123.827 Y72.728 E0.01769
G1 X123.686 Y73.274 E0.01769
G1 X123.514 Y73.812 E0.01769
G1 X123.313 Y74.339 E0.01769
G1 X123.083 Y74.854 E0.01769
G1 X122.824 Y75.355 E0.01769
G1 X122.537 Y75.841 E0.01769
G1 X122.223 Y76.311 E0.01769
G1 X121.884 Y76.762 E0.01769
G1 X121.520 Y77.193 E0.01769
G1 X121.132 Y77.603 E0.01769
G1 X120.722 Y77.990 E0.01769
G1 X120.291 Y78.355 E0.01769
G1 X119.840 Y78.694 E0.01769
G1 X119.421 Y78.974 E0.01581
G1 X119.572 Y79.327 F7200.000
G1 F1680
G1 X119.067 Y79.624 E0.01836
G1 X118.547 Y79.893 E0.01836
G1 X118.013 Y80.132 E0.01836
G1 X117.466 Y80.341 E0.01836
G1 X116.908 Y80.519 E0.01836
G1 X116.341 Y80.665 E0.01836
G1 X115.767 Y80.779 E0.01836
G1 X115.187 Y80.861 E0.01836
G1 X114.604 Y80.910 E0.01836
G1 X114.019 Y80.927 E0.01836
G1 X113.433 Y80.910 E0.01836
G1 X112.850 Y80.861 E0.01836
G1 X112.270 Y80.779 E0.01836
G1 X111.696 Y80.665 E0.01836
G1 X111.129 Y80.519 E0.01836
G1 X110.571 Y80.341 E0.01836
G1 X110.024 Y80.132 E0.01836
G1 X109.490 Y79.893 E0.01836
G1 X108.970 Y79.624 E0.01836
G1 X108.465 Y79.327 E0.01836
G1 X107.979 Y79.002 E0.01836
G1 X107.511 Y78.649 E0.01836
G1 X107.063 Y78.272 E0.01836
G1 X106.638 Y77.869 E0.01836
G1 X106.236 Y77.444 E0.01836
G1 X105.858 Y76.997 E0.01836
G1 X105.506 Y76.529 E0.01836
G1 X105.181 Y76.042 E0.01836
G1 X104.883 Y75.538 E0.01836
G1 X104.614 Y75.018 E0.01836
G1 X104.375 Y74.483 E0.01836
G1 X104.167 Y73.936 E0.01836
G1 X103.989 Y73.378 E0.01836
G1 X103.843 Y72.812 E0.01836
G1 X103.728 Y72.237 E0.01836
G1 X103.646 Y71.658 E0.01836
G1 X103.597 Y71.074 E0.01836
G1 X103.581 Y70.489 E0.01836
G1 X103.597 Y69.904 E0.01836
G1 X103.646 Y69.320 E0.01836
G1 X103.728 Y68.741 E0.01836
G1 X103.843 Y68.166 E0.01836
G1 X103.989 Y67.599 E0.01836
G1 X104.167 Y67.042 E0.01836
G1 X104.375 Y66.495 E0.01836
G1 X104.614 Y65.960 E0.01836
G1 X104.883 Y65.440 E0.01836
G1 X105.181 Y64.936 E0.01836
G1 X105.506 Y64.449 E0.01836
G1 X105.858 Y63.981 E0.01836
G1 X106.236 Y63.534 E0.01836
G1 X106.638 Y63.108 E0.01836
G1 X107.063 Y62.706 E0.01836
G1 X107.511 Y62.328 E0.01836
G1 X107.979 Y61.976 E0.01836
G1 X108.465 Y61.651 E0.01836
G1 X108.970 Y61.354 E0.01836
G1 X109.490 Y61.085 E0.01836
G1 X110.024 Y60.846 E0.01836
G1 X110.571 Y60.637 E0.01836
G1 X111.129 Y60.459 E0.01836
G1 X111.696 Y60.313 E0.01836
G1 X112.270 Y60.199 E0.01836
G1 X112.850 Y60.117 E0.01836
G1 X113.430 Y60.068 E0.01824
G1 X114.190 Y60.056 E0.02384
G1 X114.604 Y60.068 E0.01298
G1 X115.187 Y60.117 E0.01836
G1 X115.767 Y60.199 E0.01836
G1 X116.341 Y60.313 E0.01836
G1 X116.908 Y60.459 E0.01836
G1 X117.466 Y60.637 E0.01836
G1 X118.013 Y60.846 E0.01836
G1 X118.547 Y61.085 E0.01836
G1 X119.065 Y61.352 E0.01827
G1 X119.672 Y61.718 E0.02223
G1 X120.059 Y61.976 E0.01457
G1 X120.526 Y62.328 E0.01836
G1 X120.974 Y62.706 E0.01836
G1 X121.399 Y63.108 E0.01836
G1 X121.801 Y63.534 E0.01836
G1 X122.179 Y63.981 E0.01836
G1 X122.531 Y64.449 E0.01836
G1 X122.856 Y64.936 E0.01836
G1 X123.154 Y65.440 E0.01836
G1 X123.423 Y65.960 E0.01836
G1 X123.662 Y66.495 E0.01836
G1 X123.870 Y67.042 E0.01836
G1 X124.048 Y67.599 E0.01836
G1 X124.195 Y68.166 E0.01836
G1 X124.309 Y68.741 E0.01836
G1 X124.391 Y69.320 E0.01836
G1 X124.440 Y69.904 E0.01836
G1 X124.456 Y70.489 E0.01836
G1 X124.440 Y71.074 E0.01836
G1 X124.391 Y71.658 E0.01836
G1 X124.309 Y72.237 E0.01836
G1 X124.195 Y72.812 E0.01836
G1 X124.048 Y73.378 E0.01836
G1 X123.870 Y73.936 E0.01836
G1 X123.662 Y74.483 E0.01836
G1 X123.423 Y75.018 E0.01836
G1 X123.154 Y75.538 E0.01836
G1 X122.856 Y76.042 E0.01836
G1 X122.531 Y76.529 E0.01836
G1 X122.179 Y76.997 E0.01836
G1 X121.801 Y77.444 E0.01836
G1 X121.399 Y77.869 E0.01836
G1 X120.974 Y78.272 E0.01836
G1 X120.526 Y78.649 E0.01836
G1 X120.059 Y79.002 E0.01836
G1 X119.622 Y79.293 E0.01648
G1 X119.772 Y79.646 F7200.000
G1 F1050
G1 X119.250 Y79.954 E0.01902
G1 X118.711 Y80.233 E0.01902
G1 X118.157 Y80.481 E0.01902
G1 X117.590 Y80.697 E0.01902
G1 X117.012 Y80.881 E0.01902
G1 X116.425 Y81.033 E0.01902
G1 X115.830 Y81.151 E0.01902
G1 X115.229 Y81.236 E0.01902
G1 X114.625 Y81.287 E0.01902
G1 X114.019 Y81.304 E0.01902
G1 X113.412 Y81.287 E0.01902
G1 X112.808 Y81.236 E0.01902
G1 X112.207 Y81.151 E0.01902
G1 X111.612 Y81.033 E0.01902
G1 X111.025 Y80.881 E0.01902
G1 X110.447 Y80.697 E0.01902
G1 X109.880 Y80.481 E0.01902
G1 X109.326 Y80.233 E0.01902
G1 X108.787 Y79.954 E0.01902
G1 X108.265 Y79.646 E0.01902
G1 X107.760 Y79.309 E0.01902
G1 X107.276 Y78.944 E0.01902
G1 X106.812 Y78.553 E0.01902
G1 X106.371 Y78.136 E0.01902
G1 X105.954 Y77.695 E0.01902
G1 X105.563 Y77.232 E0.01902
G1 X105.198 Y76.747 E0.01902
G1 X104.861 Y76.243 E0.01902
G1 X104.553 Y75.720 E0.01902
G1 X104.275 Y75.181 E0.01902
G1 X104.027 Y74.628 E0.01902
G1 X103.810 Y74.061 E0.01902
G1 X103.626 Y73.483 E0.01902
G1 X103.475 Y72.895 E0.01902
G1 X103.356 Y72.301 E0.01902
G1 X103.272 Y71.700 E0.01902
G1 X103.221 Y71.095 E0.01902
G1 X103.204 Y70.489 E0.01902
G1 X103.221 Y69.883 E0.01902
G1 X103.272 Y69.278 E0.01902
G1 X103.356 Y68.677 E0.01902
G1 X103.475 Y68.082 E0.01902
G1 X103.626 Y67.495 E0.01902
G1 X103.810 Y66.917 E0.01902
G1 X104.027 Y66.350 E0.01902
G1 X104.275 Y65.797 E0.01902
G1 X104.553 Y65.258 E0.01902
G1 X104.861 Y64.735 E0.01902
G1 X105.198 Y64.231 E0.01902
G1 X105.563 Y63.746 E0.01902
G1 X105.954 Y63.282 E0.01902
G1 X106.371 Y62.842 E0.01902
G1 X106.812 Y62.425 E0.01902
G1 X107.276 Y62.033 E0.01902
G1 X107.760 Y61.669 E0.01902
G1 X108.265 Y61.332 E0.01902
G1 X108.787 Y61.023 E0.01902
G1 X109.326 Y60.745 E0.01902
G1 X109.880 Y60.497 E0.01902
G1 X110.447 Y60.281 E0.01902
G1 X111.025 Y60.097 E0.01902
G1 X111.612 Y59.945 E0.01902
G1 X112.207 Y59.827 E0.01902
G1 X112.808 Y59.742 E0.01902
G1 X113.411 Y59.691 E0.01898
G1 X114.192 Y59.679 E0.02450
G1 X114.625 Y59.691 E0.01357
G1 X115.229 Y59.742 E0.01902
G1 X115.830 Y59.827 E0.01902
G1 X116.425 Y59.945 E0.01902
G1 X117.012 Y60.097 E0.01902
G1 X117.590 Y60.281 E0.01902
G1 X118.157 Y60.497 E0.01902
G1 X118.711 Y60.745 E0.01902
G1 X119.249 Y61.023 E0.01899
G1 X119.874 Y61.400 E0.02289
G1 X120.277 Y61.669 E0.01517
G1 X120.762 Y62.033 E0.01902
G1 X121.225 Y62.425 E0.01902
G1 X121.666 Y62.842 E0.01902
G1 X122.083 Y63.282 E0.01902
G1 X122.474 Y63.746 E0.01902
G1 X122.839 Y64.231 E0.01902
G1 X123.176 Y64.735 E0.01902
G1 X123.484 Y65.258 E0.01902
G1 X123.762 Y65.797 E0.01902
G1 X124.010 Y66.350 E0.01902
G1 X124.227 Y66.917 E0.01902
G1 X124.411 Y67.495 E0.01902
G1 X124.562 Y68.082 E0.01902
G1 X124.681 Y68.677 E0.01902
G1 X124.765 Y69.278 E0.01902
G1 X124.816 Y69.883 E0.01902
G1 X124.833 Y70.489 E0.01902
G1 X124.816 Y71.095 E0.01902
G1 X124.765 Y71.700 E0.01902
G1 X124.681 Y72.301 E0.01902
G1 X124.562 Y72.895 E0.01902
