; generated by Slic3r 1.33.8-prusa3d-win64 on 2017-05-02 at 12:48:00

; external perimeters extrusion width = 0.45mm
; perimeters extrusion width = 0.45mm
; infill extrusion width = 0.45mm
; solid infill extrusion width = 0.45mm
; top infill extrusion width = 0.45mm

M107
M115 U3.0.10 ; tell printer latest fw version
M83  ; extruder relative mode
M104 S215 ; set extruder temp
M140 S55 ; set bed temp
M190 S55 ; wait for bed temp
M109 S215 ; wait for extruder temp
G28 W ; home all without mesh bed level
G80 ; mesh bed leveling
G1 Y-3.0 F1000.0 ; go outside pritn area
G1 X60.0 E9.0  F1000.0 ; intro line
G1 X100.0 E12.5  F1000.0 ; intro line
G21 ; set units to millimeters
G90 ; use absolute coordinates
M83 ; use relative distances for extrusion
G1 E-0.80000 F2100.00000
G1 Z0.200 F7200.000
G1 X98.836 Y89.424 F7200.000
G1 E0.80000 F2100.00000
M204 S1000
G1 F2100
G1 X99.787 Y88.398 E0.04389
G1 X100.840 Y87.492 E0.04353
G1 X101.996 Y86.704 E0.04389
G1 X103.129 Y86.103 E0.04019
G1 X103.370 Y85.994 E0.00831
G1 X104.670 Y85.504 E0.04357
G1 X105.918 Y85.180 E0.04043
G1 X107.338 Y84.977 E0.04496
G1 X108.627 Y84.936 E0.04043
G1 X165.219 Y84.937 E1.77440
G1 X166.537 Y84.976 E0.04136
G1 X167.788 Y85.149 E0.03959
G1 X168.031 Y85.198 E0.00776
G1 X169.256 Y85.519 E0.03971
G1 X170.440 Y85.968 E0.03971
G1 X171.696 Y86.603 E0.04411
G1 X172.955 Y87.436 E0.04734
G1 X174.022 Y88.342 E0.04389
G1 X174.987 Y89.372 E0.04425
G1 X175.814 Y90.482 E0.04341
G1 X176.533 Y91.719 E0.04484
G1 X177.129 Y93.106 E0.04734
G1 X177.532 Y94.460 E0.04431
G1 X177.763 Y95.703 E0.03964
G1 X177.859 Y96.966 E0.03971
G1 X177.865 Y97.213 E0.00776
G1 X177.811 Y98.483 E0.03983
G1 X177.599 Y99.870 E0.04401
G1 X177.229 Y101.232 E0.04425
G1 X176.701 Y102.553 E0.04460
G1 X176.081 Y103.713 E0.04126
G1 X147.780 Y152.730 E1.77464
G1 X147.097 Y153.836 E0.04077
G1 X146.230 Y154.944 E0.04413
G1 X145.253 Y155.936 E0.04365
G1 X144.109 Y156.856 E0.04603
G1 X142.988 Y157.567 E0.04162
G1 X141.741 Y158.177 E0.04353
G1 X140.426 Y158.646 E0.04377
G1 X139.179 Y158.941 E0.04019
G1 X138.924 Y158.985 E0.00812
G1 X137.543 Y159.132 E0.04352
G1 X136.254 Y159.130 E0.04043
G1 X134.863 Y158.975 E0.04389
G1 X133.509 Y158.666 E0.04352
G1 X132.195 Y158.206 E0.04365
G1 X130.938 Y157.600 E0.04377
G1 X129.852 Y156.919 E0.04019
G1 X129.638 Y156.767 E0.00824
G1 X128.562 Y155.884 E0.04364
G1 X127.657 Y154.966 E0.04043
G1 X126.774 Y153.841 E0.04484
G1 X126.092 Y152.742 E0.04055
G1 X97.812 Y103.758 E1.77345
G1 X97.152 Y102.524 E0.04387
G1 X96.618 Y101.169 E0.04567
G1 X96.282 Y99.944 E0.03983
G1 X96.078 Y98.686 E0.03995
G1 X95.999 Y97.178 E0.04734
G1 X96.095 Y95.767 E0.04436
G1 X96.352 Y94.375 E0.04436
G1 X96.718 Y93.159 E0.03983
G1 X96.802 Y92.930 E0.00764
G1 X97.310 Y91.766 E0.03983
G1 X97.939 Y90.662 E0.03983
G1 X98.798 Y89.471 E0.04606
G1 F5760
G1 X99.787 Y88.398 E-0.50553
G1 F5760
G1 X100.344 Y87.918 E-0.25447
G1 E-0.04000 F2100.00000
G1 X132.539 Y139.160 F7200.000
G1 E0.80000 F2100.00000
G1 F1680
G1 X141.329 Y139.160 E0.27559
G1 X145.724 Y146.772 E0.27559
G1 X141.329 Y154.384 E0.27559
G1 X132.539 Y154.384 E0.27559
G1 X128.144 Y146.772 E0.27559
G1 X132.509 Y139.212 E0.27371
G1 X132.757 Y139.537 F7200.000
G1 F1050
G1 X141.111 Y139.537 E0.26194
G1 X145.288 Y146.772 E0.26194
G1 X141.111 Y154.007 E0.26194
G1 X132.757 Y154.007 E0.26194
G1 X128.580 Y146.772 E0.26194
G1 X132.727 Y139.589 E0.26006
G1 X132.757 Y139.137 F7200.000
G1 X132.747 Y138.783 F7200.000
G1 F840
G1 X133.208 Y138.542 E0.01631
G1 X134.161 Y138.174 E0.03203
G1 X135.149 Y137.916 E0.03203
G1 X136.161 Y137.771 E0.03203
G1 X137.182 Y137.741 E0.03203
G1 X138.200 Y137.827 E0.03203
G1 X139.202 Y138.027 E0.03203
G1 X140.175 Y138.339 E0.03203
G1 X141.147 Y138.783 E0.03349
G1 X132.807 Y138.783 E0.26148
G1 F5760
G1 X133.208 Y138.542 E-0.16200
G1 F5760
G1 X134.161 Y138.174 E-0.35387
G1 F5760
G1 X134.843 Y137.996 E-0.24413
G1 E-0.04000 F2100.00000
G1 X141.756 Y139.145 F7200.000
G1 E0.80000 F2100.00000
G1 F840
G1 X141.985 Y139.281 E0.00835
G1 X142.798 Y139.900 E0.03203
G1 X143.536 Y140.606 E0.03203
G1 X144.191 Y141.391 E0.03203
G1 X144.752 Y142.244 E0.03203
G1 X145.213 Y143.156 E0.03203
G1 X145.568 Y144.114 E0.03203
G1 X145.813 Y145.106 E0.03203
G1 X145.945 Y146.119 E0.03203
G1 X145.949 Y146.409 E0.00908
G1 X141.786 Y139.197 E0.26109
G1 F5760
G1 X141.985 Y139.281 E-0.07478
G1 F5760
G1 X142.798 Y139.900 E-0.35387
G1 F5760
G1 X143.489 Y140.561 E-0.33135
G1 E-0.04000 F2100.00000
G1 X145.960 Y147.116 F7200.000
G1 E0.80000 F2100.00000
G1 F840
G1 X145.861 Y148.157 E0.03279
G1 X145.648 Y149.157 E0.03203
G1 X145.323 Y150.125 E0.03203
G1 X144.891 Y151.051 E0.03203
G1 X144.375 Y151.891 E0.03091
G1 X143.726 Y152.728 E0.03321
G1 X143.012 Y153.456 E0.03198
G1 X142.218 Y154.100 E0.03203
G1 X141.759 Y154.393 E0.01708
G1 X145.930 Y147.168 E0.26157
G1 F5760
G1 X145.861 Y148.157 E-0.34346
G1 F5760
G1 X145.648 Y149.157 E-0.35387
G1 F5760
G1 X145.590 Y149.328 E-0.06267
G1 E-0.04000 F2100.00000
G1 X141.129 Y154.761 F7200.000
G1 E0.80000 F2100.00000
G1 F840
G1 X140.439 Y155.099 E0.02406
G1 X139.477 Y155.441 E0.03203
G1 X138.482 Y155.673 E0.03203
G1 X137.467 Y155.791 E0.03203
G1 X136.445 Y155.793 E0.03203
G1 X135.430 Y155.680 E0.03203
G1 X134.434 Y155.453 E0.03203
G1 X133.469 Y155.116 E0.03203
G1 X132.736 Y154.761 E0.02554
G1 X141.069 Y154.761 E0.26127
G1 F5760
G1 X140.439 Y155.099 E-0.24732
G1 F5760
G1 X139.477 Y155.441 E-0.35387
G1 F5760
G1 X139.030 Y155.545 E-0.15881
G1 E-0.04000 F2100.00000
G1 X160.665 Y104.930 F7200.000
G1 E0.80000 F2100.00000
G1 F840
G1 X160.226 Y104.651 E0.01631
G1 X159.432 Y104.011 E0.03198
G1 X158.690 Y103.254 E0.03321
G1 X158.081 Y102.479 E0.03091
G1 X157.545 Y101.609 E0.03203
G1 X157.110 Y100.685 E0.03203
G1 X156.783 Y99.717 E0.03203
G1 X156.566 Y98.719 E0.03203
G1 X156.465 Y97.655 E0.03349
G1 X160.635 Y104.878 E0.26148
G1 F5760
G1 X160.226 Y104.651 E-0.16200
G1 F5760
G1 X159.432 Y104.011 E-0.35326
G1 F5760
G1 X158.937 Y103.506 E-0.24474
G1 E-0.04000 F2100.00000
G1 X156.474 Y96.947 F7200.000
G1 E0.80000 F2100.00000
G1 F840
G1 X156.478 Y96.680 E0.00835
G1 X156.606 Y95.667 E0.03203
G1 X156.849 Y94.674 E0.03203
G1 X157.201 Y93.715 E0.03203
G1 X157.644 Y92.835 E0.03091
G1 X158.220 Y91.946 E0.03321
G1 X158.871 Y91.160 E0.03198
G1 X159.607 Y90.452 E0.03203
G1 X160.419 Y89.832 E0.03203
G1 X160.668 Y89.683 E0.00908
G1 X156.504 Y96.895 E0.26109
G1 F5760
G1 X156.478 Y96.680 E-0.07478
G1 F5760
G1 X156.606 Y95.667 E-0.35387
G1 F5760
G1 X156.833 Y94.737 E-0.33135
G1 E-0.04000 F2100.00000
G1 X161.095 Y89.697 F7200.000
G1 E0.80000 F2100.00000
G1 F1680
G1 X169.885 Y89.697 E0.27559
G1 X170.190 Y90.225 E0.01911
G1 X174.280 Y97.309 E0.25649
G1 X169.885 Y104.921 E0.27559
G1 X161.095 Y104.921 E0.27559
G1 X156.700 Y97.309 E0.27559
G1 X161.065 Y89.749 E0.27371
G1 X161.313 Y90.074 F7200.000
G1 F1050
G1 X169.667 Y90.074 E0.26194
G1 X169.863 Y90.413 E0.01228
G1 X173.844 Y97.309 E0.24966
G1 X169.667 Y104.544 E0.26194
G1 X161.313 Y104.544 E0.26194
G1 X157.136 Y97.309 E0.26194
G1 X161.283 Y90.126 E0.26006
G1 X161.313 Y89.674 F7200.000
G1 X161.283 Y89.320 F7200.000
G1 F840
G1 X162.226 Y88.885 E0.03256
G1 X163.198 Y88.570 E0.03203
G1 X164.200 Y88.367 E0.03203
G1 X165.217 Y88.279 E0.03203
G1 X166.239 Y88.306 E0.03203
G1 X167.250 Y88.448 E0.03203
G1 X168.240 Y88.703 E0.03203
G1 X169.194 Y89.069 E0.03203
G1 X169.677 Y89.320 E0.01708
G1 X161.343 Y89.320 E0.26131
G1 F5760
G1 X162.226 Y88.885 E-0.34096
G1 F5760
G1 X163.198 Y88.570 E-0.35387
G1 F5760
G1 X163.383 Y88.533 E-0.06516
G1 E-0.04000 F2100.00000
G1 X170.311 Y89.682 F7200.000
G1 E0.80000 F2100.00000
G1 F840
G1 X170.948 Y90.110 E0.02406
G1 X171.726 Y90.772 E0.03203
G1 X172.424 Y91.518 E0.03203
G1 X173.034 Y92.338 E0.03203
G1 X173.547 Y93.222 E0.03203
G1 X173.957 Y94.158 E0.03203
G1 X174.259 Y95.134 E0.03203
G1 X174.448 Y96.138 E0.03203
G1 X174.508 Y96.950 E0.02554
G1 X170.341 Y89.733 E0.26127
G1 F5760
G1 X170.948 Y90.110 E-0.24733
G1 F5760
G1 X171.726 Y90.772 E-0.35387
G1 F5760
G1 X172.040 Y91.107 E-0.15880
G1 E-0.04000 F2100.00000
G1 X117.388 Y97.679 F7200.000
G1 E0.80000 F2100.00000
G1 F840
G1 X117.366 Y98.198 E0.01631
G1 X117.208 Y99.208 E0.03203
G1 X116.938 Y100.193 E0.03203
G1 X116.557 Y101.141 E0.03203
G1 X116.073 Y102.041 E0.03203
G1 X115.489 Y102.879 E0.03203
G1 X114.815 Y103.647 E0.03203
G1 X114.058 Y104.333 E0.03203
G1 X113.188 Y104.953 E0.03349
G1 X117.358 Y97.731 E0.26148
G1 F5760
G1 X117.366 Y98.198 E-0.16200
G1 F5760
G1 X117.208 Y99.208 E-0.35387
G1 F5760
G1 X117.022 Y99.887 E-0.24413
G1 E-0.04000 F2100.00000
G1 X112.570 Y105.299 F7200.000
G1 E0.80000 F2100.00000
G1 F840
G1 X112.369 Y105.412 E0.00722
G1 X111.394 Y105.825 E0.03321
G1 X110.415 Y106.111 E0.03198
G1 X109.408 Y106.285 E0.03203
G1 X108.388 Y106.344 E0.03203
G1 X107.368 Y106.288 E0.03203
G1 X106.361 Y106.117 E0.03203
G1 X105.379 Y105.833 E0.03203
G1 X104.436 Y105.440 E0.03203
G1 X104.183 Y105.299 E0.00908
G1 X112.510 Y105.299 E0.26109
G1 F5760
G1 X112.369 Y105.412 E-0.06247
G1 F5760
G1 X111.394 Y105.825 E-0.36685
G1 F5760
G1 X110.477 Y106.093 E-0.33068
G1 E-0.04000 F2100.00000
G1 X103.563 Y104.953 F7200.000
G1 E0.80000 F2100.00000
G1 F840
G1 X102.711 Y104.348 E0.03276
G1 X101.954 Y103.664 E0.03198
G1 X101.277 Y102.899 E0.03203
G1 X100.692 Y102.061 E0.03203
G1 X100.204 Y101.163 E0.03203
G1 X99.822 Y100.216 E0.03203
G1 X99.548 Y99.232 E0.03203
G1 X99.388 Y98.223 E0.03203
G1 X99.363 Y97.679 E0.01708
G1 X103.533 Y104.901 E0.26147
G1 F5760
G1 X102.711 Y104.348 E-0.34312
G1 F5760
G1 X101.954 Y103.664 E-0.35326
G1 F5760
G1 X101.832 Y103.527 E-0.06362
G1 E-0.04000 F2100.00000
G1 X99.359 Y96.948 F7200.000
G1 E0.80000 F2100.00000
G1 F840
G1 X99.410 Y96.219 E0.02294
G1 X99.597 Y95.176 E0.03321
G1 X99.894 Y94.200 E0.03198
G1 X100.299 Y93.262 E0.03203
G1 X100.808 Y92.376 E0.03203
G1 X101.413 Y91.553 E0.03203
G1 X102.108 Y90.804 E0.03203
G1 X102.882 Y90.138 E0.03203
G1 X103.556 Y89.680 E0.02554
G1 X99.389 Y96.896 E0.26127
G1 F5760
G1 X99.410 Y96.219 E-0.23488
G1 F5760
G1 X99.597 Y95.176 E-0.36685
G1 F5760
G1 X99.730 Y94.739 E-0.15827
G1 E-0.04000 F2100.00000
G1 X103.981 Y89.698 F7200.000
G1 E0.80000 F2100.00000
G1 F1680
G1 X112.771 Y89.698 E0.27559
G1 X117.165 Y97.310 E0.27559
G1 X112.771 Y104.922 E0.27559
G1 X103.981 Y104.922 E0.27559
G1 X99.586 Y97.310 E0.27559
G1 X103.951 Y89.750 E0.27371
G1 X104.199 Y90.075 F7200.000
G1 F1050
G1 X112.553 Y90.075 E0.26194
G1 X116.730 Y97.310 E0.26194
G1 X112.553 Y104.545 E0.26194
G1 X104.199 Y104.545 E0.26194
G1 X100.021 Y97.310 E0.26194
G1 X104.169 Y90.127 E0.26006
G1 X104.199 Y89.675 F7200.000
G1 F5760
G1 X106.363 Y90.114 E-0.76000
G1 E-0.04000 F2100.00000
G1 X127.111 Y106.876 F7200.000
G1 E0.80000 F2100.00000
G1 F1680
G1 X127.917 Y105.854 E0.04079
G1 X128.829 Y104.926 E0.04079
G1 X129.836 Y104.102 E0.04079
G1 X130.925 Y103.391 E0.04079
G1 X132.086 Y102.803 E0.04079
G1 X133.303 Y102.343 E0.04079
G1 X134.564 Y102.017 E0.04085
G1 X135.892 Y101.829 E0.04204
G1 X137.149 Y101.783 E0.03946
G1 X138.427 Y101.874 E0.04017
G1 X139.728 Y102.111 E0.04145
G1 X140.975 Y102.482 E0.04079
G1 X142.175 Y102.985 E0.04079
G1 X143.313 Y103.615 E0.04079
G1 X144.376 Y104.364 E0.04079
G1 X145.354 Y105.226 E0.04085
G1 X146.255 Y106.219 E0.04204
G1 X146.999 Y107.235 E0.03949
G1 X147.649 Y108.361 E0.04079
G1 X148.174 Y109.552 E0.04079
G1 X148.567 Y110.792 E0.04079
G1 X148.824 Y112.068 E0.04079
G1 X148.941 Y113.363 E0.04079
G1 X148.918 Y114.664 E0.04079
G1 X148.754 Y115.955 E0.04079
G1 X148.451 Y117.220 E0.04079
G1 X148.013 Y118.445 E0.04079
G1 X147.446 Y119.616 E0.04079
G1 X146.755 Y120.719 E0.04079
G1 X145.949 Y121.740 E0.04079
G1 X145.038 Y122.668 E0.04079
G1 X144.031 Y123.492 E0.04079
G1 X142.941 Y124.203 E0.04079
G1 X141.781 Y124.791 E0.04079
G1 X140.564 Y125.251 E0.04079
G1 X139.304 Y125.576 E0.04079
G1 X138.016 Y125.764 E0.04079
G1 X136.716 Y125.811 E0.04079
G1 X135.419 Y125.717 E0.04079
G1 X134.139 Y125.483 E0.04079
G1 X132.892 Y125.113 E0.04079
G1 X131.692 Y124.609 E0.04079
G1 X130.554 Y123.979 E0.04079
G1 X129.490 Y123.230 E0.04079
G1 X128.514 Y122.370 E0.04079
G1 X127.636 Y121.409 E0.04079
G1 X126.867 Y120.358 E0.04085
G1 X126.201 Y119.195 E0.04204
G1 X125.693 Y118.042 E0.03949
G1 X125.299 Y116.802 E0.04079
G1 X125.043 Y115.527 E0.04079
G1 X124.926 Y114.231 E0.04079
G1 X124.949 Y112.930 E0.04079
G1 X125.113 Y111.638 E0.04085
G1 X125.430 Y110.335 E0.04204
G1 X125.853 Y109.149 E0.03949
G1 X126.421 Y107.978 E0.04079
G1 X127.080 Y106.926 E0.03891
G1 X127.420 Y107.093 F7200.000
G1 F1680
G1 X128.201 Y106.104 E0.03951
G1 X129.084 Y105.205 E0.03951
G1 X130.059 Y104.407 E0.03951
G1 X131.114 Y103.718 E0.03951
G1 X132.238 Y103.148 E0.03951
G1 X133.417 Y102.703 E0.03951
G1 X134.638 Y102.388 E0.03954
G1 X135.925 Y102.205 E0.04075
G1 X137.143 Y102.161 E0.03821
G1 X138.380 Y102.248 E0.03889
G1 X139.640 Y102.478 E0.04015
G1 X140.848 Y102.837 E0.03951
G1 X142.010 Y103.325 E0.03951
G1 X143.112 Y103.935 E0.03951
G1 X144.142 Y104.661 E0.03951
G1 X145.089 Y105.495 E0.03954
G1 X145.962 Y106.457 E0.04075
G1 X146.682 Y107.441 E0.03823
G1 X147.312 Y108.532 E0.03951
G1 X147.821 Y109.685 E0.03951
G1 X148.201 Y110.887 E0.03951
G1 X148.450 Y112.122 E0.03951
G1 X148.564 Y113.377 E0.03951
G1 X148.541 Y114.637 E0.03951
G1 X148.382 Y115.887 E0.03951
G1 X148.089 Y117.113 E0.03951
G1 X147.665 Y118.299 E0.03951
G1 X147.115 Y119.433 E0.03951
G1 X146.446 Y120.501 E0.03951
G1 X145.666 Y121.490 E0.03951
G1 X144.783 Y122.389 E0.03951
G1 X143.808 Y123.188 E0.03951
G1 X142.752 Y123.876 E0.03951
G1 X141.628 Y124.446 E0.03951
G1 X140.450 Y124.891 E0.03951
G1 X139.229 Y125.206 E0.03951
G1 X137.982 Y125.388 E0.03951
G1 X136.723 Y125.433 E0.03951
G1 X135.466 Y125.342 E0.03951
G1 X134.227 Y125.116 E0.03951
G1 X133.019 Y124.757 E0.03951
G1 X131.857 Y124.269 E0.03951
G1 X130.754 Y123.659 E0.03951
G1 X129.724 Y122.933 E0.03951
G1 X128.779 Y122.100 E0.03951
G1 X127.929 Y121.170 E0.03951
G1 X127.184 Y120.152 E0.03954
G1 X126.538 Y119.024 E0.04075
G1 X126.046 Y117.909 E0.03823
G1 X125.665 Y116.708 E0.03951
G1 X125.417 Y115.472 E0.03951
G1 X125.303 Y114.217 E0.03951
G1 X125.326 Y112.957 E0.03951
G1 X125.485 Y111.706 E0.03954
G1 X125.791 Y110.443 E0.04075
G1 X126.201 Y109.295 E0.03823
G1 X126.751 Y108.161 E0.03951
G1 X127.388 Y107.144 E0.03763
G1 X127.729 Y107.311 F7200.000
G1 F1050
G1 X128.484 Y106.354 E0.03823
G1 X129.338 Y105.484 E0.03823
G1 X130.282 Y104.711 E0.03823
G1 X131.303 Y104.045 E0.03823
G1 X132.390 Y103.494 E0.03823
G1 X133.531 Y103.063 E0.03823
G1 X134.712 Y102.758 E0.03824
G1 X135.958 Y102.581 E0.03947
G1 X137.136 Y102.539 E0.03696
G1 X138.333 Y102.623 E0.03761
G1 X139.552 Y102.846 E0.03886
G1 X140.721 Y103.193 E0.03823
G1 X141.845 Y103.665 E0.03823
G1 X142.912 Y104.255 E0.03823
G1 X143.908 Y104.957 E0.03823
G1 X144.824 Y105.764 E0.03824
G1 X145.669 Y106.696 E0.03947
G1 X146.366 Y107.647 E0.03697
G1 X146.975 Y108.703 E0.03823
G1 X147.467 Y109.819 E0.03823
G1 X147.836 Y110.981 E0.03823
G1 X148.076 Y112.176 E0.03823
G1 X148.186 Y113.391 E0.03823
G1 X148.164 Y114.610 E0.03823
G1 X148.011 Y115.819 E0.03823
G1 X147.727 Y117.005 E0.03823
G1 X147.317 Y118.153 E0.03823
G1 X146.785 Y119.250 E0.03823
G1 X146.138 Y120.283 E0.03823
G1 X145.382 Y121.241 E0.03823
G1 X144.528 Y122.110 E0.03823
G1 X143.585 Y122.883 E0.03823
G1 X142.563 Y123.549 E0.03823
G1 X141.476 Y124.100 E0.03823
G1 X140.335 Y124.531 E0.03823
G1 X139.155 Y124.836 E0.03823
G1 X137.948 Y125.012 E0.03823
G1 X136.730 Y125.056 E0.03823
G1 X135.514 Y124.968 E0.03823
G1 X134.314 Y124.749 E0.03823
G1 X133.146 Y124.401 E0.03823
G1 X132.021 Y123.930 E0.03823
G1 X130.955 Y123.339 E0.03823
G1 X129.958 Y122.637 E0.03823
G1 X129.043 Y121.831 E0.03823
G1 X128.221 Y120.931 E0.03823
G1 X127.500 Y119.947 E0.03824
G1 X126.875 Y118.854 E0.03947
G1 X126.399 Y117.775 E0.03697
G1 X126.031 Y116.613 E0.03823
G1 X125.790 Y115.418 E0.03823
G1 X125.680 Y114.204 E0.03823
G1 X125.702 Y112.985 E0.03823
G1 X125.856 Y111.775 E0.03824
G1 X126.153 Y110.551 E0.03947
G1 X126.550 Y109.441 E0.03697
G1 X127.081 Y108.344 E0.03823
G1 X127.697 Y107.362 E0.03635
G1 X127.561 Y106.948 F7200.000
G1 F5760
G1 X128.484 Y106.354 E-0.44295
G1 F5760
